; G-Code generated by Simplify3D(R) Version 4.0.1
; Sep 30, 2018 at 5:14:04 PM
; Settings Summary
;   processName,Process1
;   applyToModels,mc_testmodel1_p1
;   profileName,Cube/Prometheus4x/filaswitch/Duet
;   profileVersion,2018-06-14 20:28:47
;   baseProfile,Default
;   printMaterial,PLA
;   printQuality,Medium
;   printExtruders,All Extruders
;   extruderName,Extruder 1,Extruder 2,Extruder 3,Extruder 4,Support Extruder
;   extruderToolheadNumber,0,1,2,3,5
;   extruderDiameter,0.4,0.4,0.4,0.4,0.4
;   extruderAutoWidth,0,0,0,0,0
;   extruderWidth,0.45,0.45,0.45,0.45,0.45
;   extrusionMultiplier,1,1,1,1,1
;   extruderUseRetract,1,1,1,1,1
;   extruderRetractionDistance,1.6,1.6,1.6,1.6,1.6
;   extruderExtraRestartDistance,0,0,0,0,0
;   extruderRetractionZLift,0.5,0.5,0.5,0.5,0.5
;   extruderRetractionSpeed,2400,2400,2400,2400,2400
;   extruderUseCoasting,0,0,0,0,0
;   extruderCoastingDistance,0.2,0.2,0.2,0.2,0.2
;   extruderUseWipe,1,1,1,1,1
;   extruderWipeDistance,5,5,5,5,5
;   primaryExtruder,0
;   layerHeight,0.2
;   topSolidLayers,5
;   bottomSolidLayers,5
;   perimeterOutlines,2
;   printPerimetersInsideOut,0
;   startPointOption,2
;   startPointOriginX,0
;   startPointOriginY,0
;   sequentialIslands,0
;   spiralVaseMode,0
;   firstLayerHeightPercentage,100
;   firstLayerWidthPercentage,110
;   firstLayerUnderspeed,0.5
;   useRaft,0
;   raftExtruder,0
;   raftTopLayers,3
;   raftBaseLayers,2
;   raftOffset,3
;   raftSeparationDistance,0.14
;   raftTopInfill,100
;   aboveRaftSpeedMultiplier,0.3
;   useSkirt,1
;   skirtExtruder,0
;   skirtLayers,1
;   skirtOutlines,5
;   skirtOffset,0
;   usePrimePillar,0
;   primePillarExtruder,999
;   primePillarWidth,12
;   primePillarLocation,7
;   primePillarSpeedMultiplier,1
;   useOozeShield,0
;   oozeShieldExtruder,999
;   oozeShieldOffset,2
;   oozeShieldOutlines,1
;   oozeShieldSidewallShape,1
;   oozeShieldSidewallAngle,30
;   oozeShieldSpeedMultiplier,1
;   infillExtruder,0
;   internalInfillPattern,Rectilinear
;   externalInfillPattern,Rectilinear
;   infillPercentage,10
;   outlineOverlapPercentage,20
;   infillExtrusionWidthPercentage,105
;   minInfillLength,5
;   infillLayerInterval,1
;   internalInfillAngles,45,-45
;   overlapInternalInfillAngles,0
;   externalInfillAngles,45,-45
;   generateSupport,0
;   supportExtruder,2
;   supportInfillPercentage,30
;   supportExtraInflation,0
;   supportBaseLayers,0
;   denseSupportExtruder,1
;   denseSupportLayers,4
;   denseSupportInfillPercentage,100
;   supportLayerInterval,1
;   supportHorizontalPartOffset,0.3
;   supportUpperSeparationLayers,0
;   supportLowerSeparationLayers,0
;   supportType,0
;   supportGridSpacing,1
;   maxOverhangAngle,45
;   supportAngles,0
;   temperatureName,Extruder 1,Extruder 2,Extruder 3,Extruder 4,Heated Bed
;   temperatureNumber,0,1,2,3,0
;   temperatureSetpointCount,2,2,2,2,1
;   temperatureSetpointLayers,1,2,1,2,1,2,1,2,1
;   temperatureSetpointTemperatures,215,205,215,205,215,205,215,205,60
;   temperatureStabilizeAtStartup,1,1,1,1,1
;   temperatureHeatedBed,0,0,0,0,1
;   temperatureRelayBetweenLayers,0,0,0,0,0
;   temperatureRelayBetweenLoops,0,0,0,0,0
;   fanLayers,1,2
;   fanSpeeds,0,100
;   blipFanToFullPower,0
;   adjustSpeedForCooling,1
;   minSpeedLayerTime,1
;   minCoolingSpeedSlowdown,75
;   increaseFanForCooling,1
;   minFanLayerTime,1
;   maxCoolingFanSpeed,50
;   increaseFanForBridging,1
;   bridgingFanSpeed,50
;   use5D,1
;   relativeEdistances,1
;   allowEaxisZeroing,1
;   independentExtruderAxes,0
;   includeM10123,0
;   stickySupport,1
;   applyToolheadOffsets,0
;   gcodeXoffset,0
;   gcodeYoffset,0
;   gcodeZoffset,0
;   overrideMachineDefinition,1
;   machineTypeOverride,0
;   strokeXoverride,145
;   strokeYoverride,148
;   strokeZoverride,148.1
;   originOffsetXoverride,0
;   originOffsetYoverride,0
;   originOffsetZoverride,0
;   homeXdirOverride,-1
;   homeYdirOverride,-1
;   homeZdirOverride,-1
;   flipXoverride,1
;   flipYoverride,-1
;   flipZoverride,1
;   toolheadOffsets,0,0|0,0|0,0|0,0|0,0|0,0
;   overrideFirmwareConfiguration,1
;   firmwareTypeOverride,RepRap (Marlin/Repetier/Sprinter)
;   GPXconfigOverride,r2
;   baudRateOverride,250000
;   overridePrinterModels,0
;   printerModelsOverride
;   startingGcode,; START SCRIPT START,G90,T0,M80,G92 E0  ; reset extruder position,M80     ; turn on power,M104 S[extruder0_temperature],M140 S[bed0_temperature],M190 S[bed0_temperature],G28                                ;move to endstops,G29                                ;autolevel,M109 S[extruder0_temperature] ,,M572 D0:3 S0.40       ; Duet Pressure Advance,; START SCRIPT END
;   layerChangeGcode,
;   retractionGcode,
;   toolChangeGcode,M204 P2000,; TOOL CHANGE,T[new_tool]
;   endingGcode,; END SCRIPT START,M104 S0                           ;extruder heater off,M140 S0                           ;heated bed heater off (if you have it),G91                                  ;relative positioning,G1 E-3 F300                     ;retract the filament a bit before lifting the nozzle to release some of the pressure,G90                                  ;absolute positioning,M107                                ; turn off fan,G1 Z145 F2500                ; move bed to bottom lest it drops down after motors off,G1 X15 Y145 F6000         ; home X axis,M84                                  ; disable motors,G4  P300000                     ; wait 5min,M81                                 ; turn off ATX,; END SCRIPT END
;   exportFileFormat,gcode
;   celebration,0
;   celebrationSong,Funky Town
;   postProcessing,
;   defaultSpeed,3000
;   outlineUnderspeed,0.4
;   solidInfillUnderspeed,0.8
;   supportUnderspeed,0.8
;   rapidXYspeed,9000
;   rapidZspeed,1800
;   minBridgingArea,25
;   bridgingExtraInflation,0
;   bridgingExtrusionMultiplier,1
;   bridgingSpeedMultiplier,1
;   useFixedBridgingAngle,0
;   fixedBridgingAngle,0
;   applyBridgingToPerimeters,0
;   filamentDiameters,1.75|1.75|1.75|1.75|1.75|1.75
;   filamentPricesPerKg,46|46|46|46|46|46
;   filamentDensities,1.25|1.25|1.25|1.25|1.25|1.25
;   useMinPrintHeight,0
;   minPrintHeight,0
;   useMaxPrintHeight,0
;   maxPrintHeight,0
;   useDiaphragm,0
;   diaphragmLayerInterval,20
;   robustSlicing,1
;   mergeAllIntoSolid,0
;   onlyRetractWhenCrossingOutline,0
;   retractBetweenLayers,1
;   useRetractionMinTravel,1
;   retractionMinTravel,1
;   retractWhileWiping,0
;   onlyWipeOutlines,0
;   avoidCrossingOutline,0
;   maxMovementDetourFactor,3
;   toolChangeRetractionDistance,0
;   toolChangeExtraRestartDistance,0
;   toolChangeRetractionSpeed,4800
;   externalThinWallType,0
;   internalThinWallType,2
;   thinWallAllowedOverlapPercentage,10
;   singleExtrusionMinLength,1
;   singleExtrusionMinPrintingWidthPercentage,50
;   singleExtrusionMaxPrintingWidthPercentage,200
;   singleExtrusionEndpointExtension,0.2
;   horizontalSizeCompensation,0
G90
M83
M106 S0
; START SCRIPT START
G90
T0
M80
G92 E0  ; reset extruder position
M80     ; turn on power
M104 S215
M140 S60
M190 S60
G28                                ;move to endstops
G29                                ;autolevel
M109 S215 
M572 D0:3 S0.40       ; Duet Pressure Advance
; START SCRIPT END
G1 E-1.6000 F2400
G1 Z0.700 F1800
; process Process1
; layer 1, Z = 0.200
M104 S215 T1
M104 S215 T2
M104 S215 T3
M204 P2000
; TOOL CHANGE
T0
; tool H0.200 W0.495
; skirt
G1 X61.661 Y61.975 F9000
G1 Z0.200 F1800
G1 E1.6000 F720
G1 X83.339 Y61.975 E0.8922 F1500
G1 X84.525 Y63.161 E0.0690
G1 X84.525 Y84.839 E0.8922
G1 X83.339 Y86.025 E0.0690
G1 X61.661 Y86.025 E0.8922
G1 X60.475 Y84.839 E0.0690
G1 X60.475 Y63.161 E0.8922
G1 X61.661 Y61.975 E0.0690
G1 E-1.6000 F2400
G1 X66.661 Y61.975 F3000
G1 Z0.700 F1800
G1 X61.848 Y62.425 F9000
G1 Z0.200 F1800
G1 E1.6000 F2400
G1 X83.152 Y62.425 E0.8769 F1500
G1 X84.075 Y63.348 E0.0537
G1 X84.075 Y84.652 E0.8769
G1 X83.152 Y85.575 E0.0537
G1 X61.848 Y85.575 E0.8769
G1 X60.925 Y84.652 E0.0537
G1 X60.925 Y63.348 E0.8769
G1 X61.848 Y62.425 E0.0537
G1 E-1.6000 F2400
G1 X66.848 Y62.425 F3000
G1 Z0.700 F1800
G1 X62.034 Y62.875 F9000
G1 Z0.200 F1800
G1 E1.6000 F2400
G1 X82.966 Y62.875 E0.8615 F1500
G1 X83.625 Y63.534 E0.0384
G1 X83.625 Y84.466 E0.8615
G1 X82.966 Y85.125 E0.0384
G1 X62.034 Y85.125 E0.8615
G1 X61.375 Y84.466 E0.0384
G1 X61.375 Y63.534 E0.8615
G1 X62.034 Y62.875 E0.0384
G1 E-1.6000 F2400
G1 X67.034 Y62.875 F3000
G1 Z0.700 F1800
G1 X62.220 Y63.325 F9000
G1 Z0.200 F1800
G1 E1.6000 F2400
G1 X82.780 Y63.325 E0.8462 F1500
G1 X63.535 Y72.146 E0.3763
G1 X63.535 Y72.783 E0.0238
G1 X71.283 Y65.035 E0.4100
G1 X71.919 Y65.035 E0.0238
G1 X63.535 Y73.419 E0.4437
G1 X63.535 Y74.055 E0.0238
G1 X72.555 Y65.035 E0.4773
G1 E-1.6000 F2400
G1 X69.020 Y68.571 F3000
; layer end
; END SCRIPT START
M104 S0                           ;extruder heater off
M140 S0                           ;heated bed heater off (if you have it)
G91                                  ;relative positioning
G1 E-3 F300                     ;retract the filament a bit before lifting the nozzle to release some of the pressure
G90                                  ;absolute positioning
M107                                ; turn off fan
G1 Z145 F2500                ; move bed to bottom lest it drops down after motors off
G1 X15 Y145 F6000         ; home X axis
M84                                  ; disable motors
G4  P300000                     ; wait 5min
M81                                 ; turn off ATX
; END SCRIPT END
; Build Summary
;   Build time: 0 hours 43 minutes
;   Filament length: 2706.3 mm (2.71 m)
;   Plastic volume: 6509.36 mm^3 (6.51 cc)
;   Plastic weight: 8.14 g (0.02 lb)
;   Material cost: 0.37
