; G-Code generated by Simplify3D(R) Version 4.0.1
; Sep 30, 2018 at 5:14:04 PM
; Settings Summary
;   processName,Process1
;   applyToModels,mc_testmodel1_p1
;   profileName,Cube/Prometheus4x/filaswitch/Duet
;   profileVersion,2018-06-14 20:28:47
;   baseProfile,Default
;   printMaterial,PLA
;   printQuality,Medium
;   printExtruders,All Extruders
;   extruderName,Extruder 1,Extruder 2,Extruder 3,Extruder 4,Support Extruder
;   extruderToolheadNumber,0,1,2,3,5
;   extruderDiameter,0.4,0.4,0.4,0.4,0.4
;   extruderAutoWidth,0,0,0,0,0
;   extruderWidth,0.45,0.45,0.45,0.45,0.45
;   extrusionMultiplier,1,1,1,1,1
;   extruderUseRetract,1,1,1,1,1
;   extruderRetractionDistance,1.6,1.6,1.6,1.6,1.6
;   extruderExtraRestartDistance,0,0,0,0,0
;   extruderRetractionZLift,0.5,0.5,0.5,0.5,0.5
;   extruderRetractionSpeed,2400,2400,2400,2400,2400
;   extruderUseCoasting,0,0,0,0,0
;   extruderCoastingDistance,0.2,0.2,0.2,0.2,0.2
;   extruderUseWipe,1,1,1,1,1
;   extruderWipeDistance,5,5,5,5,5
;   primaryExtruder,0
;   layerHeight,0.2
;   topSolidLayers,5
;   bottomSolidLayers,5
;   perimeterOutlines,2
;   printPerimetersInsideOut,0
;   startPointOption,2
;   startPointOriginX,0
;   startPointOriginY,0
;   sequentialIslands,0
;   spiralVaseMode,0
;   firstLayerHeightPercentage,100
;   firstLayerWidthPercentage,110
;   firstLayerUnderspeed,0.5
;   useRaft,0
;   raftExtruder,0
;   raftTopLayers,3
;   raftBaseLayers,2
;   raftOffset,3
;   raftSeparationDistance,0.14
;   raftTopInfill,100
;   aboveRaftSpeedMultiplier,0.3
;   useSkirt,1
;   skirtExtruder,0
;   skirtLayers,1
;   skirtOutlines,5
;   skirtOffset,0
;   usePrimePillar,0
;   primePillarExtruder,999
;   primePillarWidth,12
;   primePillarLocation,7
;   primePillarSpeedMultiplier,1
;   useOozeShield,0
;   oozeShieldExtruder,999
;   oozeShieldOffset,2
;   oozeShieldOutlines,1
;   oozeShieldSidewallShape,1
;   oozeShieldSidewallAngle,30
;   oozeShieldSpeedMultiplier,1
;   infillExtruder,0
;   internalInfillPattern,Rectilinear
;   externalInfillPattern,Rectilinear
;   infillPercentage,10
;   outlineOverlapPercentage,20
;   infillExtrusionWidthPercentage,105
;   minInfillLength,5
;   infillLayerInterval,1
;   internalInfillAngles,45,-45
;   overlapInternalInfillAngles,0
;   externalInfillAngles,45,-45
;   generateSupport,0
;   supportExtruder,2
;   supportInfillPercentage,30
;   supportExtraInflation,0
;   supportBaseLayers,0
;   denseSupportExtruder,1
;   denseSupportLayers,4
;   denseSupportInfillPercentage,100
;   supportLayerInterval,1
;   supportHorizontalPartOffset,0.3
;   supportUpperSeparationLayers,0
;   supportLowerSeparationLayers,0
;   supportType,0
;   supportGridSpacing,1
;   maxOverhangAngle,45
;   supportAngles,0
;   temperatureName,Extruder 1,Extruder 2,Extruder 3,Extruder 4,Heated Bed
;   temperatureNumber,0,1,2,3,0
;   temperatureSetpointCount,2,2,2,2,1
;   temperatureSetpointLayers,1,2,1,2,1,2,1,2,1
;   temperatureSetpointTemperatures,215,205,215,205,215,205,215,205,60
;   temperatureStabilizeAtStartup,1,1,1,1,1
;   temperatureHeatedBed,0,0,0,0,1
;   temperatureRelayBetweenLayers,0,0,0,0,0
;   temperatureRelayBetweenLoops,0,0,0,0,0
;   fanLayers,1,2
;   fanSpeeds,0,100
;   blipFanToFullPower,0
;   adjustSpeedForCooling,1
;   minSpeedLayerTime,1
;   minCoolingSpeedSlowdown,75
;   increaseFanForCooling,1
;   minFanLayerTime,1
;   maxCoolingFanSpeed,50
;   increaseFanForBridging,1
;   bridgingFanSpeed,50
;   use5D,1
;   relativeEdistances,1
;   allowEaxisZeroing,1
;   independentExtruderAxes,0
;   includeM10123,0
;   stickySupport,1
;   applyToolheadOffsets,0
;   gcodeXoffset,0
;   gcodeYoffset,0
;   gcodeZoffset,0
;   overrideMachineDefinition,1
;   machineTypeOverride,0
;   strokeXoverride,145
;   strokeYoverride,148
;   strokeZoverride,148.1
;   originOffsetXoverride,0
;   originOffsetYoverride,0
;   originOffsetZoverride,0
;   homeXdirOverride,-1
;   homeYdirOverride,-1
;   homeZdirOverride,-1
;   flipXoverride,1
;   flipYoverride,-1
;   flipZoverride,1
;   toolheadOffsets,0,0|0,0|0,0|0,0|0,0|0,0
;   overrideFirmwareConfiguration,1
;   firmwareTypeOverride,RepRap (Marlin/Repetier/Sprinter)
;   GPXconfigOverride,r2
;   baudRateOverride,250000
;   overridePrinterModels,0
;   printerModelsOverride
;   startingGcode,; START SCRIPT START,G90,T0,M80,G92 E0  ; reset extruder position,M80     ; turn on power,M104 S[extruder0_temperature],M140 S[bed0_temperature],M190 S[bed0_temperature],G28                                ;move to endstops,G29                                ;autolevel,M109 S[extruder0_temperature] ,,M572 D0:3 S0.40       ; Duet Pressure Advance,; START SCRIPT END
;   layerChangeGcode,
;   retractionGcode,
;   toolChangeGcode,M204 P2000,; TOOL CHANGE,T[new_tool]
;   endingGcode,; END SCRIPT START,M104 S0                           ;extruder heater off,M140 S0                           ;heated bed heater off (if you have it),G91                                  ;relative positioning,G1 E-3 F300                     ;retract the filament a bit before lifting the nozzle to release some of the pressure,G90                                  ;absolute positioning,M107                                ; turn off fan,G1 Z145 F2500                ; move bed to bottom lest it drops down after motors off,G1 X15 Y145 F6000         ; home X axis,M84                                  ; disable motors,G4  P300000                     ; wait 5min,M81                                 ; turn off ATX,; END SCRIPT END
;   exportFileFormat,gcode
;   celebration,0
;   celebrationSong,Funky Town
;   postProcessing,
;   defaultSpeed,3000
;   outlineUnderspeed,0.4
;   solidInfillUnderspeed,0.8
;   supportUnderspeed,0.8
;   rapidXYspeed,9000
;   rapidZspeed,1800
;   minBridgingArea,25
;   bridgingExtraInflation,0
;   bridgingExtrusionMultiplier,1
;   bridgingSpeedMultiplier,1
;   useFixedBridgingAngle,0
;   fixedBridgingAngle,0
;   applyBridgingToPerimeters,0
;   filamentDiameters,1.75|1.75|1.75|1.75|1.75|1.75
;   filamentPricesPerKg,46|46|46|46|46|46
;   filamentDensities,1.25|1.25|1.25|1.25|1.25|1.25
;   useMinPrintHeight,0
;   minPrintHeight,0
;   useMaxPrintHeight,0
;   maxPrintHeight,0
;   useDiaphragm,0
;   diaphragmLayerInterval,20
;   robustSlicing,1
;   mergeAllIntoSolid,0
;   onlyRetractWhenCrossingOutline,0
;   retractBetweenLayers,1
;   useRetractionMinTravel,1
;   retractionMinTravel,1
;   retractWhileWiping,0
;   onlyWipeOutlines,0
;   avoidCrossingOutline,0
;   maxMovementDetourFactor,3
;   toolChangeRetractionDistance,0
;   toolChangeExtraRestartDistance,0
;   toolChangeRetractionSpeed,4800
;   externalThinWallType,0
;   internalThinWallType,2
;   thinWallAllowedOverlapPercentage,10
;   singleExtrusionMinLength,1
;   singleExtrusionMinPrintingWidthPercentage,50
;   singleExtrusionMaxPrintingWidthPercentage,200
;   singleExtrusionEndpointExtension,0.2
;   horizontalSizeCompensation,0
G90
M83
M106 S0
; START SCRIPT START
G90
T0
M80
G92 E0  ; reset extruder position
M80     ; turn on power
M104 S215
M140 S60
M190 S60
G28                                ;move to endstops
G29                                ;autolevel
M109 S215 
M572 D0:3 S0.40       ; Duet Pressure Advance
; START SCRIPT END
G1 E-1.6000 F2400
G1 Z0.700 F1800
; process Process1
; layer 1, Z = 0.200
M104 S215 T1
M104 S215 T2
M104 S215 T3
M204 P2000
; TOOL CHANGE
T0
; tool H0.200 W0.495
; skirt
G1 X61.661 Y61.975 F9000
G1 Z0.200 F1800
G1 E1.6000 F720
G1 X83.339 Y61.975 E0.8922 F1500
G1 X84.525 Y63.161 E0.0690
G1 X84.525 Y84.839 E0.8922
G1 X83.339 Y86.025 E0.0690
G1 X61.661 Y86.025 E0.8922
G1 X60.475 Y84.839 E0.0690
G1 X60.475 Y63.161 E0.8922
G1 X61.661 Y61.975 E0.0690
G1 E-1.6000 F2400
G1 X66.661 Y61.975 F3000
G1 Z0.700 F1800
G1 X61.848 Y62.425 F9000
G1 Z0.200 F1800
G1 E1.6000 F2400
G1 X83.152 Y62.425 E0.8769 F1500
G1 X84.075 Y63.348 E0.0537
G1 X84.075 Y84.652 E0.8769
G1 X83.152 Y85.575 E0.0537
G1 X61.848 Y85.575 E0.8769
G1 X60.925 Y84.652 E0.0537
G1 X60.925 Y63.348 E0.8769
G1 X61.848 Y62.425 E0.0537
G1 E-1.6000 F2400
G1 X66.848 Y62.425 F3000
G1 Z0.700 F1800
G1 X62.034 Y62.875 F9000
G1 Z0.200 F1800
G1 E1.6000 F2400
G1 X82.966 Y62.875 E0.8615 F1500
G1 X83.625 Y63.534 E0.0384
G1 X83.625 Y84.466 E0.8615
G1 X82.966 Y85.125 E0.0384
G1 X62.034 Y85.125 E0.8615
G1 X61.375 Y84.466 E0.0384
G1 X61.375 Y63.534 E0.8615
G1 X62.034 Y62.875 E0.0384
G1 E-1.6000 F2400
G1 X67.034 Y62.875 F3000
G1 Z0.700 F1800
G1 X62.220 Y63.325 F9000
G1 Z0.200 F1800
G1 E1.6000 F2400
G1 X82.780 Y63.325 E0.8462 F1500
G1 X83.175 Y63.720 E0.0230
G1 X83.175 Y84.280 E0.8462
G1 X82.780 Y84.675 E0.0230
G1 X62.220 Y84.675 E0.8462
G1 X61.825 Y84.280 E0.0230
G1 X61.825 Y63.720 E0.8462
G1 X62.220 Y63.325 E0.0230
G1 E-1.6000 F2400
G1 X67.220 Y63.325 F3000
G1 Z0.700 F1800
G1 X62.407 Y63.775 F9000
G1 Z0.200 F1800
G1 E1.6000 F2400
G1 X82.593 Y63.775 E0.8309 F1500
G1 X82.725 Y63.907 E0.0077
G1 X82.725 Y84.093 E0.8309
G1 X82.593 Y84.225 E0.0077
G1 X62.407 Y84.225 E0.8309
G1 X62.275 Y84.093 E0.0077
G1 X62.275 Y63.907 E0.8309
G1 X62.407 Y63.775 E0.0077
G1 X67.407 Y63.775 F3000
; outer perimeter
G1 X67.760 Y64.247 F9000
G1 X62.748 Y69.260 E0.2918 F600
G1 X62.748 Y64.248 E0.2063
G1 X67.760 Y64.248 E0.2063
G1 X64.225 Y67.783 F3000
; inner perimeter
G1 X63.518 Y67.790 F9000
G1 X63.242 Y67.676 E0.0123 F1050
G1 X63.242 Y64.743 E0.1208
G1 X66.176 Y64.743 E0.1208
G1 X66.290 Y65.018 E0.0123
G1 X63.518 Y67.790 E0.1614
G1 E-1.6000 F2400
G1 X63.242 Y67.676 F3000
G1 X63.242 Y64.743 F3000
G1 X65.011 Y64.743 F3000
G1 Z0.700 F1800
; gap fill
G1 X66.649 Y64.648 F9000
G1 Z0.200 F1800
G1 E1.6000 F2400
G1 X66.720 Y64.720 E0.0042 F1200
G1 E-1.6000 F2400
G1 X66.649 Y64.648 F3000
G1 Z0.700 F1800
G1 X63.148 Y68.149 F9000
G1 Z0.200 F1800
G1 E1.6000 F2400
G1 X63.220 Y68.220 E0.0042 F1200
G1 E-1.6000 F2400
G1 X63.148 Y68.149 F3000
G1 Z0.700 F1800
; solid layer
G1 X63.924 Y66.824 F9000
G1 Z0.200 F1800
G1 E1.6000 F2400
G1 X63.639 Y66.539 E0.0166 F1200
G1 X63.639 Y65.839 E0.0288
G1 X64.274 Y66.474 E0.0370
G1 X64.624 Y66.124 E0.0204
G1 X63.639 Y65.138 E0.0574
G1 X64.339 Y65.138 E0.0288
G1 X64.974 Y65.774 E0.0370
G1 X65.324 Y65.424 E0.0204
G1 X65.039 Y65.138 E0.0166
G1 E-1.6000 F2400
G1 X65.324 Y65.424 F3000
G1 X64.974 Y65.774 F3000
G1 X64.339 Y65.138 F3000
G1 X63.639 Y65.138 F3000
G1 X64.624 Y66.124 F3000
G1 X64.274 Y66.474 F3000
G1 X63.839 Y66.039 F3000
G1 Z0.700 F1800
; outer perimeter
G1 X62.748 Y78.740 F9000
G1 Z0.200 F1800
G1 E1.6000 F2400
G1 X67.760 Y83.752 E0.2918 F600
G1 X62.748 Y83.752 E0.2063
G1 X62.748 Y78.740 E0.2063
G1 X66.283 Y82.275 F3000
; inner perimeter
G1 X66.290 Y82.982 F9000
G1 X66.176 Y83.257 E0.0123 F1050
G1 X63.242 Y83.257 E0.1208
G1 X63.242 Y80.324 E0.1208
G1 X63.518 Y80.210 E0.0123
G1 X66.290 Y82.982 E0.1614
G1 X66.176 Y83.257 F3000
G1 X63.242 Y83.257 F3000
G1 X63.243 Y81.489 F3000
; solid layer
G1 X63.639 Y81.239 F9000
G1 X65.261 Y82.862 E0.0944 F1200
G1 X64.561 Y82.862 E0.0288
G1 X63.639 Y81.939 E0.0537
G1 X63.639 Y82.639 E0.0288
G1 X63.861 Y82.862 E0.0129
G1 E-1.6000 F2400
G1 X63.639 Y82.639 F3000
G1 X63.639 Y81.939 F3000
G1 X64.561 Y82.862 F3000
G1 X65.261 Y82.862 F3000
G1 X63.859 Y81.460 F3000
G1 Z0.700 F1800
; outer perimeter
G1 X77.240 Y83.753 F9000
G1 Z0.200 F1800
G1 E1.6000 F2400
G1 X82.252 Y78.740 E0.2918 F600
G1 X82.252 Y83.752 E0.2063
G1 X77.240 Y83.752 E0.2063
G1 X80.775 Y80.217 F3000
; inner perimeter
G1 X81.482 Y80.210 F9000
G1 X81.757 Y80.324 E0.0123 F1050
G1 X81.757 Y83.257 E0.1208
G1 X78.824 Y83.257 E0.1208
G1 X78.710 Y82.982 E0.0123
G1 X81.482 Y80.210 E0.1614
G1 E-1.6000 F2400
G1 X81.757 Y80.324 F3000
G1 X81.757 Y83.257 F3000
G1 X79.989 Y83.257 F3000
G1 Z0.700 F1800
; gap fill
G1 X78.351 Y83.352 F9000
G1 Z0.200 F1800
G1 E1.6000 F2400
G1 X78.279 Y83.280 E0.0042 F1200
G1 E-1.6000 F2400
G1 X78.351 Y83.352 F3000
G1 Z0.700 F1800
G1 X81.852 Y79.851 F9000
G1 Z0.200 F1800
G1 E1.6000 F2400
G1 X81.780 Y79.779 E0.0042 F1200
G1 E-1.6000 F2400
G1 X81.852 Y79.851 F3000
G1 Z0.700 F1800
; solid layer
G1 X81.076 Y81.176 F9000
G1 Z0.200 F1800
G1 E1.6000 F2400
G1 X81.362 Y81.461 E0.0166 F1200
G1 X81.362 Y82.161 E0.0288
G1 X80.726 Y81.526 E0.0370
G1 X80.376 Y81.876 E0.0204
G1 X81.362 Y82.861 E0.0574
G1 X80.661 Y82.862 E0.0288
G1 X80.026 Y82.226 E0.0370
G1 X79.676 Y82.576 E0.0204
G1 X79.961 Y82.862 E0.0166
G1 E-1.6000 F2400
G1 X79.676 Y82.576 F3000
G1 X80.026 Y82.226 F3000
G1 X80.661 Y82.862 F3000
G1 X81.362 Y82.862 F3000
G1 X80.376 Y81.876 F3000
G1 X80.726 Y81.526 F3000
G1 X81.160 Y81.960 F3000
G1 Z0.700 F1800
; outer perimeter
G1 X82.253 Y69.260 F9000
G1 Z0.200 F1800
G1 E1.6000 F2400
G1 X77.240 Y64.248 E0.2918 F600
G1 X82.252 Y64.248 E0.2063
G1 X82.252 Y69.260 E0.2063
G1 X78.717 Y65.725 F3000
; inner perimeter
G1 X78.710 Y65.018 F9000
G1 X78.824 Y64.743 E0.0123 F1050
G1 X81.757 Y64.743 E0.1208
G1 X81.757 Y67.676 E0.1208
G1 X81.482 Y67.790 E0.0123
G1 X78.710 Y65.018 E0.1614
G1 X78.824 Y64.743 F3000
G1 X81.757 Y64.743 F3000
G1 X81.757 Y66.511 F3000
; solid layer
G1 X81.362 Y66.761 F9000
G1 X79.739 Y65.138 E0.0944 F1200
G1 X80.439 Y65.138 E0.0288
G1 X81.362 Y66.061 E0.0537
G1 X81.362 Y65.361 E0.0288
G1 X81.139 Y65.138 E0.0129
G1 E0.0000 F4800
G1 X81.362 Y65.361 F3000
G1 X81.362 Y66.061 F3000
G1 X80.439 Y65.138 F3000
G1 X79.739 Y65.138 F3000
G1 X81.141 Y66.540 F3000
G1 Z0.700 F1800
; process Process3
; layer 2, Z = 0.200
M204 P2000
; TOOL CHANGE
T2
; tool H0.200 W0.495
; outer perimeter
G1 X82.253 Y69.960 F9000
G1 Z0.200 F1800
G1 X82.252 Y78.040 E0.3325 F600
G1 X76.540 Y83.752 E0.3325
G1 X68.460 Y83.752 E0.3325
G1 X62.748 Y78.040 E0.3325
G1 X62.748 Y69.960 E0.3325
G1 X68.460 Y64.248 E0.3325
G1 X76.540 Y64.248 E0.3325
G1 X82.252 Y69.960 E0.3325
G1 E-1.6000 F2400
G1 X82.253 Y74.960 F3000
G1 Z0.700 F1800
; inner perimeter
G1 X81.757 Y77.835 F9000
G1 Z0.200 F1800
G1 E1.6000 F2400
G1 X76.335 Y83.257 E0.3157 F1050
G1 X68.665 Y83.257 E0.3157
G1 X63.242 Y77.835 E0.3157
G1 X63.242 Y70.165 E0.3157
G1 X68.665 Y64.743 E0.3157
G1 X76.335 Y64.743 E0.3157
G1 X81.757 Y70.165 E0.3157
G1 X81.757 Y77.835 E0.3157
G1 E-1.6000 F2400
G1 X78.222 Y81.370 F3000
G1 Z0.700 F1800
; solid layer
G1 X69.461 Y82.862 F9000
G1 Z0.200 F1800
G1 E1.6000 F2400
G1 X63.639 Y77.039 E0.3389 F1200
G1 X63.639 Y76.339 E0.0288
G1 X70.161 Y82.862 E0.3797
G1 X70.861 Y82.862 E0.0288
G1 X63.639 Y75.639 E0.4204
G1 X63.639 Y74.939 E0.0288
G1 X71.561 Y82.862 E0.4612
G1 X72.261 Y82.862 E0.0288
G1 X63.639 Y74.239 E0.5019
G1 X63.639 Y73.539 E0.0288
G1 X72.961 Y82.862 E0.5427
G1 X73.661 Y82.862 E0.0288
G1 X63.639 Y72.839 E0.5834
G1 X63.639 Y72.139 E0.0288
G1 X74.361 Y82.862 E0.6241
G1 X75.061 Y82.862 E0.0288
G1 X63.639 Y71.439 E0.6649
G1 X63.639 Y70.739 E0.0288
G1 X75.761 Y82.862 E0.7056
G1 X76.171 Y82.862 E0.0168
G1 X76.316 Y82.716 E0.0085
G1 X63.784 Y70.184 E0.7295
G1 X64.134 Y69.834 E0.0204
G1 X76.666 Y82.366 E0.7295
G1 X77.016 Y82.016 E0.0204
G1 X64.484 Y69.484 E0.7295
G1 X64.834 Y69.134 E0.0204
G1 X77.366 Y81.666 E0.7295
G1 X77.716 Y81.316 E0.0204
G1 X65.184 Y68.784 E0.7295
G1 X65.534 Y68.434 E0.0204
G1 X78.066 Y80.966 E0.7295
G1 X78.416 Y80.616 E0.0204
G1 X65.884 Y68.084 E0.7295
G1 X66.234 Y67.734 E0.0204
G1 X78.766 Y80.266 E0.7295
G1 X79.116 Y79.916 E0.0204
G1 X66.584 Y67.384 E0.7295
G1 X66.934 Y67.034 E0.0204
G1 X79.466 Y79.566 E0.7295
G1 X79.816 Y79.216 E0.0204
G1 X67.284 Y66.684 E0.7295
G1 X67.634 Y66.334 E0.0204
G1 X80.166 Y78.866 E0.7295
G1 X80.516 Y78.516 E0.0204
G1 X67.984 Y65.984 E0.7295
G1 X68.334 Y65.634 E0.0204
G1 X80.866 Y78.166 E0.7295
G1 X81.216 Y77.816 E0.0204
G1 X68.684 Y65.284 E0.7295
G1 X68.829 Y65.138 E0.0085
G1 X69.239 Y65.138 E0.0168
