; generated by Slic3r Prusa Edition 1.41.0+win64 on 2018-09-30 at 21:33:43

; 

; external perimeters extrusion width = 0.45mm
; perimeters extrusion width = 0.45mm
; infill extrusion width = 0.45mm
; solid infill extrusion width = 0.45mm
; top infill extrusion width = 0.40mm
; first layer extrusion width = 0.42mm

; external perimeters extrusion width = 0.45mm
; perimeters extrusion width = 0.45mm
; infill extrusion width = 0.45mm
; solid infill extrusion width = 0.45mm
; top infill extrusion width = 0.40mm
; first layer extrusion width = 0.42mm

; external perimeters extrusion width = 0.45mm
; perimeters extrusion width = 0.45mm
; infill extrusion width = 0.45mm
; solid infill extrusion width = 0.45mm
; top infill extrusion width = 0.40mm
; first layer extrusion width = 0.42mm

; external perimeters extrusion width = 0.45mm
; perimeters extrusion width = 0.45mm
; infill extrusion width = 0.45mm
; solid infill extrusion width = 0.45mm
; top infill extrusion width = 0.40mm
; first layer extrusion width = 0.42mm

M201 X1800 Y1500 Z100 E6500 ; sets maximum accelerations, mm/sec^2
M203 X9000 Y9000 Z1800 E6000 ; sets maximum feedrates, mm/sec
M204 P1500 R1500 T1500 ; sets acceleration (P, T) and retract acceleration (R), mm/sec^2
M205 X10.00 Y10.00 Z0.20 E2.50 ; sets the jerk limits, mm/sec
M205 S0 T0 ; sets the minimum extruding and travel feed rate, mm/sec
M107
; START SCRIPT START
G21
G90
M80
M106 P0 S0  ; part cooling fan speed
M83  ; extruder relative mode
M104 S215 T0; set extruder temp
M104 S215 T1; set extruder temp
M104 S215 T2; set extruder temp
M104 S215 T3; set extruder temp
M140 S60 ;wait for bed temp
M190 S60 ;wait for bed temp
G28  ; home all without mesh bed level
G29 ; autolevel
M116  ; wait all temps
M106 P1 S255  ; hot end fan speed
G1 E3 F300
; START SCRIPT END
M900 K30; Filament gcode
G21 ; set units to millimeters
G90 ; use absolute coordinates
M83 ; use relative distances for extrusion
T0
M900 K30; Filament gcode
;BEFORE_LAYER_CHANGE 0 0.2
G92 E0.0

G1 Z0.200 F10800.000
;AFTER_LAYER_CHANGE
;0.2
G1 E-2.00000 F2700.00000
G1 Z0.800 F10800.000
G1 X72.505 Y56.934
G1 Z0.200
G1 E2.00000 F2700.00000
M204 S1000
G1 F1200
G1 X74.262 Y57.221 E0.05582
G1 X75.477 Y57.813 E0.04239
G1 X75.915 Y58.110 E0.01660
G1 X86.738 Y68.919 E0.47962
G1 X87.143 Y69.445 E0.02079
G1 X87.757 Y70.676 E0.04315
G1 X88.066 Y72.501 E0.05802
G1 X87.780 Y74.257 E0.05580
G1 X87.187 Y75.477 E0.04253
G1 X86.890 Y75.915 E0.01660
G1 X76.078 Y86.741 E0.47974
G1 X75.549 Y87.148 E0.02091
G1 X74.316 Y87.760 E0.04314
G1 X72.499 Y88.066 E0.05778
G1 X70.738 Y87.779 E0.05594
G1 X69.523 Y87.187 E0.04239
G1 X69.085 Y86.890 E0.01660
G1 X58.259 Y76.078 E0.47975
G1 X57.852 Y75.549 E0.02091
G1 X57.240 Y74.316 E0.04314
G1 X56.934 Y72.499 E0.05777
G1 X57.220 Y70.744 E0.05576
G1 X57.812 Y69.524 E0.04253
G1 X58.109 Y69.086 E0.01660
G1 X68.922 Y58.259 E0.47978
G1 X69.451 Y57.852 E0.02091
G1 X70.684 Y57.240 E0.04314
G1 X72.445 Y56.944 E0.05602
; PURGING FINISHED
G1 E-2.00000 F2700.00000
G1 Z0.800 F10800.000
G1 X74.766 Y63.384
G1 Z0.200
G1 E2.00000 F2700.00000
G1 F1200
G1 X75.408 Y63.549 E0.02081
G1 X76.507 Y63.984 E0.03706
G1 X77.543 Y64.553 E0.03706
G1 X78.499 Y65.248 E0.03706
G1 X79.361 Y66.057 E0.03706
G1 X80.114 Y66.968 E0.03706
G1 X80.748 Y67.966 E0.03706
G1 X81.283 Y69.135 E0.04034
G1 X80.387 Y69.592 E0.03153
G1 X79.592 Y70.387 E0.03526
G1 X79.082 Y71.389 E0.03526
G1 X78.906 Y72.500 E0.03526
G1 X79.082 Y73.611 E0.03526
G1 X79.592 Y74.613 E0.03526
G1 X80.387 Y75.408 E0.03526
G1 X81.283 Y75.865 E0.03153
G1 X80.748 Y77.034 E0.04034
G1 X80.114 Y78.032 E0.03706
G1 X79.361 Y78.943 E0.03706
G1 X78.499 Y79.752 E0.03706
G1 X77.543 Y80.447 E0.03706
G1 X76.507 Y81.016 E0.03706
G1 X75.859 Y81.273 E0.02186
G1 X75.408 Y80.387 E0.03116
G1 X74.613 Y79.592 E0.03526
G1 X73.611 Y79.082 E0.03526
G1 X72.500 Y78.906 E0.03526
G1 X71.389 Y79.082 E0.03526
G1 X70.387 Y79.592 E0.03526
G1 X69.592 Y80.387 E0.03526
G1 X69.141 Y81.273 E0.03116
G1 X68.493 Y81.016 E0.02186
G1 X67.457 Y80.447 E0.03706
G1 X66.501 Y79.752 E0.03706
G1 X65.639 Y78.943 E0.03706
G1 X64.886 Y78.032 E0.03706
G1 X64.252 Y77.034 E0.03706
G1 X63.749 Y75.965 E0.03706
G1 X63.717 Y75.865 E0.00330
G1 X64.613 Y75.408 E0.03153
G1 X65.408 Y74.613 E0.03526
G1 X65.918 Y73.611 E0.03526
G1 X66.094 Y72.500 E0.03526
G1 X65.918 Y71.389 E0.03526
G1 X65.408 Y70.387 E0.03526
G1 X64.613 Y69.592 E0.03526
G1 X63.717 Y69.135 E0.03153
G1 X64.252 Y67.966 E0.04034
G1 X64.886 Y66.968 E0.03706
G1 X65.639 Y66.057 E0.03706
G1 X66.501 Y65.248 E0.03706
G1 X67.457 Y64.553 E0.03706
G1 X68.493 Y63.984 E0.03706
G1 X69.592 Y63.549 E0.03706
G1 X70.234 Y63.384 E0.02081
G1 X70.094 Y62.500 E0.02806
G1 X70.212 Y61.757 E0.02360
G1 X70.554 Y61.086 E0.02360
G1 X71.086 Y60.554 E0.02360
G1 X71.756 Y60.212 E0.02358
G1 X72.505 Y60.095 E0.02377
G1 X73.243 Y60.212 E0.02343
G1 X73.914 Y60.554 E0.02360
G1 X74.446 Y61.086 E0.02360
G1 X74.788 Y61.757 E0.02360
G1 X74.906 Y62.500 E0.02360
G1 X74.775 Y63.325 E0.02618
G1 X75.192 Y63.104 F10800.000
G1 F1200
G1 X75.525 Y63.190 E0.01079
G1 X76.668 Y63.642 E0.03855
G1 X77.746 Y64.234 E0.03855
G1 X78.740 Y64.957 E0.03855
G1 X79.636 Y65.799 E0.03855
G1 X80.420 Y66.746 E0.03855
G1 X81.079 Y67.784 E0.03855
G1 X81.602 Y68.896 E0.03855
G1 X81.767 Y69.403 E0.01672
G1 X81.507 Y69.445 E0.00824
G1 X80.612 Y69.901 E0.03152
G1 X79.901 Y70.612 E0.03151
G1 X79.445 Y71.507 E0.03152
G1 X79.287 Y72.500 E0.03152
G1 X79.445 Y73.493 E0.03151
G1 X79.901 Y74.388 E0.03152
G1 X80.612 Y75.099 E0.03151
G1 X81.507 Y75.555 E0.03152
G1 X81.767 Y75.597 E0.00824
G1 X81.602 Y76.104 E0.01672
G1 X81.079 Y77.216 E0.03855
G1 X80.420 Y78.254 E0.03855
G1 X79.636 Y79.201 E0.03855
G1 X78.740 Y80.043 E0.03855
G1 X77.746 Y80.766 E0.03855
G1 X76.668 Y81.358 E0.03855
G1 X75.599 Y81.781 E0.03606
G1 X75.555 Y81.507 E0.00870
G1 X75.099 Y80.612 E0.03152
G1 X74.388 Y79.901 E0.03151
G1 X73.493 Y79.445 E0.03152
G1 X72.500 Y79.287 E0.03152
G1 X71.507 Y79.445 E0.03152
G1 X70.612 Y79.901 E0.03152
G1 X69.901 Y80.612 E0.03151
G1 X69.445 Y81.507 E0.03152
G1 X69.401 Y81.781 E0.00870
G1 X68.332 Y81.358 E0.03606
G1 X67.254 Y80.766 E0.03855
G1 X66.260 Y80.043 E0.03855
G1 X65.364 Y79.201 E0.03855
G1 X64.580 Y78.254 E0.03855
G1 X63.921 Y77.216 E0.03855
G1 X63.398 Y76.104 E0.03855
G1 X63.233 Y75.597 E0.01672
G1 X63.493 Y75.555 E0.00824
G1 X64.388 Y75.099 E0.03152
G1 X65.099 Y74.388 E0.03151
G1 X65.555 Y73.493 E0.03152
G1 X65.713 Y72.500 E0.03152
G1 X65.555 Y71.507 E0.03152
G1 X65.099 Y70.612 E0.03152
G1 X64.388 Y69.901 E0.03151
G1 X63.493 Y69.445 E0.03152
G1 X63.233 Y69.403 E0.00824
G1 X63.398 Y68.896 E0.01672
G1 X63.921 Y67.784 E0.03855
G1 X64.580 Y66.746 E0.03855
G1 X65.364 Y65.799 E0.03855
G1 X66.260 Y64.957 E0.03855
G1 X67.254 Y64.234 E0.03855
G1 X68.332 Y63.642 E0.03855
G1 X69.475 Y63.190 E0.03855
G1 X69.808 Y63.104 E0.01079
G1 X69.713 Y62.500 E0.01917
G1 X69.849 Y61.639 E0.02735
G1 X70.245 Y60.862 E0.02734
G1 X70.862 Y60.245 E0.02734
G1 X71.638 Y59.849 E0.02734
G1 X72.506 Y59.714 E0.02752
G1 X73.361 Y59.849 E0.02717
G1 X74.138 Y60.245 E0.02734
G1 X74.755 Y60.862 E0.02734
G1 X75.151 Y61.639 E0.02734
G1 X75.287 Y62.500 E0.02735
G1 X75.201 Y63.045 E0.01729
G1 X75.137 Y63.444 F10800.000
G1 X75.644 Y63.764
G1 F1200
G1 X81.022 Y69.142 E0.24091
G1 X80.825 Y68.406 F10800.000
G1 F1200
G1 X76.562 Y64.143 E0.19096
G1 E-2.00000 F2700.00000
G1 Z0.800 F10800.000
G1 X74.606 Y61.648
G1 Z0.200
G1 E2.00000 F2700.00000
G1 F1200
G1 X73.740 Y60.783 E0.03878
G1 X73.155 Y60.484 E0.02080
G1 X72.856 Y60.437 E0.00959
G1 X74.563 Y62.144 E0.07647
G1 X74.619 Y62.500 E0.01141
G1 X74.587 Y62.707 E0.00662
G1 X72.294 Y60.414 E0.10267
G1 X71.832 Y60.491 E0.01484
G1 X74.513 Y63.172 E0.12008
G1 X74.446 Y63.594 E0.01354
G1 X75.104 Y63.763 E0.02152
G1 X80.539 Y69.197 E0.24345
G1 X80.191 Y69.388 E0.01257
G1 X71.475 Y60.673 E0.39041
G1 X71.254 Y60.785 E0.00786
G1 X71.152 Y60.888 E0.00459
G1 X79.922 Y69.658 E0.39284
G1 X79.652 Y69.927 E0.01207
G1 X70.882 Y61.157 E0.39284
G1 X70.785 Y61.254 E0.00434
G1 X70.669 Y61.483 E0.00812
G1 X79.383 Y70.196 E0.39033
G1 X79.194 Y70.546 E0.01259
G1 X70.487 Y61.840 E0.39000
G1 X70.412 Y62.303 E0.01487
G1 X79.012 Y70.903 E0.38523
G1 X78.830 Y71.260 E0.01269
G1 X70.439 Y62.869 E0.37587
G1 X70.541 Y63.509 E0.02053
G1 X78.744 Y71.712 E0.36747
G1 X78.670 Y72.177 E0.01491
G1 X70.182 Y63.689 E0.38023
G1 X69.753 Y63.799 E0.01402
G1 X78.650 Y72.696 E0.39853
G1 X78.752 Y73.336 E0.02053
G1 X69.360 Y63.945 E0.42069
G1 X68.974 Y64.097 E0.01315
G1 X79.052 Y74.175 E0.45141
G1 X80.825 Y75.948 F10800.000
G1 F1200
G1 X80.900 Y76.023 E0.00334
G1 X80.730 Y76.392 E0.01287
G1 X68.591 Y64.253 E0.54379
G1 X68.243 Y64.444 E0.01256
G1 X80.561 Y76.762 E0.55178
G1 X80.499 Y76.899 E0.00477
G1 X80.367 Y77.106 E0.00778
G1 X67.896 Y64.635 E0.55865
G1 X67.554 Y64.832 E0.01249
G1 X80.158 Y77.436 E0.56457
G1 X79.949 Y77.765 E0.01236
G1 X67.242 Y65.059 E0.56918
G1 X66.930 Y65.286 E0.01222
G1 X79.715 Y78.071 E0.57270
G1 X79.471 Y78.366 E0.01212
G1 X66.625 Y65.519 E0.57544
G1 X66.347 Y65.780 E0.01207
G1 X79.227 Y78.660 E0.57696
G1 X79.154 Y78.749 E0.00363
G1 X78.960 Y78.932 E0.00845
G1 X66.069 Y66.041 E0.57742
G1 X65.798 Y66.309 E0.01207
G1 X78.682 Y79.192 E0.57712
G1 X78.404 Y79.453 E0.01207
G1 X65.554 Y66.603 E0.57560
G1 X65.310 Y66.898 E0.01212
G1 X78.103 Y79.691 E0.57302
G1 X77.791 Y79.917 E0.01222
G1 X65.073 Y67.200 E0.56966
G1 X64.864 Y67.530 E0.01236
G1 X77.479 Y80.144 E0.56505
G1 X77.141 Y80.345 E0.01245
G1 X64.655 Y67.859 E0.55930
G1 X64.457 Y68.199 E0.01248
G1 X76.793 Y80.536 E0.55262
G1 X76.446 Y80.727 E0.01256
G1 X64.287 Y68.569 E0.54463
G1 X64.118 Y68.938 E0.01287
G1 X64.290 Y69.110 E0.00771
G1 X65.890 Y70.710 F10800.000
G1 F1200
G1 X74.290 Y79.110 E0.37630
G1 X73.699 Y78.809 E0.02101
G1 X73.404 Y78.762 E0.00948
G1 X66.238 Y71.596 E0.32099
G1 X66.339 Y72.237 E0.02053
G1 X72.763 Y78.661 E0.28778
G1 X72.500 Y78.619 E0.00845
G1 X72.226 Y78.663 E0.00878
G1 X66.337 Y72.774 E0.26379
G1 X66.264 Y73.239 E0.01491
G1 X71.761 Y78.736 E0.24626
G1 X71.297 Y78.811 E0.01489
G1 X66.189 Y73.703 E0.22882
G1 X66.007 Y74.060 E0.01269
G1 X70.940 Y78.993 E0.22098
G1 X70.584 Y79.175 E0.01269
G1 X65.825 Y74.416 E0.21314
G1 X65.643 Y74.773 E0.01269
G1 X70.227 Y79.357 E0.20530
G1 X69.955 Y79.624 E0.01207
G1 X65.376 Y75.045 E0.20513
G1 X65.107 Y75.314 E0.01207
G1 X69.686 Y79.893 E0.20513
G1 X69.417 Y80.163 E0.01207
G1 X64.837 Y75.583 E0.20513
G1 X64.781 Y75.640 E0.00252
G1 X64.499 Y75.783 E0.01004
G1 X69.217 Y80.501 E0.21134
G1 X69.035 Y80.858 E0.01269
G1 X64.142 Y75.965 E0.21918
G1 X64.077 Y75.998 E0.00229
G1 X64.470 Y76.832 E0.02919
G1 X68.558 Y80.920 E0.18313
G1 X67.270 Y80.171 F10800.000
G1 F1200
G1 X64.826 Y77.727 E0.10949
G1 E-2.00000 F2700.00000
G1 Z0.800 F10800.000
G1 X75.501 Y80.322
G1 Z0.200
G1 E2.00000 F2700.00000
G1 F1200
G1 X76.197 Y81.017 E0.03116
G1 Z0.800 F10800.000
; Filament-specific end gcode
; TOOL CHANGE
T1
M900 K30; Filament gcode
G1 E-2.00000 F2700.00000
G1 X74.138 Y87.423 F10800.000
G1 Z0.200
G1 E2.00000 F2700.00000
G1 F1200
G1 X72.500 Y87.689 E0.05203
G1 X70.821 Y87.408 E0.05338
G1 X69.650 Y86.827 E0.04100
G1 X69.189 Y86.475 E0.01818
G1 X58.406 Y75.682 E0.47834
G1 X57.577 Y74.138 E0.05495
G1 X57.311 Y72.500 E0.05203
G1 X57.576 Y70.868 E0.05184
G1 X58.406 Y69.319 E0.05511
G1 X69.189 Y58.525 E0.47838
G1 X69.649 Y58.174 E0.01817
G1 X70.820 Y57.592 E0.04100
G1 X72.504 Y57.311 E0.05350
G1 X74.138 Y57.577 E0.05191
G1 X75.682 Y58.406 E0.05495
G1 X86.472 Y69.186 E0.47822
G1 X86.822 Y69.643 E0.01805
G1 X87.405 Y70.814 E0.04101
G1 X87.689 Y72.500 E0.05361
G1 X87.409 Y74.175 E0.05324
G1 X86.828 Y75.347 E0.04103
G1 X86.475 Y75.811 E0.01828
G1 X75.682 Y86.594 E0.47834
G1 X74.191 Y87.395 E0.05307
; PURGING FINISHED
G1 E-2.00000 F2700.00000
G1 Z0.800 F10800.000
G1 X81.086 Y74.446
G1 Z0.200
G1 E2.00000 F2700.00000
G1 F1200
G1 X80.554 Y73.914 E0.02360
G1 X80.212 Y73.243 E0.02360
G1 X80.094 Y72.500 E0.02360
G1 X80.212 Y71.757 E0.02360
G1 X80.554 Y71.086 E0.02360
G1 X81.086 Y70.554 E0.02360
G1 X81.756 Y70.212 E0.02359
G1 X82.504 Y70.095 E0.02373
G1 X83.243 Y70.212 E0.02348
G1 X83.914 Y70.554 E0.02360
G1 X84.446 Y71.086 E0.02360
G1 X84.788 Y71.757 E0.02360
G1 X84.906 Y72.500 E0.02360
G1 X84.788 Y73.243 E0.02360
G1 X84.446 Y73.914 E0.02360
G1 X83.914 Y74.446 E0.02360
G1 X83.243 Y74.788 E0.02360
G1 X82.500 Y74.906 E0.02360
G1 X81.757 Y74.788 E0.02360
G1 X81.139 Y74.473 E0.02172
G1 X80.862 Y74.755 F10800.000
G1 F1200
G1 X80.245 Y74.138 E0.02734
G1 X79.849 Y73.361 E0.02734
G1 X79.713 Y72.500 E0.02734
G1 X79.849 Y71.639 E0.02734
G1 X80.245 Y70.862 E0.02734
G1 X80.862 Y70.245 E0.02734
G1 X81.639 Y69.849 E0.02734
G1 X82.504 Y69.713 E0.02747
G1 X83.361 Y69.849 E0.02722
G1 X84.138 Y70.245 E0.02734
G1 X84.755 Y70.862 E0.02734
G1 X85.151 Y71.639 E0.02734
G1 X85.287 Y72.500 E0.02734
G1 X85.151 Y73.361 E0.02734
G1 X84.755 Y74.138 E0.02734
G1 X84.138 Y74.755 E0.02734
G1 X83.361 Y75.151 E0.02734
G1 X82.500 Y75.287 E0.02735
G1 X81.639 Y75.151 E0.02734
G1 X80.915 Y74.782 E0.02546
G1 X80.903 Y74.357 F10800.000
G1 X81.647 Y74.605
G1 F1200
G1 X80.783 Y73.741 E0.03864
G1 X80.484 Y73.155 E0.02081
G1 X80.437 Y72.858 E0.00952
G1 X82.142 Y74.563 E0.07625
G1 X82.500 Y74.619 E0.01145
G1 X82.705 Y74.587 E0.00655
G1 X80.413 Y72.295 E0.10247
G1 X80.490 Y71.834 E0.01478
G1 X83.166 Y74.510 E0.11966
G1 X83.522 Y74.329 E0.01264
G1 X80.671 Y71.478 E0.12747
G1 X80.785 Y71.254 E0.00794
G1 X80.885 Y71.154 E0.00447
G1 X83.846 Y74.115 E0.13238
G1 X84.115 Y73.846 E0.01203
G1 X81.154 Y70.885 E0.13238
G1 X81.254 Y70.785 E0.00447
G1 X81.478 Y70.671 E0.00794
G1 X84.329 Y73.522 E0.12747
G1 X84.510 Y73.166 E0.01264
G1 X81.834 Y70.490 E0.11966
G1 X82.296 Y70.414 E0.01480
G1 X84.587 Y72.705 E0.10244
G1 X84.619 Y72.500 E0.00655
G1 X84.563 Y72.143 E0.01144
G1 X82.857 Y70.437 E0.07626
G1 X83.155 Y70.484 E0.00952
G1 X83.741 Y70.783 E0.02080
G1 X84.605 Y71.647 E0.03865
G1 Z0.800 F10800.000
; Filament-specific end gcode
; TOOL CHANGE
T2
M900 K30; Filament gcode
; PURGING FINISHED
G1 E-2.00000 F2700.00000
G1 X74.446 Y81.086 F10800.000
G1 Z0.200
G1 E2.00000 F2700.00000
G1 F1200
G1 X74.788 Y81.757 E0.02360
G1 X74.906 Y82.500 E0.02360
G1 X74.788 Y83.243 E0.02360
G1 X74.446 Y83.914 E0.02360
G1 X73.914 Y84.446 E0.02360
G1 X73.243 Y84.788 E0.02360
G1 X72.500 Y84.906 E0.02360
G1 X71.757 Y84.788 E0.02360
G1 X71.086 Y84.446 E0.02360
G1 X70.554 Y83.914 E0.02360
G1 X70.214 Y83.247 E0.02346
G1 X70.094 Y82.500 E0.02375
G1 X70.212 Y81.757 E0.02358
G1 X70.554 Y81.086 E0.02360
G1 X71.086 Y80.554 E0.02360
G1 X71.757 Y80.212 E0.02360
G1 X72.500 Y80.094 E0.02360
G1 X73.243 Y80.212 E0.02360
G1 X73.914 Y80.554 E0.02360
G1 X74.404 Y81.044 E0.02172
G1 X74.755 Y80.862 F10800.000
G1 F1200
G1 X75.151 Y81.639 E0.02734
G1 X75.287 Y82.500 E0.02734
G1 X75.151 Y83.361 E0.02735
G1 X74.755 Y84.138 E0.02734
G1 X74.138 Y84.755 E0.02734
G1 X73.361 Y85.151 E0.02734
G1 X72.500 Y85.287 E0.02734
G1 X71.639 Y85.151 E0.02734
G1 X70.862 Y84.755 E0.02734
G1 X70.245 Y84.138 E0.02734
G1 X69.851 Y83.366 E0.02719
G1 X69.713 Y82.500 E0.02749
G1 X69.849 Y81.639 E0.02734
G1 X70.245 Y80.862 E0.02734
G1 X70.862 Y80.245 E0.02734
G1 X71.639 Y79.849 E0.02734
G1 X72.500 Y79.713 E0.02734
G1 X73.361 Y79.849 E0.02734
G1 X74.138 Y80.245 E0.02734
G1 X74.713 Y80.819 E0.02546
G1 X74.592 Y81.227 F10800.000
G1 X74.605 Y81.647
G1 F1200
G1 X73.741 Y80.783 E0.03865
G1 X73.155 Y80.484 E0.02080
G1 X72.857 Y80.437 E0.00952
G1 X74.563 Y82.143 E0.07626
G1 X74.619 Y82.500 E0.01144
G1 X74.587 Y82.705 E0.00655
G1 X72.295 Y80.413 E0.10247
G1 X71.834 Y80.490 E0.01478
G1 X74.510 Y83.166 E0.11966
G1 X74.329 Y83.522 E0.01264
G1 X71.478 Y80.671 E0.12747
G1 X71.254 Y80.785 E0.00794
G1 X71.154 Y80.885 E0.00447
G1 X74.115 Y83.846 E0.13238
G1 X73.846 Y84.115 E0.01203
G1 X70.885 Y81.154 E0.13238
G1 X70.785 Y81.254 E0.00447
G1 X70.671 Y81.478 E0.00795
G1 X73.522 Y84.329 E0.12747
G1 X73.166 Y84.510 E0.01264
G1 X70.490 Y81.834 E0.11966
G1 X70.413 Y82.296 E0.01478
G1 X72.704 Y84.587 E0.10247
G1 X72.500 Y84.619 E0.00655
G1 X72.142 Y84.563 E0.01145
G1 X70.438 Y82.859 E0.07621
G1 X70.486 Y83.159 E0.00961
G1 X70.783 Y83.741 E0.02067
