; generated by Slic3r Prusa Edition 1.41.0+win64 on 2018-10-01 at 17:54:04

; 

; external perimeters extrusion width = 0.45mm
; perimeters extrusion width = 0.45mm
; infill extrusion width = 0.45mm
; solid infill extrusion width = 0.45mm
; top infill extrusion width = 0.40mm
; first layer extrusion width = 0.42mm

; external perimeters extrusion width = 0.45mm
; perimeters extrusion width = 0.45mm
; infill extrusion width = 0.45mm
; solid infill extrusion width = 0.45mm
; top infill extrusion width = 0.40mm
; first layer extrusion width = 0.42mm

; external perimeters extrusion width = 0.45mm
; perimeters extrusion width = 0.45mm
; infill extrusion width = 0.45mm
; solid infill extrusion width = 0.45mm
; top infill extrusion width = 0.40mm
; first layer extrusion width = 0.42mm

; external perimeters extrusion width = 0.45mm
; perimeters extrusion width = 0.45mm
; infill extrusion width = 0.45mm
; solid infill extrusion width = 0.45mm
; top infill extrusion width = 0.40mm
; first layer extrusion width = 0.42mm

M201 X1800 Y1500 Z100 E6500 ; sets maximum accelerations, mm/sec^2
M203 X9000 Y9000 Z1800 E6000 ; sets maximum feedrates, mm/sec
M204 P1500 R1500 T1500 ; sets acceleration (P, T) and retract acceleration (R), mm/sec^2
M205 X10.00 Y10.00 Z0.20 E2.50 ; sets the jerk limits, mm/sec
M205 S0 T0 ; sets the minimum extruding and travel feed rate, mm/sec
M107
; START SCRIPT START
G21
G90
M80
M106 P0 S0  ; part cooling fan speed
M83  ; extruder relative mode
M104 S215 T0; set extruder temp
M104 S215 T1; set extruder temp
M104 S215 T2; set extruder temp
M104 S215 T3; set extruder temp
M140 S60 ;wait for bed temp
M190 S60 ;wait for bed temp
G28  ; home all without mesh bed level
G29 ; autolevel
M116  ; wait all temps
M106 P1 S255  ; hot end fan speed
G1 E3 F300
; START SCRIPT END
M900 K30; Filament gcode
G21 ; set units to millimeters
G90 ; use absolute coordinates
M83 ; use relative distances for extrusion
T0
M900 K30; Filament gcode
;BEFORE_LAYER_CHANGE 0 0.2
G92 E0.0

G1 Z0.200 F10800.000
;AFTER_LAYER_CHANGE
;0.2
G1 E-2.00000 F2700.00000
G1 Z0.800 F10800.000
G1 X58.296 Y66.252
G1 Z0.200
G1 E2.00000 F2700.00000
M204 S1000
G1 F1200
G1 X66.224 Y61.614 E0.28799
G1 X66.856 Y61.356 E0.02140
G1 X67.478 Y61.274 E0.01968
G1 X77.504 Y61.274 E0.31435
G1 X78.127 Y61.352 E0.01968
G1 X78.716 Y61.580 E0.01980
G1 X86.624 Y66.184 E0.28692
G1 X87.187 Y66.828 E0.02680
G1 X89.770 Y71.304 E0.16204
G1 X89.975 Y71.826 E0.01758
G1 X90.063 Y72.379 E0.01758
G1 X90.028 Y72.939 E0.01758
G1 X89.872 Y73.478 E0.01758
G1 X87.200 Y78.150 E0.16877
G1 X86.704 Y78.748 E0.02435
G1 X78.776 Y83.386 E0.28799
G1 X78.144 Y83.644 E0.02140
G1 X77.522 Y83.726 E0.01968
G1 X67.480 Y83.726 E0.31484
G1 X66.850 Y83.642 E0.01992
G1 X66.260 Y83.406 E0.01992
G1 X58.686 Y79.034 E0.27420
G1 X58.082 Y78.534 E0.02459
G1 X55.221 Y73.679 E0.17670
G1 X55.002 Y73.086 E0.01980
G1 X54.935 Y72.458 E0.01980
G1 X55.018 Y71.852 E0.01919
G1 X55.243 Y71.279 E0.01931
G1 X57.806 Y66.839 E0.16073
G1 X58.258 Y66.298 E0.02210
; PURGING FINISHED
G1 E-2.00000 F2700.00000
G1 Z0.800 F10800.000
G1 X65.678 Y68.170
G1 Z0.200
G1 E2.00000 F2700.00000
G1 F1200
G1 X67.839 Y64.427 E0.13552
G1 X77.161 Y64.427 E0.29229
G1 X79.322 Y68.170 E0.13552
G1 X76.822 Y72.500 E0.15677
G1 X79.322 Y76.830 E0.15677
G1 X77.161 Y80.573 E0.13552
G1 X67.839 Y80.573 E0.29229
G1 X65.678 Y76.830 E0.13552
G1 X68.178 Y72.500 E0.15677
G1 X65.708 Y68.222 E0.15489
G1 E-2.00000 F2700.00000
G1 Z0.800 F10800.000
G1 X77.258 Y72.500
G1 Z0.200
G1 E2.00000 F2700.00000
G1 F1200
G1 X79.758 Y76.830 E0.15677
G1 X77.379 Y80.950 E0.14917
G1 X67.621 Y80.950 E0.30594
G1 X65.242 Y76.830 E0.14917
G1 X67.742 Y72.500 E0.15677
G1 X65.242 Y68.170 E0.15677
G1 X67.621 Y64.050 E0.14917
G1 X77.379 Y64.050 E0.30594
G1 X79.758 Y68.170 E0.14917
G1 X77.288 Y72.448 E0.15489
G1 X76.999 Y72.805 F10800.000
G1 X77.296 Y73.547
G1 F1200
G1 X68.458 Y64.710 E0.39356
G1 X68.994 Y64.710 E0.01686
G1 X76.601 Y72.317 E0.33876
G1 X76.797 Y71.977 E0.01235
G1 X69.530 Y64.710 E0.32365
G1 X70.065 Y64.710 E0.01686
G1 X76.993 Y71.638 E0.30853
G1 X77.189 Y71.298 E0.01235
G1 X70.601 Y64.710 E0.29341
G1 X71.136 Y64.710 E0.01686
G1 X77.385 Y70.959 E0.27829
G1 X77.581 Y70.619 E0.01235
G1 X71.672 Y64.710 E0.26317
G1 X72.207 Y64.710 E0.01686
G1 X77.777 Y70.280 E0.24805
G1 X77.973 Y69.940 E0.01235
G1 X72.743 Y64.710 E0.23293
G1 X73.278 Y64.710 E0.01686
G1 X78.169 Y69.601 E0.21781
G1 X78.366 Y69.261 E0.01235
G1 X73.814 Y64.710 E0.20269
G1 X74.350 Y64.710 E0.01686
G1 X78.562 Y68.922 E0.18757
G1 X78.758 Y68.582 E0.01235
G1 X74.885 Y64.710 E0.17245
G1 X75.421 Y64.710 E0.01686
G1 X79.078 Y68.367 E0.16286
G1 X78.884 Y67.638 F10800.000
G1 F1200
G1 X75.956 Y64.710 E0.13039
G1 X76.492 Y64.710 E0.01686
G1 X78.153 Y66.370 E0.07396
G1 E-2.00000 F2700.00000
G1 Z0.800 F10800.000
G1 X78.028 Y74.815
G1 Z0.200
G1 E2.00000 F2700.00000
G1 F1200
G1 X67.973 Y64.760 E0.44775
G1 X67.777 Y65.099 E0.01235
G1 X78.759 Y76.082 E0.48906
G1 X79.111 Y76.969 F10800.000
G1 F1200
G1 X67.581 Y65.439 E0.51346
G1 X67.385 Y65.778 E0.01235
G1 X78.791 Y77.184 E0.50792
G1 X78.595 Y77.524 E0.01235
G1 X67.189 Y66.118 E0.50792
G1 X66.993 Y66.458 E0.01235
G1 X78.399 Y77.863 E0.50792
G1 X78.203 Y78.203 E0.01235
G1 X66.797 Y66.797 E0.50792
G1 X66.601 Y67.137 E0.01235
G1 X78.007 Y78.543 E0.50792
G1 X77.811 Y78.882 E0.01235
G1 X66.405 Y67.476 E0.50792
G1 X66.209 Y67.816 E0.01235
G1 X77.615 Y79.222 E0.50792
G1 X77.419 Y79.561 E0.01235
G1 X65.889 Y68.031 E0.51346
G1 X66.241 Y68.919 F10800.000
G1 F1200
G1 X77.347 Y80.025 E0.49458
G1 X77.151 Y80.364 F10800.000
G1 F1200
G1 X66.972 Y70.186 E0.45327
G1 E-2.00000 F2700.00000
G1 Z0.800 F10800.000
G1 X66.116 Y77.363
G1 Z0.200
G1 E2.00000 F2700.00000
G1 F1200
G1 X69.044 Y80.290 E0.13037
G1 X69.579 Y80.290 E0.01686
G1 X66.046 Y76.758 E0.15732
G1 X66.242 Y76.418 E0.01235
G1 X70.115 Y80.290 E0.17244
G1 X70.650 Y80.290 E0.01686
G1 X66.438 Y76.078 E0.18756
G1 X66.634 Y75.739 E0.01235
G1 X71.186 Y80.290 E0.20268
G1 X71.721 Y80.290 E0.01686
G1 X66.830 Y75.399 E0.21780
G1 X67.026 Y75.060 E0.01235
G1 X72.257 Y80.290 E0.23292
G1 X72.793 Y80.290 E0.01686
G1 X67.223 Y74.720 E0.24804
G1 X67.419 Y74.381 E0.01235
G1 X73.328 Y80.290 E0.26316
G1 X73.864 Y80.290 E0.01686
G1 X67.615 Y74.041 E0.27828
G1 X67.811 Y73.702 E0.01235
G1 X74.399 Y80.290 E0.29340
G1 X74.935 Y80.290 E0.01686
G1 X68.007 Y73.362 E0.30852
G1 X68.203 Y73.023 E0.01235
G1 X75.470 Y80.290 E0.32364
G1 X76.006 Y80.290 E0.01686
G1 X68.399 Y72.683 E0.33876
G1 X68.504 Y72.500 E0.00666
G1 X68.168 Y71.917 E0.02122
G1 X76.711 Y80.460 E0.38046
G1 E-2.00000 F2700.00000
G1 Z0.800 F10800.000
G1 X68.678 Y80.460
G1 Z0.200
G1 E2.00000 F2700.00000
G1 F1200
G1 X66.848 Y78.630 E0.08150
G1 Z0.800 F10800.000
; Filament-specific end gcode
; TOOL CHANGE
T1
M900 K30; Filament gcode
G1 E-2.00000 F2700.00000
G1 X58.347 Y78.265 F10800.000
G1 Z0.200
G1 E2.00000 F2700.00000
G1 F1200
G1 X55.561 Y73.514 E0.17268
G1 X55.370 Y73.002 E0.01714
G1 X55.312 Y72.458 E0.01714
G1 X55.385 Y71.938 E0.01646
G1 X55.579 Y71.451 E0.01646
G1 X58.127 Y67.038 E0.15976
G1 X58.565 Y66.517 E0.02134
G1 X66.412 Y61.941 E0.28481
G1 X66.956 Y61.720 E0.01839
G1 X67.487 Y61.651 E0.01680
G1 X77.504 Y61.651 E0.31406
G1 X78.039 Y61.719 E0.01692
G1 X78.545 Y61.917 E0.01703
G1 X86.391 Y66.480 E0.28461
G1 X86.868 Y67.030 E0.02281
G1 X89.433 Y71.473 E0.16084
G1 X89.612 Y71.927 E0.01532
G1 X89.687 Y72.407 E0.01521
G1 X89.653 Y72.891 E0.01521
G1 X89.513 Y73.359 E0.01532
G1 X86.877 Y77.956 E0.16616
G1 X86.435 Y78.483 E0.02157
G1 X78.588 Y83.059 E0.28481
G1 X78.044 Y83.280 E0.01839
G1 X77.513 Y83.349 E0.01680
G1 X67.482 Y83.349 E0.31452
G1 X66.943 Y83.277 E0.01703
G1 X66.436 Y83.073 E0.01714
G1 X58.881 Y78.711 E0.27355
G1 X58.393 Y78.303 E0.01991
; PURGING FINISHED
G1 E-2.00000 F2700.00000
G1 Z0.800 F10800.000
G1 X78.178 Y72.500
G1 Z0.200
G1 E2.00000 F2700.00000
G1 F1200
G1 X80.339 Y68.757 E0.13552
G1 X84.661 Y68.757 E0.13552
G1 X86.822 Y72.500 E0.13552
G1 X84.661 Y76.243 E0.13552
G1 X80.339 Y76.243 E0.13552
G1 X78.208 Y72.552 E0.13364
G1 X77.742 Y72.500 F10800.000
G1 F1200
G1 X80.121 Y68.380 E0.14917
G1 X84.879 Y68.380 E0.14917
G1 X87.258 Y72.500 E0.14917
G1 X84.879 Y76.620 E0.14917
G1 X80.121 Y76.620 E0.14917
G1 X77.772 Y72.552 E0.14729
G1 X78.089 Y72.300 F10800.000
G1 X78.438 Y72.275
G1 F1200
G1 X82.123 Y75.960 E0.16795
G1 X82.671 Y75.960 E0.01767
G1 X78.763 Y72.052 E0.17813
G1 X78.964 Y71.704 E0.01293
G1 X83.220 Y75.960 E0.19397
G1 X83.768 Y75.960 E0.01767
G1 X79.164 Y71.357 E0.20981
G1 X79.365 Y71.009 E0.01293
G1 X84.316 Y75.960 E0.22565
G1 X84.498 Y75.960 E0.00587
G1 X84.632 Y75.728 E0.00864
G1 X79.566 Y70.662 E0.23090
G1 X79.766 Y70.314 E0.01293
G1 X84.832 Y75.381 E0.23090
G1 X85.033 Y75.033 E0.01293
G1 X79.967 Y69.967 E0.23090
G1 X80.168 Y69.619 E0.01293
G1 X85.234 Y74.686 E0.23090
G1 X85.434 Y74.338 E0.01293
G1 X80.368 Y69.272 E0.23090
G1 X80.502 Y69.040 E0.00864
G1 X80.684 Y69.040 E0.00586
G1 X85.635 Y73.991 E0.22565
G1 X85.836 Y73.643 E0.01293
G1 X81.232 Y69.040 E0.20981
G1 X81.780 Y69.040 E0.01767
G1 X86.036 Y73.296 E0.19397
G1 X86.237 Y72.948 E0.01293
G1 X82.328 Y69.040 E0.17813
G1 X82.877 Y69.040 E0.01767
G1 X86.562 Y72.725 E0.16796
G1 X86.427 Y72.042 F10800.000
G1 F1200
G1 X83.425 Y69.040 E0.13684
G1 X83.973 Y69.040 E0.01767
G1 X85.678 Y70.745 E0.07773
G1 E-2.00000 F2700.00000
G1 Z0.800 F10800.000
G1 X81.745 Y76.130
G1 Z0.200
G1 E2.00000 F2700.00000
G1 F1200
G1 X78.573 Y72.958 E0.14456
G1 X79.322 Y74.255 F10800.000
G1 F1200
G1 X81.197 Y76.130 E0.08545
G1 Z0.800 F10800.000
; Filament-specific end gcode
; TOOL CHANGE
T2
M900 K30; Filament gcode
; PURGING FINISHED
G1 E-2.00000 F2700.00000
G1 X66.822 Y72.500 F10800.000
G1 Z0.200
G1 E2.00000 F2700.00000
G1 F1200
G1 X64.661 Y76.243 E0.13552
G1 X60.339 Y76.243 E0.13552
G1 X58.178 Y72.500 E0.13552
G1 X60.339 Y68.757 E0.13552
G1 X64.661 Y68.757 E0.13552
G1 X66.792 Y72.448 E0.13364
G1 X67.258 Y72.500 F10800.000
G1 F1200
G1 X64.879 Y76.620 E0.14917
G1 X60.121 Y76.620 E0.14917
G1 X57.742 Y72.500 E0.14917
G1 X60.121 Y68.380 E0.14917
G1 X64.879 Y68.380 E0.14917
G1 X67.228 Y72.448 E0.14729
G1 X66.911 Y72.700 F10800.000
G1 X66.562 Y72.725
G1 F1200
G1 X62.877 Y69.040 E0.16796
G1 X62.328 Y69.040 E0.01767
G1 X66.237 Y72.948 E0.17813
G1 X66.036 Y73.296 E0.01293
G1 X61.780 Y69.040 E0.19397
G1 X61.232 Y69.040 E0.01767
G1 X65.836 Y73.643 E0.20981
G1 X65.635 Y73.991 E0.01293
G1 X60.684 Y69.040 E0.22565
G1 X60.502 Y69.040 E0.00586
G1 X60.368 Y69.272 E0.00864
G1 X65.434 Y74.338 E0.23090
G1 X65.234 Y74.686 E0.01293
G1 X60.168 Y69.619 E0.23090
G1 X59.967 Y69.967 E0.01293
G1 X65.033 Y75.033 E0.23090
G1 X64.832 Y75.381 E0.01293
G1 X59.766 Y70.314 E0.23090
G1 X59.566 Y70.662 E0.01293
G1 X64.632 Y75.728 E0.23090
G1 X64.498 Y75.960 E0.00864
G1 X64.316 Y75.960 E0.00587
G1 X59.365 Y71.009 E0.22565
G1 X59.164 Y71.357 E0.01293
G1 X63.768 Y75.960 E0.20981
G1 X63.220 Y75.960 E0.01767
G1 X58.964 Y71.704 E0.19397
G1 X58.763 Y72.052 E0.01293
G1 X62.671 Y75.960 E0.17813
G1 X62.123 Y75.960 E0.01767
G1 X58.438 Y72.275 E0.16795
G1 X58.573 Y72.958 F10800.000
G1 F1200
G1 X61.745 Y76.130 E0.14456
G1 X61.197 Y76.130 F10800.000
G1 F1200
G1 X59.322 Y74.255 E0.08545
G1 E-2.00000 F2700.00000
G1 Z0.800 F10800.000
G1 X65.678 Y70.745
G1 Z0.200
G1 E2.00000 F2700.00000
G1 F1200
G1 X63.973 Y69.040 E0.07773
G1 X63.425 Y69.040 E0.01767
G1 X66.427 Y72.042 E0.13684
M106 S255
;BEFORE_LAYER_CHANGE 1 0.4
G92 E0.0

G1 Z0.400 F10800.000
;AFTER_LAYER_CHANGE
;0.4
M104 S210 ; set temperature
G1 Z1.000
; Filament-specific end gcode
; TOOL CHANGE
T0
M900 K30; Filament gcode
G1 E-2.00000 F2700.00000
G1 X58.296 Y66.252 F10800.000
G1 Z0.400
G1 E2.00000 F2700.00000
G1 F2351
G1 X66.224 Y61.614 E0.28799
G1 X66.856 Y61.356 E0.02140
G1 X67.478 Y61.274 E0.01968
G1 X77.504 Y61.274 E0.31435
G1 X78.127 Y61.352 E0.01968
G1 X78.716 Y61.580 E0.01980
G1 X86.624 Y66.184 E0.28692
G1 X87.187 Y66.828 E0.02680
G1 X89.770 Y71.304 E0.16204
G1 X89.975 Y71.826 E0.01758
G1 X90.063 Y72.379 E0.01758
G1 X90.028 Y72.939 E0.01758
G1 X89.872 Y73.478 E0.01758
G1 X87.200 Y78.150 E0.16877
G1 X86.704 Y78.748 E0.02435
G1 X78.776 Y83.386 E0.28799
G1 X78.144 Y83.644 E0.02140
G1 X77.522 Y83.726 E0.01968
G1 X67.480 Y83.726 E0.31484
G1 X66.850 Y83.642 E0.01992
G1 X66.260 Y83.406 E0.01992
G1 X58.686 Y79.034 E0.27420
G1 X58.082 Y78.534 E0.02459
G1 X55.221 Y73.679 E0.17670
G1 X55.002 Y73.086 E0.01980
G1 X54.935 Y72.458 E0.01980
G1 X55.018 Y71.852 E0.01919
G1 X55.243 Y71.279 E0.01931
G1 X57.806 Y66.839 E0.16073
G1 X58.258 Y66.298 E0.02210
; PURGING FINISHED
G1 E-2.00000 F2700.00000
G1 Z1.000 F10800.000
G1 X63.230 Y72.500
G1 Z0.400
G1 E2.00000 F2700.00000
M204 S800
G1 F2351
G1 X67.865 Y64.472 E0.31378
G1 X77.135 Y64.472 E0.31378
G1 X81.770 Y72.500 E0.31378
G1 X77.135 Y80.528 E0.31378
G1 X67.865 Y80.528 E0.31378
G1 X63.260 Y72.552 E0.31175
M204 S1000
G1 X62.760 Y72.500 F10800.000
M204 S800
G1 F2351
G1 X67.630 Y64.065 E0.32969
G1 X77.370 Y64.065 E0.32969
G1 X82.240 Y72.500 E0.32969
G1 X77.370 Y80.935 E0.32969
G1 X67.630 Y80.935 E0.32969
G1 X62.790 Y72.552 E0.32766
M204 S1000
G1 X63.106 Y72.300 F10800.000
G1 X64.405 Y70.709
G1 F2351
G1 X70.337 Y64.777 E0.28685
G1 X70.918 Y64.777 E0.01988
G1 X64.111 Y71.585 E0.32918
G1 X63.582 Y72.500 E0.03613
G1 X63.654 Y72.623 E0.00487
G1 X71.500 Y64.777 E0.37940
G1 X72.082 Y64.777 E0.01988
G1 X63.867 Y72.992 E0.39723
G1 X64.079 Y73.361 E0.01456
G1 X72.663 Y64.777 E0.41505
G1 X73.245 Y64.777 E0.01988
G1 X64.292 Y73.729 E0.43288
G1 X64.505 Y74.098 E0.01456
G1 X73.826 Y64.777 E0.45071
G1 X74.408 Y64.777 E0.01988
G1 X64.718 Y74.467 E0.46853
G1 X64.931 Y74.835 E0.01456
G1 X74.989 Y64.777 E0.48636
G1 X75.571 Y64.777 E0.01988
G1 X65.144 Y75.204 E0.50419
G1 X65.356 Y75.573 E0.01456
G1 X76.152 Y64.777 E0.52201
G1 X76.734 Y64.777 E0.01988
G1 X65.569 Y75.941 E0.53984
G1 X65.782 Y76.310 E0.01456
G1 X77.089 Y65.003 E0.54674
G1 X77.302 Y65.372 E0.01456
G1 X65.995 Y76.679 E0.54674
G1 X66.208 Y77.047 E0.01456
G1 X77.515 Y65.740 E0.54674
G1 X77.728 Y66.109 E0.01456
G1 X66.421 Y77.416 E0.54674
G1 X66.634 Y77.785 E0.01456
G1 X77.941 Y66.478 E0.54674
G1 X78.154 Y66.846 E0.01456
G1 X66.846 Y78.154 E0.54674
G1 X67.059 Y78.522 E0.01456
G1 X78.366 Y67.215 E0.54674
G1 X78.579 Y67.584 E0.01456
G1 X67.272 Y78.891 E0.54674
G1 X67.485 Y79.260 E0.01456
G1 X78.792 Y67.952 E0.54674
G1 X79.005 Y68.321 E0.01456
G1 X67.698 Y79.628 E0.54674
G1 X67.911 Y79.997 E0.01456
G1 X79.218 Y68.690 E0.54674
G1 X79.431 Y69.058 E0.01456
G1 X68.266 Y80.223 E0.53984
G1 X68.848 Y80.223 E0.01988
G1 X79.643 Y69.427 E0.52202
G1 X79.856 Y69.796 E0.01456
G1 X69.429 Y80.223 E0.50419
G1 X70.011 Y80.223 E0.01988
G1 X80.069 Y70.164 E0.48636
G1 X80.282 Y70.533 E0.01456
G1 X70.592 Y80.223 E0.46854
G1 X71.174 Y80.223 E0.01988
G1 X80.495 Y70.902 E0.45071
G1 X80.708 Y71.270 E0.01456
G1 X71.755 Y80.223 E0.43288
G1 X72.337 Y80.223 E0.01988
G1 X80.921 Y71.639 E0.41506
G1 X81.133 Y72.008 E0.01456
G1 X72.918 Y80.223 E0.39723
G1 X73.500 Y80.223 E0.01988
G1 X81.346 Y72.376 E0.37940
G1 X81.418 Y72.500 E0.00488
G1 X80.889 Y73.415 E0.03612
G1 X73.898 Y80.406 E0.33805
G1 X74.480 Y80.406 F10800.000
G1 F2351
G1 X80.595 Y74.290 E0.29572
G1 X79.801 Y75.666 F10800.000
G1 F2351
G1 X75.061 Y80.406 E0.22919
G1 X75.643 Y80.406 F10800.000
G1 F2351
G1 X79.007 Y77.042 E0.16266
G1 X78.212 Y78.418 F10800.000
G1 F2351
G1 X76.224 Y80.406 E0.09613
G1 E-2.00000 F2700.00000
G1 Z1.000 F10800.000
G1 X65.199 Y69.334
G1 Z0.400
G1 E2.00000 F2700.00000
G1 F2351
G1 X69.755 Y64.777 E0.22032
G1 X69.174 Y64.777 E0.01988
G1 X65.993 Y67.958 E0.15379
G1 X66.788 Y66.582 F10800.000
G1 F2351
G1 X68.776 Y64.594 E0.09612
;BEFORE_LAYER_CHANGE 2 0.6
G92 E0.0

G1 Z0.600 F10800.000
;AFTER_LAYER_CHANGE
;0.6
G1 E-2.00000 F2700.00000
G1 Z1.200 F10800.000
G1 X66.856 Y61.356
G1 Z0.600
G1 E2.00000 F2700.00000
G1 F2356
G1 X67.478 Y61.274 E0.01968
G1 X77.504 Y61.274 E0.31435
G1 X78.127 Y61.352 E0.01968
G1 X78.716 Y61.580 E0.01980
G1 X86.624 Y66.184 E0.28692
G1 X87.187 Y66.828 E0.02680
G1 X89.770 Y71.304 E0.16204
G1 X89.975 Y71.826 E0.01758
G1 X90.063 Y72.379 E0.01758
G1 X90.028 Y72.939 E0.01758
G1 X89.872 Y73.478 E0.01758
