;FLAVOR:Marlin
;TIME:2656
;Filament used: 1.69016m, 0.175593m, 0.136328m, 0.118365m
;Layer height: 0.2
;Generated with Cura_SteamEngine 3.5.1
T0
M82 ;absolute extrusion mode
; START SCRIPT START
G90
G92 E0  ; reset extruder position
M104 S210 ; set extruder temp
M140 S60 ; set bed temp
M190 S60 ; wait for bed temp
M109 S210 ; wait for extruder temp
G28                                ;move to endstops
G29                                ;autolevel
M109 S[extruder0_temperature]  T0
M900 K100
; START SCRIPT END
M83 ;relative extrusion mode
G1 F2400 E-1.9
;LAYER_COUNT:130
;LAYER:0
M107
M104 T1 S175
M104 T2 S175
M104 T3 S175
G0 F3600 X57.123 Y58.349 Z0.3
;TYPE:SKIRT
G1 F2400 E1.9
G1 F1800 X57.722 Y57.834 E0.03987
G1 X58.37 Y57.383 E0.03984
G1 X59.061 Y56.999 E0.03989
G1 X59.786 Y56.687 E0.03983
G1 X60.539 Y56.45 E0.03984
G1 X61.313 Y56.291 E0.03988
G1 X62.098 Y56.21 E0.03983
G1 X62.5 Y56.2 E0.02029
G1 X82.5 Y56.2 E1.00931
G1 X83.289 Y56.24 E0.03987
G1 X84.069 Y56.359 E0.03982
G1 X84.834 Y56.557 E0.03988
G1 X85.574 Y56.831 E0.03982
G1 X86.283 Y57.179 E0.03986
G1 X86.954 Y57.597 E0.0399
G1 X87.578 Y58.08 E0.03982
G1 X88.151 Y58.623 E0.03984
G1 X88.666 Y59.222 E0.03987
G1 X89.117 Y59.87 E0.03984
G1 X89.501 Y60.561 E0.03989
G1 X89.813 Y61.286 E0.03983
G1 X90.05 Y62.039 E0.03984
G1 X90.209 Y62.813 E0.03988
G1 X90.29 Y63.598 E0.03983
G1 X90.3 Y64 E0.02029
G1 X90.3 Y84 E1.00931
G1 X90.26 Y84.789 E0.03987
G1 X90.141 Y85.569 E0.03982
G1 X89.943 Y86.334 E0.03988
G1 X89.669 Y87.074 E0.03982
G1 X89.321 Y87.783 E0.03986
G1 X88.903 Y88.454 E0.0399
G1 X88.42 Y89.078 E0.03982
G1 X87.877 Y89.651 E0.03984
G1 X87.278 Y90.166 E0.03987
G1 X86.63 Y90.617 E0.03984
G1 X85.939 Y91.001 E0.03989
G1 X85.214 Y91.313 E0.03983
G1 X84.461 Y91.55 E0.03984
G1 X83.687 Y91.709 E0.03988
G1 X82.902 Y91.79 E0.03983
G1 X82.5 Y91.8 E0.02029
G1 X62.5 Y91.8 E1.00931
G1 X61.711 Y91.76 E0.03987
G1 X60.931 Y91.641 E0.03982
G1 X60.166 Y91.443 E0.03988
G1 X59.426 Y91.169 E0.03982
G1 X58.717 Y90.821 E0.03986
G1 X58.046 Y90.403 E0.0399
G1 X57.422 Y89.92 E0.03982
G1 X56.849 Y89.377 E0.03984
G1 X56.334 Y88.778 E0.03987
G1 X55.883 Y88.13 E0.03984
G1 X55.499 Y87.439 E0.03989
G1 X55.187 Y86.714 E0.03983
G1 X54.95 Y85.961 E0.03984
G1 X54.791 Y85.187 E0.03988
G1 X54.71 Y84.402 E0.03983
G1 X54.7 Y84 E0.02029
G1 X54.7 Y64 E1.00931
G1 X54.74 Y63.211 E0.03987
G1 X54.859 Y62.431 E0.03982
G1 X55.057 Y61.666 E0.03988
G1 X55.331 Y60.926 E0.03982
G1 X55.679 Y60.217 E0.03986
G1 X56.097 Y59.546 E0.0399
G1 X56.58 Y58.922 E0.03982
G1 X57.123 Y58.349 E0.03984
G0 F3600 X57.516 Y58.53
G1 F1800 X58.111 Y58.042 E0.03883
G1 X58.753 Y57.619 E0.0388
G1 X59.436 Y57.264 E0.03885
G1 X60.151 Y56.983 E0.03877
G1 X60.893 Y56.777 E0.03886
G1 X61.651 Y56.649 E0.03879
G1 X62.5 Y56.6 E0.04292
G1 X82.5 Y56.6 E1.00931
G1 X83.268 Y56.64 E0.03881
G1 X84.028 Y56.759 E0.03882
G1 X84.771 Y56.957 E0.0388
G1 X85.49 Y57.231 E0.03883
G1 X86.176 Y57.578 E0.0388
G1 X86.823 Y57.994 E0.03882
G1 X87.423 Y58.475 E0.03881
G1 X87.97 Y59.016 E0.03883
G1 X88.458 Y59.611 E0.03883
G1 X88.881 Y60.253 E0.0388
G1 X89.236 Y60.936 E0.03885
G1 X89.517 Y61.651 E0.03877
G1 X89.723 Y62.393 E0.03886
G1 X89.851 Y63.151 E0.03879
G1 X89.9 Y64 E0.04292
G1 X89.9 Y84 E1.00931
G1 X89.86 Y84.768 E0.03881
G1 X89.741 Y85.528 E0.03882
G1 X89.543 Y86.271 E0.0388
G1 X89.269 Y86.99 E0.03883
G1 X88.922 Y87.676 E0.0388
G1 X88.506 Y88.323 E0.03882
G1 X88.025 Y88.923 E0.03881
G1 X87.484 Y89.47 E0.03883
G1 X86.889 Y89.958 E0.03883
G1 X86.247 Y90.381 E0.0388
G1 X85.564 Y90.736 E0.03885
G1 X84.849 Y91.017 E0.03877
G1 X84.107 Y91.223 E0.03886
G1 X83.349 Y91.351 E0.03879
G1 X82.5 Y91.4 E0.04292
G1 X62.5 Y91.4 E1.00931
G1 X61.732 Y91.36 E0.03881
G1 X60.972 Y91.241 E0.03882
G1 X60.229 Y91.043 E0.0388
G1 X59.51 Y90.769 E0.03883
G1 X58.824 Y90.422 E0.0388
G1 X58.177 Y90.006 E0.03882
G1 X57.577 Y89.525 E0.03881
G1 X57.03 Y88.984 E0.03883
G1 X56.542 Y88.389 E0.03883
G1 X56.119 Y87.747 E0.0388
G1 X55.764 Y87.064 E0.03885
G1 X55.483 Y86.349 E0.03877
G1 X55.277 Y85.607 E0.03886
G1 X55.149 Y84.849 E0.03879
G1 X55.1 Y84 E0.04292
G1 X55.1 Y64 E1.00931
G1 X55.14 Y63.232 E0.03881
G1 X55.259 Y62.472 E0.03882
G1 X55.457 Y61.729 E0.0388
G1 X55.731 Y61.01 E0.03883
G1 X56.078 Y60.324 E0.0388
G1 X56.494 Y59.677 E0.03882
G1 X56.975 Y59.077 E0.03881
G1 X57.516 Y58.53 E0.03883
G0 F3600 X57.908 Y58.716
G1 F1800 X58.498 Y58.257 E0.03772
G1 X59.134 Y57.862 E0.03778
G1 X59.808 Y57.538 E0.03774
G1 X60.513 Y57.288 E0.03775
G1 X61.241 Y57.114 E0.03777
G1 X61.983 Y57.019 E0.03775
G1 X62.5 Y57 E0.02611
G1 X82.5 Y57 E1.00931
G1 X83.247 Y57.04 E0.03775
G1 X83.985 Y57.159 E0.03772
G1 X84.707 Y57.357 E0.03778
G1 X85.403 Y57.63 E0.03773
G1 X86.066 Y57.977 E0.03776
G1 X86.689 Y58.392 E0.03778
G1 X87.263 Y58.871 E0.03773
G1 X87.784 Y59.408 E0.03776
G1 X88.243 Y59.998 E0.03772
G1 X88.638 Y60.634 E0.03778
G1 X88.962 Y61.308 E0.03774
G1 X89.212 Y62.013 E0.03775
G1 X89.386 Y62.741 E0.03777
G1 X89.481 Y63.483 E0.03775
G1 X89.5 Y64 E0.02611
G1 X89.5 Y84 E1.00931
G1 X89.46 Y84.747 E0.03775
G1 X89.341 Y85.485 E0.03772
G1 X89.143 Y86.207 E0.03778
G1 X88.87 Y86.903 E0.03773
G1 X88.523 Y87.566 E0.03776
G1 X88.108 Y88.189 E0.03778
G1 X87.629 Y88.763 E0.03773
G1 X87.092 Y89.284 E0.03776
G1 X86.502 Y89.743 E0.03772
G1 X85.866 Y90.138 E0.03778
G1 X85.192 Y90.462 E0.03774
G1 X84.487 Y90.712 E0.03775
G1 X83.759 Y90.886 E0.03777
G1 X83.017 Y90.981 E0.03775
G1 X82.5 Y91 E0.02611
G1 X62.5 Y91 E1.00931
G1 X61.753 Y90.96 E0.03775
G1 X61.015 Y90.841 E0.03772
G1 X60.293 Y90.643 E0.03778
G1 X59.597 Y90.37 E0.03773
G1 X58.934 Y90.023 E0.03776
G1 X58.311 Y89.608 E0.03778
G1 X57.737 Y89.129 E0.03773
G1 X57.216 Y88.592 E0.03776
G1 X56.757 Y88.002 E0.03772
G1 X56.362 Y87.366 E0.03778
G1 X56.038 Y86.692 E0.03774
G1 X55.788 Y85.987 E0.03775
G1 X55.614 Y85.259 E0.03777
G1 X55.519 Y84.517 E0.03775
G1 X55.5 Y84 E0.02611
G1 X55.5 Y64 E1.00931
G1 X55.54 Y63.253 E0.03775
G1 X55.659 Y62.515 E0.03772
G1 X55.857 Y61.793 E0.03778
G1 X56.13 Y61.097 E0.03773
G1 X56.477 Y60.434 E0.03776
G1 X56.892 Y59.811 E0.03778
G1 X57.371 Y59.237 E0.03773
G1 X57.908 Y58.716 E0.03776
G0 F3600 X57.765 Y59.402
G1 F1800 X58.299 Y58.909 E0.03668
G1 X58.884 Y58.479 E0.03664
G1 X59.513 Y58.115 E0.03667
G1 X60.178 Y57.822 E0.03667
G1 X60.871 Y57.604 E0.03666
G1 X61.583 Y57.464 E0.03662
G1 X62.5 Y57.4 E0.04639
G1 X82.5 Y57.4 E1.00931
G1 X83.225 Y57.44 E0.03664
G1 X83.942 Y57.559 E0.03668
G1 X84.641 Y57.757 E0.03666
G1 X85.314 Y58.03 E0.03665
G1 X85.953 Y58.375 E0.03665
G1 X86.55 Y58.789 E0.03666
G1 X87.098 Y59.265 E0.03663
G1 X87.591 Y59.799 E0.03668
G1 X88.021 Y60.384 E0.03664
G1 X88.385 Y61.013 E0.03667
G1 X88.678 Y61.678 E0.03667
G1 X88.896 Y62.371 E0.03666
G1 X89.036 Y63.083 E0.03662
G1 X89.1 Y64 E0.04639
G1 X89.1 Y84 E1.00931
G1 X89.06 Y84.725 E0.03664
G1 X88.941 Y85.442 E0.03668
G1 X88.743 Y86.141 E0.03666
G1 X88.47 Y86.814 E0.03665
G1 X88.125 Y87.453 E0.03665
G1 X87.711 Y88.05 E0.03666
G1 X87.235 Y88.598 E0.03663
G1 X86.701 Y89.091 E0.03668
G1 X86.116 Y89.521 E0.03664
G1 X85.487 Y89.885 E0.03667
G1 X84.822 Y90.178 E0.03667
G1 X84.129 Y90.396 E0.03666
G1 X83.417 Y90.536 E0.03662
G1 X82.5 Y90.6 E0.04639
G1 X62.5 Y90.6 E1.00931
G1 X61.775 Y90.56 E0.03664
G1 X61.058 Y90.441 E0.03668
G1 X60.359 Y90.243 E0.03666
G1 X59.686 Y89.97 E0.03665
G1 X59.047 Y89.625 E0.03665
G1 X58.45 Y89.211 E0.03666
G1 X57.902 Y88.735 E0.03663
G1 X57.409 Y88.201 E0.03668
G1 X56.979 Y87.616 E0.03664
G1 X56.615 Y86.987 E0.03667
G1 X56.322 Y86.322 E0.03667
G1 X56.104 Y85.629 E0.03666
G1 X55.964 Y84.917 E0.03662
G1 X55.9 Y84 E0.04639
G1 X55.9 Y64 E1.00931
G1 X55.94 Y63.275 E0.03664
G1 X56.059 Y62.558 E0.03668
G1 X56.257 Y61.859 E0.03666
G1 X56.53 Y61.186 E0.03665
G1 X56.875 Y60.547 E0.03665
G1 X57.289 Y59.95 E0.03666
G1 X57.765 Y59.402 E0.03663
G0 F3600 X58.159 Y59.573
G1 F1800 X58.689 Y59.109 E0.03555
G1 X59.268 Y58.709 E0.03551
G1 X59.889 Y58.377 E0.03554
G1 X60.543 Y58.117 E0.03552
G1 X61.223 Y57.933 E0.03555
G1 X61.919 Y57.827 E0.03553
G1 X62.5 Y57.8 E0.02935
G1 X82.5 Y57.8 E1.00931
G1 X83.203 Y57.84 E0.03553
G1 X83.897 Y57.959 E0.03553
G1 X84.572 Y58.157 E0.0355
G1 X85.221 Y58.429 E0.03551
G1 X85.835 Y58.774 E0.03554
G1 X86.406 Y59.185 E0.0355
G1 X86.927 Y59.659 E0.03555
G1 X87.391 Y60.189 E0.03555
G1 X87.791 Y60.768 E0.03551
G1 X88.123 Y61.389 E0.03554
G1 X88.383 Y62.043 E0.03552
G1 X88.567 Y62.723 E0.03555
G1 X88.673 Y63.419 E0.03553
G1 X88.7 Y64 E0.02935
G1 X88.7 Y84 E1.00931
G1 X88.66 Y84.703 E0.03553
G1 X88.541 Y85.397 E0.03553
G1 X88.343 Y86.072 E0.0355
G1 X88.071 Y86.721 E0.03551
G1 X87.726 Y87.335 E0.03554
G1 X87.315 Y87.906 E0.0355
G1 X86.841 Y88.427 E0.03555
G1 X86.311 Y88.891 E0.03555
G1 X85.732 Y89.291 E0.03551
G1 X85.111 Y89.623 E0.03554
G1 X84.457 Y89.883 E0.03552
G1 X83.777 Y90.067 E0.03555
G1 X83.081 Y90.173 E0.03553
G1 X82.5 Y90.2 E0.02935
G1 X62.5 Y90.2 E1.00931
G1 X61.797 Y90.16 E0.03553
G1 X61.103 Y90.041 E0.03553
G1 X60.428 Y89.843 E0.0355
G1 X59.779 Y89.571 E0.03551
G1 X59.165 Y89.226 E0.03554
G1 X58.594 Y88.815 E0.0355
G1 X58.073 Y88.341 E0.03555
G1 X57.609 Y87.811 E0.03555
G1 X57.209 Y87.232 E0.03551
G1 X56.877 Y86.611 E0.03554
G1 X56.617 Y85.957 E0.03552
G1 X56.433 Y85.277 E0.03555
G1 X56.327 Y84.581 E0.03553
G1 X56.3 Y84 E0.02935
G1 X56.3 Y64 E1.00931
G1 X56.34 Y63.297 E0.03553
G1 X56.459 Y62.603 E0.03553
G1 X56.657 Y61.928 E0.0355
G1 X56.929 Y61.279 E0.03551
G1 X57.274 Y60.665 E0.03554
G1 X57.685 Y60.094 E0.0355
G1 X58.159 Y59.573 E0.03555
G0 F3600 X58.553 Y59.751
G1 F1800 X59.078 Y59.317 E0.03438
G1 X59.65 Y58.948 E0.03435
G1 X60.262 Y58.649 E0.03437
G1 X60.904 Y58.424 E0.03433
G1 X61.569 Y58.275 E0.03439
G1 X62.5 Y58.2 E0.04714
G1 X82.5 Y58.2 E1.00931
G1 X83.18 Y58.24 E0.03438
G1 X83.85 Y58.359 E0.03434
G1 X84.502 Y58.556 E0.03437
G1 X85.126 Y58.828 E0.03435
G1 X85.714 Y59.172 E0.03438
G1 X86.258 Y59.582 E0.03438
G1 X86.749 Y60.053 E0.03434
G1 X87.183 Y60.578 E0.03438
G1 X87.552 Y61.15 E0.03435
G1 X87.851 Y61.762 E0.03437
G1 X88.076 Y62.404 E0.03433
G1 X88.225 Y63.069 E0.03439
G1 X88.3 Y64 E0.04714
G1 X88.3 Y84 E1.00931
G1 X88.26 Y84.68 E0.03438
G1 X88.141 Y85.35 E0.03434
G1 X87.944 Y86.002 E0.03437
G1 X87.672 Y86.626 E0.03435
G1 X87.328 Y87.214 E0.03438
G1 X86.918 Y87.758 E0.03438
G1 X86.447 Y88.249 E0.03434
G1 X85.922 Y88.683 E0.03438
G1 X85.35 Y89.052 E0.03435
G1 X84.738 Y89.351 E0.03437
G1 X84.096 Y89.576 E0.03433
G1 X83.431 Y89.725 E0.03439
G1 X82.5 Y89.8 E0.04714
G1 X62.5 Y89.8 E1.00931
G1 X61.82 Y89.76 E0.03438
G1 X61.15 Y89.641 E0.03434
G1 X60.498 Y89.444 E0.03437
G1 X59.874 Y89.172 E0.03435
G1 X59.286 Y88.828 E0.03438
G1 X58.742 Y88.418 E0.03438
G1 X58.251 Y87.947 E0.03434
G1 X57.817 Y87.422 E0.03438
G1 X57.448 Y86.85 E0.03435
G1 X57.149 Y86.238 E0.03437
G1 X56.924 Y85.596 E0.03433
G1 X56.775 Y84.931 E0.03439
G1 X56.7 Y84 E0.04714
G1 X56.7 Y64 E1.00931
G1 X56.74 Y63.32 E0.03438
G1 X56.859 Y62.65 E0.03434
G1 X57.056 Y61.998 E0.03437
G1 X57.328 Y61.374 E0.03435
G1 X57.672 Y60.786 E0.03438
G1 X58.082 Y60.242 E0.03438
G1 X58.553 Y59.751 E0.03434
G0 F3600 X58.945 Y59.935
G1 F1800 X59.465 Y59.534 E0.03314
G1 X60.029 Y59.198 E0.03313
G1 X60.631 Y58.934 E0.03317
G1 X61.26 Y58.744 E0.03316
G1 X61.907 Y58.633 E0.03313
G1 X62.5 Y58.6 E0.02997
G1 X82.5 Y58.6 E1.00931
G1 X83.156 Y58.64 E0.03317
G1 X83.802 Y58.759 E0.03315
G1 X84.429 Y58.956 E0.03317
G1 X85.027 Y59.228 E0.03315
G1 X85.588 Y59.57 E0.03316
G1 X86.103 Y59.978 E0.03316
G1 X86.565 Y60.445 E0.03315
G1 X86.966 Y60.965 E0.03314
G1 X87.302 Y61.529 E0.03313
G1 X87.566 Y62.131 E0.03317
G1 X87.756 Y62.76 E0.03316
G1 X87.867 Y63.407 E0.03313
G1 X87.9 Y64 E0.02997
G1 X87.9 Y84 E1.00931
G1 X87.86 Y84.656 E0.03317
G1 X87.741 Y85.302 E0.03315
G1 X87.544 Y85.929 E0.03317
G1 X87.272 Y86.527 E0.03315
G1 X86.93 Y87.088 E0.03316
G1 X86.522 Y87.603 E0.03316
G1 X86.055 Y88.065 E0.03315
G1 X85.535 Y88.466 E0.03314
G1 X84.971 Y88.802 E0.03313
G1 X84.369 Y89.066 E0.03317
G1 X83.74 Y89.256 E0.03316
G1 X83.093 Y89.367 E0.03313
G1 X82.5 Y89.4 E0.02997
G1 X62.5 Y89.4 E1.00931
G1 X61.844 Y89.36 E0.03317
G1 X61.198 Y89.241 E0.03315
G1 X60.571 Y89.044 E0.03317
G1 X59.973 Y88.772 E0.03315
G1 X59.412 Y88.43 E0.03316
G1 X58.897 Y88.022 E0.03316
G1 X58.435 Y87.555 E0.03315
G1 X58.034 Y87.035 E0.03314
G1 X57.698 Y86.471 E0.03313
G1 X57.434 Y85.869 E0.03317
G1 X57.244 Y85.24 E0.03316
G1 X57.133 Y84.593 E0.03313
G1 X57.1 Y84 E0.02997
G1 X57.1 Y64 E1.00931
G1 X57.14 Y63.344 E0.03317
G1 X57.259 Y62.698 E0.03315
G1 X57.456 Y62.071 E0.03317
G1 X57.728 Y61.473 E0.03315
G1 X58.07 Y60.912 E0.03316
G1 X58.478 Y60.397 E0.03316
G1 X58.945 Y59.935 E0.03315
G0 F3600 X58.873 Y60.559
G1 F1800 X59.336 Y60.129 E0.03189
G1 X59.85 Y59.76 E0.03193
G1 X60.406 Y59.46 E0.03188
G1 X60.995 Y59.232 E0.03187
G1 X61.609 Y59.08 E0.03192
G1 X62.5 Y59 E0.04515
G1 X82.5 Y59 E1.00931
G1 X83.131 Y59.04 E0.03191
G1 X83.752 Y59.159 E0.03191
G1 X84.352 Y59.356 E0.03187
G1 X84.924 Y59.627 E0.03194
G1 X85.456 Y59.967 E0.03186
G1 X85.941 Y60.373 E0.03192
G1 X86.371 Y60.836 E0.03189
G1 X86.74 Y61.35 E0.03193
G1 X87.04 Y61.906 E0.03188
G1 X87.268 Y62.495 E0.03187
G1 X87.42 Y63.109 E0.03192
G1 X87.5 Y64 E0.04515
G1 X87.5 Y84 E1.00931
G1 X87.46 Y84.631 E0.03191
G1 X87.341 Y85.252 E0.03191
G1 X87.144 Y85.852 E0.03187
G1 X86.873 Y86.424 E0.03194
G1 X86.533 Y86.956 E0.03186
G1 X86.127 Y87.441 E0.03192
G1 X85.664 Y87.871 E0.03189
G1 X85.15 Y88.24 E0.03193
G1 X84.594 Y88.54 E0.03188
G1 X84.005 Y88.768 E0.03187
G1 X83.391 Y88.92 E0.03192
G1 X82.5 Y89 E0.04515
G1 X62.5 Y89 E1.00931
G1 X61.869 Y88.96 E0.03191
G1 X61.248 Y88.841 E0.03191
G1 X60.648 Y88.644 E0.03187
G1 X60.076 Y88.373 E0.03194
G1 X59.544 Y88.033 E0.03186
G1 X59.059 Y87.627 E0.03192
G1 X58.629 Y87.164 E0.03189
G1 X58.26 Y86.65 E0.03193
G1 X57.96 Y86.094 E0.03188
G1 X57.732 Y85.505 E0.03187
G1 X57.58 Y84.891 E0.03192
G1 X57.5 Y84 E0.04515
G1 X57.5 Y64 E1.00931
G1 X57.54 Y63.369 E0.03191
G1 X57.659 Y62.748 E0.03191
G1 X57.856 Y62.148 E0.03187
G1 X58.127 Y61.576 E0.03194
G1 X58.467 Y61.044 E0.03186
G1 X58.873 Y60.559 E0.03192
G0 F3600 X59.267 Y60.728
G1 F1800 X59.725 Y60.331 E0.03059
G1 X60.232 Y59.998 E0.03061
G1 X60.778 Y59.734 E0.03061
G1 X61.354 Y59.545 E0.03059
G1 X61.95 Y59.433 E0.0306
G1 X62.5 Y59.4 E0.02781
G1 X82.5 Y59.4 E1.00931
G1 X83.105 Y59.44 E0.0306
G1 X83.699 Y59.559 E0.03057
G1 X84.273 Y59.755 E0.03061
G1 X84.816 Y60.026 E0.03063
G1 X85.319 Y60.365 E0.03061
G1 X85.772 Y60.767 E0.03056
G1 X86.169 Y61.225 E0.03059
G1 X86.502 Y61.732 E0.03061
G1 X86.766 Y62.278 E0.03061
G1 X86.955 Y62.854 E0.03059
G1 X87.067 Y63.45 E0.0306
G1 X87.1 Y64 E0.02781
G1 X87.1 Y84 E1.00931
G1 X87.06 Y84.605 E0.0306
G1 X86.941 Y85.199 E0.03057
G1 X86.745 Y85.773 E0.03061
G1 X86.474 Y86.316 E0.03063
G1 X86.135 Y86.819 E0.03061
G1 X85.733 Y87.272 E0.03056
G1 X85.275 Y87.669 E0.03059
G1 X84.768 Y88.002 E0.03061
G1 X84.222 Y88.266 E0.03061
G1 X83.646 Y88.455 E0.03059
G1 X83.05 Y88.567 E0.0306
G1 X82.5 Y88.6 E0.02781
G1 X62.5 Y88.6 E1.00931
G1 X61.895 Y88.56 E0.0306
G1 X61.301 Y88.441 E0.03057
G1 X60.727 Y88.245 E0.03061
G1 X60.184 Y87.974 E0.03063
G1 X59.681 Y87.635 E0.03061
G1 X59.228 Y87.233 E0.03056
G1 X58.831 Y86.775 E0.03059
G1 X58.498 Y86.268 E0.03061
G1 X58.234 Y85.722 E0.03061
G1 X58.045 Y85.146 E0.03059
G1 X57.933 Y84.55 E0.0306
G1 X57.9 Y84 E0.02781
G1 X57.9 Y64 E1.00931
G1 X57.94 Y63.395 E0.0306
G1 X58.059 Y62.801 E0.03057
G1 X58.255 Y62.227 E0.03061
G1 X58.526 Y61.684 E0.03063
G1 X58.865 Y61.181 E0.03061
G1 X59.267 Y60.728 E0.03056
G0 F3600 X59.66 Y60.906
G1 F1800 X60.113 Y60.544 E0.02926
G1 X60.611 Y60.249 E0.02921
G1 X61.145 Y60.024 E0.02924
