; generated by Slic3r Prusa Edition 1.41.0+win64 on 2018-09-30 at 21:35:44

; 

; external perimeters extrusion width = 0.45mm
; perimeters extrusion width = 0.45mm
; infill extrusion width = 0.45mm
; solid infill extrusion width = 0.45mm
; top infill extrusion width = 0.40mm
; first layer extrusion width = 0.42mm

; external perimeters extrusion width = 0.45mm
; perimeters extrusion width = 0.45mm
; infill extrusion width = 0.45mm
; solid infill extrusion width = 0.45mm
; top infill extrusion width = 0.40mm
; first layer extrusion width = 0.42mm

; external perimeters extrusion width = 0.45mm
; perimeters extrusion width = 0.45mm
; infill extrusion width = 0.45mm
; solid infill extrusion width = 0.45mm
; top infill extrusion width = 0.40mm
; first layer extrusion width = 0.42mm

; external perimeters extrusion width = 0.45mm
; perimeters extrusion width = 0.45mm
; infill extrusion width = 0.45mm
; solid infill extrusion width = 0.45mm
; top infill extrusion width = 0.40mm
; first layer extrusion width = 0.42mm

M201 X1800 Y1500 Z100 E6500 ; sets maximum accelerations, mm/sec^2
M203 X9000 Y9000 Z1800 E6000 ; sets maximum feedrates, mm/sec
M204 P1500 R1500 T1500 ; sets acceleration (P, T) and retract acceleration (R), mm/sec^2
M205 X10.00 Y10.00 Z0.20 E2.50 ; sets the jerk limits, mm/sec
M205 S0 T0 ; sets the minimum extruding and travel feed rate, mm/sec
M107
; START SCRIPT START
G21
G90
M80
M106 P0 S0  ; part cooling fan speed
M83  ; extruder relative mode
M104 S215 T0; set extruder temp
M104 S215 T1; set extruder temp
M104 S215 T2; set extruder temp
M104 S215 T3; set extruder temp
M140 S60 ;wait for bed temp
M190 S60 ;wait for bed temp
G28  ; home all without mesh bed level
G29 ; autolevel
M116  ; wait all temps
M106 P1 S255  ; hot end fan speed
G1 E3 F300
; START SCRIPT END
M900 K30; Filament gcode
G21 ; set units to millimeters
G90 ; use absolute coordinates
M83 ; use relative distances for extrusion
T0
M900 K30; Filament gcode
;BEFORE_LAYER_CHANGE 0 0.2
G92 E0.0

G1 Z0.200 F10800.000
;AFTER_LAYER_CHANGE
;0.2
G1 E-2.00000 F2700.00000
G1 Z0.800 F10800.000
G1 X85.099 Y83.216
G1 Z0.200
G1 E2.00000 F2700.00000
M204 S1000
G1 F1200
G1 X84.497 Y84.108 E0.03372
G1 X84.104 Y84.479 E0.01697
G1 X83.641 Y84.759 E0.01697
G1 X83.130 Y84.937 E0.01697
G1 X82.592 Y85.003 E0.01697
G1 X62.755 Y85.314 E0.62207
G1 X61.784 Y85.099 E0.03119
G1 X60.892 Y84.497 E0.03372
G1 X60.454 Y84.011 E0.02054
G1 X60.154 Y83.433 E0.02042
G1 X57.670 Y76.136 E0.24166
G1 X57.457 Y75.110 E0.03285
G1 X57.404 Y70.348 E0.14932
G1 X57.485 Y69.536 E0.02560
G1 X59.828 Y61.969 E0.24838
G1 X60.076 Y61.453 E0.01795
G1 X60.503 Y60.892 E0.02209
G1 X60.878 Y60.535 E0.01623
G1 X61.313 Y60.263 E0.01610
G1 X61.798 Y60.081 E0.01623
G1 X62.309 Y60.001 E0.01623
G1 X82.190 Y59.685 E0.62344
G1 X82.716 Y59.740 E0.01660
G1 X83.216 Y59.901 E0.01647
G1 X84.155 Y60.545 E0.03569
G1 X84.730 Y61.299 E0.02973
G1 X84.992 Y62.210 E0.02973
G1 X85.314 Y82.245 E0.62827
G1 X85.112 Y83.158 E0.02931
; PURGING FINISHED
G1 E-2.00000 F2700.00000
G1 Z0.800 F10800.000
G1 X81.850 Y81.850
G1 Z0.200
G1 E2.00000 F2700.00000
G1 F1200
G1 X63.150 Y81.850 E0.58634
G1 X63.150 Y74.453 E0.23192
G1 X60.609 Y74.453 E0.07966
G1 X60.609 Y70.659 E0.11897
G1 X63.150 Y70.659 E0.07966
G1 X63.150 Y63.150 E0.23545
G1 X81.850 Y63.150 E0.58634
G1 X81.850 Y81.790 E0.58446
G1 E-2.00000 F2700.00000
G1 Z0.800 F10800.000
G1 X62.773 Y74.831
G1 Z0.200
G1 E2.00000 F2700.00000
G1 F1200
G1 X60.232 Y74.831 E0.07966
G1 X60.232 Y70.282 E0.14262
G1 X62.773 Y70.282 E0.07966
G1 X62.773 Y63.026 E0.22751
G1 X62.714 Y62.773 E0.00815
G1 X81.974 Y62.773 E0.60388
G1 X82.227 Y62.714 E0.00815
G1 X82.227 Y81.974 E0.60388
G1 X82.286 Y82.227 E0.00815
G1 X63.026 Y82.227 E0.60388
G1 X62.773 Y82.286 E0.00815
G1 X62.773 Y74.891 E0.23187
G1 X62.768 Y74.431 F10800.000
G1 X63.072 Y74.340
G1 F1200
G1 X60.892 Y72.160 E0.09727
G1 X60.892 Y72.697 E0.01693
G1 X62.366 Y74.171 E0.06576
G1 X61.829 Y74.171 E0.01693
G1 X60.892 Y73.233 E0.04182
G1 X60.892 Y73.770 E0.01693
G1 X61.462 Y74.340 E0.02545
G1 E-2.00000 F2700.00000
G1 Z0.800 F10800.000
G1 X63.263 Y80.970
G1 Z0.200
G1 E2.00000 F2700.00000
G1 F1200
G1 X63.860 Y81.567 E0.02666
G1 X64.397 Y81.567 E0.01693
G1 X63.433 Y80.603 E0.04303
G1 X63.433 Y80.067 E0.01693
G1 X64.933 Y81.567 E0.06697
G1 X65.470 Y81.567 E0.01693
G1 X63.433 Y79.530 E0.09091
G1 X63.433 Y78.993 E0.01693
G1 X66.007 Y81.567 E0.11485
G1 X66.543 Y81.567 E0.01693
G1 X63.433 Y78.457 E0.13879
G1 X63.433 Y77.920 E0.01693
G1 X67.080 Y81.567 E0.16273
G1 X67.616 Y81.567 E0.01693
G1 X63.433 Y77.384 E0.18667
G1 X63.433 Y76.847 E0.01693
G1 X68.153 Y81.567 E0.21061
G1 X68.689 Y81.567 E0.01693
G1 X63.433 Y76.311 E0.23455
G1 X63.433 Y75.774 E0.01693
G1 X69.226 Y81.567 E0.25849
G1 X69.763 Y81.567 E0.01693
G1 X63.433 Y75.237 E0.28243
G1 X63.433 Y74.701 E0.01693
G1 X70.299 Y81.567 E0.30637
G1 X70.836 Y81.567 E0.01693
G1 X60.892 Y71.624 E0.44367
G1 X60.892 Y71.087 E0.01693
G1 X71.372 Y81.567 E0.46761
G1 X71.909 Y81.567 E0.01693
G1 X61.283 Y70.942 E0.47409
G1 X61.820 Y70.942 E0.01693
G1 X72.446 Y81.567 E0.47409
G1 X72.982 Y81.567 E0.01693
G1 X62.356 Y70.942 E0.47409
G1 X62.893 Y70.942 E0.01693
G1 X73.519 Y81.567 E0.47409
G1 X74.055 Y81.567 E0.01693
G1 X63.430 Y70.942 E0.47409
G1 X63.433 Y70.408 E0.01684
G1 X74.592 Y81.567 E0.49790
G1 X75.128 Y81.567 E0.01693
G1 X63.433 Y69.872 E0.52184
G1 X63.433 Y69.335 E0.01693
G1 X75.665 Y81.567 E0.54578
G1 X76.202 Y81.567 E0.01693
G1 X63.433 Y68.798 E0.56972
G1 X63.433 Y68.262 E0.01693
G1 X76.738 Y81.567 E0.59366
G1 X77.275 Y81.567 E0.01693
G1 X63.433 Y67.725 E0.61760
G1 X63.433 Y67.189 E0.01693
G1 X77.811 Y81.567 E0.64154
G1 X78.348 Y81.567 E0.01693
G1 X63.433 Y66.652 E0.66548
G1 X63.433 Y66.115 E0.01693
G1 X78.885 Y81.567 E0.68942
G1 X79.421 Y81.567 E0.01693
G1 X63.433 Y65.579 E0.71336
G1 X63.433 Y65.042 E0.01693
G1 X79.958 Y81.567 E0.73730
G1 X80.494 Y81.567 E0.01693
G1 X63.433 Y64.506 E0.76124
G1 X63.433 Y63.969 E0.01693
G1 X81.031 Y81.567 E0.78518
G1 X81.567 Y81.567 E0.01693
G1 X63.433 Y63.433 E0.80913
G1 X63.969 Y63.433 E0.01693
G1 X81.567 Y81.031 E0.78519
G1 X81.567 Y80.494 E0.01693
G1 X64.506 Y63.433 E0.76125
G1 X65.042 Y63.433 E0.01693
G1 X81.567 Y79.958 E0.73731
G1 X81.567 Y79.421 E0.01693
G1 X65.579 Y63.433 E0.71337
G1 X66.115 Y63.433 E0.01693
G1 X81.567 Y78.885 E0.68943
G1 X81.567 Y78.348 E0.01693
G1 X66.652 Y63.433 E0.66549
G1 X67.189 Y63.433 E0.01693
G1 X81.567 Y77.811 E0.64154
G1 X81.567 Y77.275 E0.01693
G1 X67.725 Y63.433 E0.61760
G1 X68.262 Y63.433 E0.01693
G1 X81.567 Y76.738 E0.59366
G1 X81.567 Y76.202 E0.01693
G1 X68.798 Y63.433 E0.56972
G1 X69.335 Y63.433 E0.01693
G1 X81.567 Y75.665 E0.54578
G1 X81.567 Y75.129 E0.01693
G1 X69.871 Y63.433 E0.52184
G1 X70.408 Y63.433 E0.01693
G1 X81.567 Y74.592 E0.49790
G1 X81.567 Y74.055 E0.01693
G1 X70.945 Y63.433 E0.47396
G1 X71.481 Y63.433 E0.01693
G1 X81.567 Y73.519 E0.45002
G1 X81.567 Y72.982 E0.01693
G1 X72.018 Y63.433 E0.42608
G1 X72.554 Y63.433 E0.01693
G1 X81.567 Y72.446 E0.40214
G1 X81.567 Y71.909 E0.01693
G1 X73.091 Y63.433 E0.37820
G1 X73.627 Y63.433 E0.01693
G1 X81.567 Y71.373 E0.35426
G1 X81.567 Y70.836 E0.01693
G1 X74.164 Y63.433 E0.33032
G1 X74.701 Y63.433 E0.01693
G1 X81.567 Y70.299 E0.30638
G1 X81.567 Y69.763 E0.01693
G1 X75.237 Y63.433 E0.28244
G1 X75.774 Y63.433 E0.01693
G1 X81.567 Y69.226 E0.25850
G1 X81.567 Y68.690 E0.01693
G1 X76.310 Y63.433 E0.23456
G1 X76.847 Y63.433 E0.01693
G1 X81.567 Y68.153 E0.21061
G1 X81.567 Y67.616 E0.01693
G1 X77.384 Y63.433 E0.18667
G1 X77.920 Y63.433 E0.01693
G1 X81.567 Y67.080 E0.16273
G1 X81.567 Y66.543 E0.01693
G1 X78.457 Y63.433 E0.13879
G1 X78.993 Y63.433 E0.01693
G1 X81.567 Y66.007 E0.11485
G1 X81.567 Y65.470 E0.01693
G1 X79.530 Y63.433 E0.09091
G1 X80.066 Y63.433 E0.01693
G1 X81.567 Y64.934 E0.06697
G1 X81.567 Y64.397 E0.01693
G1 X80.603 Y63.433 E0.04303
G1 X81.140 Y63.433 E0.01693
G1 X81.737 Y64.030 E0.02666
M106 S255
;BEFORE_LAYER_CHANGE 1 0.4
G92 E0.0

G1 Z0.400 F10800.000
;AFTER_LAYER_CHANGE
;0.4
M104 S210 ; set temperature
G1 E-2.00000 F2700.00000
G1 Z1.000 F10800.000
G1 X84.730 Y61.299
G1 Z0.400
G1 E2.00000 F2700.00000
G1 F3000
G1 X84.992 Y62.210 E0.02973
G1 X85.314 Y82.245 E0.62827
G1 X85.099 Y83.216 E0.03119
G1 X84.497 Y84.108 E0.03372
G1 X84.104 Y84.479 E0.01697
G1 X83.641 Y84.759 E0.01697
G1 X83.130 Y84.937 E0.01697
G1 X82.592 Y85.003 E0.01697
G1 X62.755 Y85.314 E0.62207
G1 X61.784 Y85.099 E0.03119
G1 X60.892 Y84.497 E0.03372
G1 X60.454 Y84.011 E0.02054
G1 X60.154 Y83.433 E0.02042
G1 X57.670 Y76.136 E0.24166
G1 X57.457 Y75.110 E0.03285
G1 X57.404 Y70.348 E0.14932
G1 X57.485 Y69.536 E0.02560
G1 X59.828 Y61.969 E0.24838
G1 X60.076 Y61.453 E0.01795
G1 X60.503 Y60.892 E0.02209
G1 X60.878 Y60.535 E0.01623
G1 X61.313 Y60.263 E0.01610
G1 X61.798 Y60.081 E0.01623
G1 X62.309 Y60.001 E0.01623
G1 X82.190 Y59.685 E0.62344
G1 X82.716 Y59.740 E0.01660
G1 X83.216 Y59.901 E0.01647
G1 X84.155 Y60.545 E0.03569
G1 X84.694 Y61.251 E0.02785
; PURGING FINISHED
G1 E-2.00000 F2700.00000
G1 Z1.000 F10800.000
G1 X81.680 Y63.145
G1 Z0.400
G1 E2.00000 F2700.00000
M204 S800
G1 F3000
G1 X81.680 Y80.923 E0.60174
G1 X81.855 Y81.680 E0.02631
G1 X64.077 Y81.680 E0.60174
G1 X63.320 Y81.855 E0.02631
G1 X63.320 Y74.490 E0.24930
G1 X60.698 Y74.490 E0.08874
G1 X60.698 Y70.848 E0.12327
G1 X63.320 Y70.848 E0.08874
G1 X63.320 Y64.077 E0.22917
G1 X63.145 Y63.320 E0.02631
G1 X80.923 Y63.320 E0.60174
G1 X81.622 Y63.159 E0.02428
M204 S1000
G1 E-2.00000 F2700.00000
G1 Z1.000 F10800.000
G1 X62.913 Y74.897
G1 Z0.400
G1 E2.00000 F2700.00000
M204 S800
G1 F2400
G1 X60.406 Y74.897 E0.08486
G1 X60.291 Y74.923 E0.00399
G1 X60.291 Y70.555 E0.14784
G1 X60.265 Y70.441 E0.00399
G1 X62.913 Y70.441 E0.08964
G1 X62.913 Y64.124 E0.21382
G1 X62.633 Y62.913 E0.04207
G1 X80.876 Y62.913 E0.61750
G1 X82.087 Y62.633 E0.04207
G1 X82.087 Y80.876 E0.61750
G1 X82.367 Y82.087 E0.04207
G1 X64.124 Y82.087 E0.61750
G1 X62.913 Y82.367 E0.04207
G1 X62.913 Y74.957 E0.25082
M204 S1000
G1 X62.891 Y74.497 F10800.000
G1 X60.820 Y73.139
G1 F3000
G1 X62.807 Y71.153 E0.09597
G1 X62.226 Y71.153 E0.01985
G1 X61.004 Y72.375 E0.05905
G1 X61.004 Y71.794 E0.01985
G1 X61.645 Y71.153 E0.03097
G1 X61.064 Y71.153 E0.01985
G1 X60.820 Y71.396 E0.01175
G1 E-2.00000 F2700.00000
G1 Z1.000 F10800.000
G1 X64.126 Y63.442
G1 Z0.400
G1 E2.00000 F2700.00000
G1 F3000
G1 X63.607 Y63.962 E0.02510
G1 X63.625 Y64.043 E0.00284
G1 X63.625 Y64.524 E0.01644
G1 X64.524 Y63.625 E0.04342
G1 X65.105 Y63.625 E0.01985
G1 X63.625 Y65.105 E0.07149
G1 X63.625 Y65.686 E0.01985
G1 X65.686 Y63.625 E0.09956
G1 X66.267 Y63.625 E0.01985
G1 X63.625 Y66.267 E0.12764
G1 X63.625 Y66.848 E0.01985
G1 X66.848 Y63.625 E0.15571
G1 X67.429 Y63.625 E0.01985
G1 X63.625 Y67.429 E0.18379
G1 X63.625 Y68.010 E0.01985
G1 X68.010 Y63.625 E0.21186
G1 X68.591 Y63.625 E0.01985
G1 X63.625 Y68.591 E0.23993
G1 X63.625 Y69.172 E0.01985
G1 X69.172 Y63.625 E0.26801
G1 X69.753 Y63.625 E0.01985
G1 X63.625 Y69.753 E0.29608
G1 X63.625 Y70.335 E0.01985
G1 X70.335 Y63.625 E0.32416
G1 X70.916 Y63.625 E0.01985
G1 X61.004 Y73.537 E0.47890
G1 X61.004 Y74.118 E0.01985
G1 X71.497 Y63.625 E0.50697
G1 X72.078 Y63.625 E0.01985
G1 X61.519 Y74.184 E0.51016
G1 X62.100 Y74.184 E0.01985
G1 X72.659 Y63.625 E0.51016
G1 X73.240 Y63.625 E0.01985
G1 X62.681 Y74.184 E0.51016
G1 X63.262 Y74.184 E0.01985
G1 X73.821 Y63.625 E0.51016
G1 X74.402 Y63.625 E0.01985
G1 X63.625 Y74.402 E0.52068
G1 X63.625 Y74.983 E0.01985
G1 X74.983 Y63.625 E0.54875
G1 X75.564 Y63.625 E0.01985
G1 X63.625 Y75.564 E0.57682
G1 X63.625 Y76.145 E0.01985
G1 X76.145 Y63.625 E0.60490
G1 X76.726 Y63.625 E0.01985
G1 X63.625 Y76.726 E0.63297
G1 X63.625 Y77.307 E0.01985
G1 X77.307 Y63.625 E0.66105
G1 X77.888 Y63.625 E0.01985
G1 X63.625 Y77.888 E0.68912
G1 X63.625 Y78.469 E0.01985
G1 X78.469 Y63.625 E0.71719
G1 X79.050 Y63.625 E0.01985
G1 X63.625 Y79.050 E0.74527
G1 X63.625 Y79.631 E0.01985
G1 X79.631 Y63.625 E0.77334
G1 X80.213 Y63.625 E0.01985
G1 X63.625 Y80.213 E0.80142
G1 X63.625 Y80.794 E0.01985
G1 X80.794 Y63.625 E0.82949
G1 X80.957 Y63.625 E0.00559
G1 X81.375 Y63.529 E0.01463
G1 X81.375 Y63.625 E0.00329
G1 X63.625 Y81.375 E0.85756
G1 X63.625 Y81.471 E0.00329
G1 X64.043 Y81.375 E0.01463
G1 X64.206 Y81.375 E0.00559
G1 X81.375 Y64.206 E0.82949
G1 X81.375 Y64.787 E0.01985
G1 X64.787 Y81.375 E0.80142
G1 X65.368 Y81.375 E0.01985
G1 X81.375 Y65.368 E0.77335
G1 X81.375 Y65.950 E0.01985
G1 X65.950 Y81.375 E0.74527
G1 X66.531 Y81.375 E0.01985
G1 X81.375 Y66.531 E0.71720
G1 X81.375 Y67.112 E0.01985
G1 X67.112 Y81.375 E0.68912
G1 X67.693 Y81.375 E0.01985
G1 X81.375 Y67.693 E0.66105
G1 X81.375 Y68.274 E0.01985
G1 X68.274 Y81.375 E0.63298
G1 X68.855 Y81.375 E0.01985
G1 X81.375 Y68.855 E0.60490
G1 X81.375 Y69.436 E0.01985
G1 X69.436 Y81.375 E0.57683
G1 X70.017 Y81.375 E0.01985
G1 X81.375 Y70.017 E0.54875
G1 X81.375 Y70.598 E0.01985
G1 X70.598 Y81.375 E0.52068
G1 X71.179 Y81.375 E0.01985
G1 X81.375 Y71.179 E0.49261
G1 X81.375 Y71.760 E0.01985
G1 X71.760 Y81.375 E0.46453
G1 X72.341 Y81.375 E0.01985
G1 X81.375 Y72.341 E0.43646
G1 X81.375 Y72.922 E0.01985
G1 X72.922 Y81.375 E0.40838
G1 X73.503 Y81.375 E0.01985
G1 X81.375 Y73.503 E0.38031
G1 X81.375 Y74.084 E0.01985
G1 X74.084 Y81.375 E0.35223
G1 X74.665 Y81.375 E0.01985
G1 X81.375 Y74.665 E0.32416
G1 X81.375 Y75.246 E0.01985
G1 X75.246 Y81.375 E0.29609
G1 X75.828 Y81.375 E0.01985
G1 X81.375 Y75.828 E0.26801
G1 X81.375 Y76.409 E0.01985
G1 X76.409 Y81.375 E0.23994
G1 X76.990 Y81.375 E0.01985
G1 X81.375 Y76.990 E0.21186
G1 X81.375 Y77.571 E0.01985
G1 X77.571 Y81.375 E0.18379
G1 X78.152 Y81.375 E0.01985
G1 X81.375 Y78.152 E0.15572
G1 X81.375 Y78.733 E0.01985
G1 X78.733 Y81.375 E0.12764
G1 X79.314 Y81.375 E0.01985
G1 X81.375 Y79.314 E0.09957
G1 X81.375 Y79.895 E0.01985
G1 X79.895 Y81.375 E0.07149
G1 X80.476 Y81.375 E0.01985
G1 X81.375 Y80.476 E0.04342
G1 X81.375 Y80.957 E0.01644
G1 X81.393 Y81.038 E0.00284
G1 X80.874 Y81.558 E0.02510
;BEFORE_LAYER_CHANGE 2 0.6
G92 E0.0

G1 Z0.600 F10800.000
;AFTER_LAYER_CHANGE
;0.6
G1 E-2.00000 F2700.00000
G1 Z1.200 F10800.000
G1 X85.099 Y83.216
G1 Z0.600
G1 E2.00000 F2700.00000
G1 F3000
G1 X84.497 Y84.108 E0.03372
G1 X84.104 Y84.479 E0.01697
G1 X83.641 Y84.759 E0.01697
G1 X83.130 Y84.937 E0.01697
G1 X82.592 Y85.003 E0.01697
G1 X62.755 Y85.314 E0.62207
G1 X61.784 Y85.099 E0.03119
G1 X60.892 Y84.497 E0.03372
G1 X60.454 Y84.011 E0.02054
G1 X60.154 Y83.433 E0.02042
G1 X57.670 Y76.136 E0.24166
G1 X57.457 Y75.110 E0.03285
G1 X57.404 Y70.348 E0.14932
G1 X57.485 Y69.536 E0.02560
G1 X59.828 Y61.969 E0.24838
G1 X60.076 Y61.453 E0.01795
G1 X60.503 Y60.892 E0.02209
G1 X60.878 Y60.535 E0.01623
G1 X61.313 Y60.263 E0.01610
G1 X61.798 Y60.081 E0.01623
G1 X62.309 Y60.001 E0.01623
G1 X82.190 Y59.685 E0.62344
G1 X82.716 Y59.740 E0.01660
G1 X83.216 Y59.901 E0.01647
G1 X84.155 Y60.545 E0.03569
G1 X84.730 Y61.299 E0.02973
G1 X84.992 Y62.210 E0.02973
G1 X85.314 Y82.245 E0.62827
G1 X85.112 Y83.158 E0.02931
; PURGING FINISHED
G1 E-2.00000 F2700.00000
G1 Z1.200 F10800.000
G1 X81.955 Y81.555
G1 Z0.600
G1 E2.00000 F2700.00000
M204 S800
G1 F3000
G1 X65.177 Y81.555 E0.56789
G1 X63.445 Y81.955 E0.06016
G1 X63.445 Y74.571 E0.24993
G1 X60.742 Y74.571 E0.09149
G1 X60.742 Y70.992 E0.12115
G1 X63.445 Y70.992 E0.09149
G1 X63.445 Y65.177 E0.19681
G1 X63.045 Y63.445 E0.06016
G1 X79.823 Y63.445 E0.56789
G1 X81.555 Y63.045 E0.06016
G1 X81.555 Y79.823 E0.56789
G1 X81.941 Y81.496 E0.05813
M204 S1000
G1 E-2.00000 F2700.00000
G1 Z1.200 F10800.000
G1 X63.038 Y74.978
G1 Z0.600
G1 E2.00000 F2700.00000
M204 S800
G1 F2400
G1 X60.694 Y74.978 E0.07936
G1 X60.335 Y75.061 E0.01245
G1 X60.335 Y70.943 E0.13938
G1 X60.253 Y70.584 E0.01245
G1 X63.038 Y70.584 E0.09429
G1 X63.038 Y65.224 E0.18146
G1 X62.534 Y63.038 E0.07592
G1 X79.776 Y63.038 E0.58365
G1 X81.962 Y62.534 E0.07592
G1 X81.962 Y79.776 E0.58365
G1 X82.466 Y81.962 E0.07592
G1 X65.224 Y81.962 E0.58365
G1 X63.038 Y82.466 E0.07592
G1 X63.038 Y75.038 E0.25144
M204 S1000
G1 X62.998 Y74.580 F10800.000
G1 X60.865 Y73.630
G1 F3000
G1 X61.500 Y74.266 E0.03066
G1 X62.080 Y74.266 E0.01980
G1 X61.048 Y73.233 E0.04982
