; G-Code generated by Simplify3D(R) Version 4.0.1
; Sep 30, 2018 at 5:16:21 PM
; Settings Summary
;   processName,Process1
;   applyToModels,mc_testmodel2_p1
;   profileName,Cube/Prometheus4x/filaswitch/Duet
;   profileVersion,2018-06-14 20:28:47
;   baseProfile,Default
;   printMaterial,PLA
;   printQuality,Medium
;   printExtruders,All Extruders
;   extruderName,Extruder 1,Extruder 2,Extruder 3,Extruder 4,Support Extruder
;   extruderToolheadNumber,0,1,2,3,5
;   extruderDiameter,0.4,0.4,0.4,0.4,0.4
;   extruderAutoWidth,0,0,0,0,0
;   extruderWidth,0.45,0.45,0.45,0.45,0.45
;   extrusionMultiplier,1,1,1,1,1
;   extruderUseRetract,1,1,1,1,1
;   extruderRetractionDistance,1.6,1.6,1.6,1.6,1.6
;   extruderExtraRestartDistance,0,0,0,0,0
;   extruderRetractionZLift,0.5,0.5,0.5,0.5,0.5
;   extruderRetractionSpeed,2400,2400,2400,2400,2400
;   extruderUseCoasting,0,0,0,0,0
;   extruderCoastingDistance,0.2,0.2,0.2,0.2,0.2
;   extruderUseWipe,1,1,1,1,1
;   extruderWipeDistance,5,5,5,5,5
;   primaryExtruder,0
;   layerHeight,0.2
;   topSolidLayers,5
;   bottomSolidLayers,5
;   perimeterOutlines,2
;   printPerimetersInsideOut,0
;   startPointOption,2
;   startPointOriginX,0
;   startPointOriginY,0
;   sequentialIslands,0
;   spiralVaseMode,0
;   firstLayerHeightPercentage,100
;   firstLayerWidthPercentage,110
;   firstLayerUnderspeed,0.5
;   useRaft,0
;   raftExtruder,0
;   raftTopLayers,3
;   raftBaseLayers,2
;   raftOffset,3
;   raftSeparationDistance,0.14
;   raftTopInfill,100
;   aboveRaftSpeedMultiplier,0.3
;   useSkirt,1
;   skirtExtruder,0
;   skirtLayers,1
;   skirtOutlines,5
;   skirtOffset,0
;   usePrimePillar,0
;   primePillarExtruder,999
;   primePillarWidth,12
;   primePillarLocation,7
;   primePillarSpeedMultiplier,1
;   useOozeShield,0
;   oozeShieldExtruder,999
;   oozeShieldOffset,2
;   oozeShieldOutlines,1
;   oozeShieldSidewallShape,1
;   oozeShieldSidewallAngle,30
;   oozeShieldSpeedMultiplier,1
;   infillExtruder,0
;   internalInfillPattern,Rectilinear
;   externalInfillPattern,Rectilinear
;   infillPercentage,10
;   outlineOverlapPercentage,20
;   infillExtrusionWidthPercentage,105
;   minInfillLength,5
;   infillLayerInterval,1
;   internalInfillAngles,45,-45
;   overlapInternalInfillAngles,0
;   externalInfillAngles,45,-45
;   generateSupport,0
;   supportExtruder,2
;   supportInfillPercentage,30
;   supportExtraInflation,0
;   supportBaseLayers,0
;   denseSupportExtruder,1
;   denseSupportLayers,4
;   denseSupportInfillPercentage,100
;   supportLayerInterval,1
;   supportHorizontalPartOffset,0.3
;   supportUpperSeparationLayers,0
;   supportLowerSeparationLayers,0
;   supportType,0
;   supportGridSpacing,1
;   maxOverhangAngle,45
;   supportAngles,0
;   temperatureName,Extruder 1,Extruder 2,Extruder 3,Extruder 4,Heated Bed
;   temperatureNumber,0,1,2,3,0
;   temperatureSetpointCount,2,2,2,2,1
;   temperatureSetpointLayers,1,2,1,2,1,2,1,2,1
;   temperatureSetpointTemperatures,215,205,215,205,215,205,215,205,60
;   temperatureStabilizeAtStartup,1,1,1,1,1
;   temperatureHeatedBed,0,0,0,0,1
;   temperatureRelayBetweenLayers,0,0,0,0,0
;   temperatureRelayBetweenLoops,0,0,0,0,0
;   fanLayers,1,2
;   fanSpeeds,0,100
;   blipFanToFullPower,0
;   adjustSpeedForCooling,1
;   minSpeedLayerTime,1
;   minCoolingSpeedSlowdown,75
;   increaseFanForCooling,1
;   minFanLayerTime,1
;   maxCoolingFanSpeed,50
;   increaseFanForBridging,1
;   bridgingFanSpeed,50
;   use5D,1
;   relativeEdistances,1
;   allowEaxisZeroing,1
;   independentExtruderAxes,0
;   includeM10123,0
;   stickySupport,1
;   applyToolheadOffsets,0
;   gcodeXoffset,0
;   gcodeYoffset,0
;   gcodeZoffset,0
;   overrideMachineDefinition,1
;   machineTypeOverride,0
;   strokeXoverride,145
;   strokeYoverride,148
;   strokeZoverride,148.1
;   originOffsetXoverride,0
;   originOffsetYoverride,0
;   originOffsetZoverride,0
;   homeXdirOverride,-1
;   homeYdirOverride,-1
;   homeZdirOverride,-1
;   flipXoverride,1
;   flipYoverride,-1
;   flipZoverride,1
;   toolheadOffsets,0,0|0,0|0,0|0,0|0,0|0,0
;   overrideFirmwareConfiguration,1
;   firmwareTypeOverride,RepRap (Marlin/Repetier/Sprinter)
;   GPXconfigOverride,r2
;   baudRateOverride,250000
;   overridePrinterModels,0
;   printerModelsOverride
;   startingGcode,; START SCRIPT START,G90,T0,M80,G92 E0  ; reset extruder position,M80     ; turn on power,M104 S[extruder0_temperature],M140 S[bed0_temperature],M190 S[bed0_temperature],G28                                ;move to endstops,G29                                ;autolevel,M109 S[extruder0_temperature] ,,M572 D0:3 S0.40       ; Duet Pressure Advance,; START SCRIPT END
;   layerChangeGcode,
;   retractionGcode,
;   toolChangeGcode,M204 P2000,; TOOL CHANGE,T[new_tool]
;   endingGcode,; END SCRIPT START,M104 S0                           ;extruder heater off,M140 S0                           ;heated bed heater off (if you have it),G91                                  ;relative positioning,G1 E-3 F300                     ;retract the filament a bit before lifting the nozzle to release some of the pressure,G90                                  ;absolute positioning,M107                                ; turn off fan,G1 Z145 F2500                ; move bed to bottom lest it drops down after motors off,G1 X15 Y145 F6000         ; home X axis,M84                                  ; disable motors,G4  P300000                     ; wait 5min,M81                                 ; turn off ATX,; END SCRIPT END
;   exportFileFormat,gcode
;   celebration,0
;   celebrationSong,Funky Town
;   postProcessing,
;   defaultSpeed,3000
;   outlineUnderspeed,0.4
;   solidInfillUnderspeed,0.8
;   supportUnderspeed,0.8
;   rapidXYspeed,9000
;   rapidZspeed,1800
;   minBridgingArea,25
;   bridgingExtraInflation,0
;   bridgingExtrusionMultiplier,1
;   bridgingSpeedMultiplier,1
;   useFixedBridgingAngle,0
;   fixedBridgingAngle,0
;   applyBridgingToPerimeters,0
;   filamentDiameters,1.75|1.75|1.75|1.75|1.75|1.75
;   filamentPricesPerKg,46|46|46|46|46|46
;   filamentDensities,1.25|1.25|1.25|1.25|1.25|1.25
;   useMinPrintHeight,0
;   minPrintHeight,0
;   useMaxPrintHeight,0
;   maxPrintHeight,0
;   useDiaphragm,0
;   diaphragmLayerInterval,20
;   robustSlicing,1
;   mergeAllIntoSolid,0
;   onlyRetractWhenCrossingOutline,0
;   retractBetweenLayers,1
;   useRetractionMinTravel,1
;   retractionMinTravel,1
;   retractWhileWiping,0
;   onlyWipeOutlines,0
;   avoidCrossingOutline,0
;   maxMovementDetourFactor,3
;   toolChangeRetractionDistance,0
;   toolChangeExtraRestartDistance,0
;   toolChangeRetractionSpeed,4800
;   externalThinWallType,0
;   internalThinWallType,2
;   thinWallAllowedOverlapPercentage,10
;   singleExtrusionMinLength,1
;   singleExtrusionMinPrintingWidthPercentage,50
;   singleExtrusionMaxPrintingWidthPercentage,200
;   singleExtrusionEndpointExtension,0.2
;   horizontalSizeCompensation,0
G90
M83
M106 S0
; START SCRIPT START
G90
T0
M80
G92 E0  ; reset extruder position
M80     ; turn on power
M104 S215
M140 S60
M190 S60
G28                                ;move to endstops
G29                                ;autolevel
M109 S215 
M572 D0:3 S0.40       ; Duet Pressure Advance
; START SCRIPT END
G1 E-1.6000 F2400
G1 Z0.700 F1800
; process Process1
; layer 1, Z = 0.200
M104 S215 T1
M104 S215 T2
M104 S215 T3
M204 P2000
; TOOL CHANGE
T0
; tool H0.200 W0.495
; skirt
G1 X63.782 Y67.227 F9000
G1 Z0.200 F1800
G1 E1.6000 F720
G1 X64.791 Y66.281 E0.0569 F1500
G1 X64.889 Y66.200 E0.0052
G1 X66.009 Y65.388 E0.0569
G1 X66.116 Y65.320 E0.0052
G1 X67.335 Y64.650 E0.0572
G1 X67.463 Y64.591 E0.0058
G1 X67.604 Y64.538 E0.0062
G1 X67.672 Y64.109 E0.0179
G1 X67.770 Y63.805 E0.0131
G1 X68.341 Y62.685 E0.0518
G1 X68.528 Y62.427 E0.0131
G1 X69.417 Y61.538 E0.0518
G1 X69.675 Y61.351 E0.0131
G1 X70.796 Y60.780 E0.0518
G1 X71.099 Y60.682 E0.0131
G1 X72.341 Y60.485 E0.0518
G1 X72.659 Y60.485 E0.0131
G1 X73.901 Y60.682 E0.0517
G1 X74.204 Y60.780 E0.0131
G1 X75.325 Y61.351 E0.0518
G1 X75.583 Y61.538 E0.0131
G1 X76.472 Y62.427 E0.0518
G1 X76.659 Y62.685 E0.0131
G1 X77.230 Y63.805 E0.0518
G1 X77.328 Y64.109 E0.0131
G1 X77.396 Y64.539 E0.0179
G1 X77.548 Y64.596 E0.0067
G1 X77.677 Y64.656 E0.0059
G1 X78.895 Y65.326 E0.0572
G1 X79.002 Y65.395 E0.0052
G1 X80.121 Y66.208 E0.0569
G1 X80.218 Y66.289 E0.0052
G1 X81.222 Y67.232 E0.0567
G1 X81.309 Y67.325 E0.0052
G1 X82.191 Y68.390 E0.0569
G1 X82.266 Y68.493 E0.0052
G1 X83.007 Y69.661 E0.0569
G1 X83.069 Y69.773 E0.0053
G1 X83.463 Y70.612 E0.0382
G1 X83.901 Y70.682 E0.0183
G1 X84.204 Y70.780 E0.0131
G1 X85.325 Y71.351 E0.0518
G1 X85.583 Y71.538 E0.0131
G1 X86.472 Y72.427 E0.0518
G1 X86.659 Y72.685 E0.0131
G1 X87.230 Y73.806 E0.0518
G1 X87.328 Y74.109 E0.0131
G1 X87.525 Y75.351 E0.0518
G1 X87.525 Y75.669 E0.0131
G1 X87.328 Y76.911 E0.0518
G1 X87.230 Y77.214 E0.0131
G1 X86.659 Y78.335 E0.0518
G1 X86.472 Y78.592 E0.0131
G1 X85.583 Y79.481 E0.0518
G1 X85.325 Y79.669 E0.0131
G1 X84.204 Y80.240 E0.0518
G1 X83.901 Y80.338 E0.0131
G1 X83.463 Y80.408 E0.0183
G1 X83.069 Y81.247 E0.0382
G1 X83.007 Y81.359 E0.0053
G1 X82.266 Y82.527 E0.0569
G1 X82.191 Y82.630 E0.0053
G1 X81.305 Y83.700 E0.0572
G1 X81.218 Y83.792 E0.0052
G1 X80.209 Y84.739 E0.0569
G1 X80.111 Y84.820 E0.0052
G1 X78.991 Y85.632 E0.0569
G1 X78.884 Y85.700 E0.0052
G1 X77.665 Y86.369 E0.0572
G1 X77.537 Y86.429 E0.0058
G1 X77.396 Y86.482 E0.0062
G1 X77.328 Y86.911 E0.0179
G1 X77.230 Y87.214 E0.0131
G1 X76.659 Y88.335 E0.0518
G1 X76.472 Y88.592 E0.0131
G1 X75.583 Y89.482 E0.0518
G1 X75.325 Y89.669 E0.0131
G1 X74.204 Y90.240 E0.0518
G1 X73.901 Y90.338 E0.0131
G1 X72.659 Y90.535 E0.0517
G1 X72.341 Y90.535 E0.0131
G1 X71.099 Y90.338 E0.0518
G1 X70.796 Y90.240 E0.0131
G1 X69.675 Y89.669 E0.0518
G1 X69.417 Y89.482 E0.0131
G1 X68.528 Y88.592 E0.0518
G1 X68.341 Y88.335 E0.0131
G1 X67.770 Y87.214 E0.0518
G1 X67.672 Y86.911 E0.0131
G1 X67.604 Y86.481 E0.0179
G1 X67.452 Y86.423 E0.0067
G1 X67.323 Y86.364 E0.0059
G1 X66.105 Y85.693 E0.0572
G1 X65.998 Y85.625 E0.0052
G1 X64.879 Y84.812 E0.0569
G1 X64.782 Y84.731 E0.0052
G1 X63.778 Y83.788 E0.0567
G1 X63.691 Y83.695 E0.0052
G1 X62.809 Y82.629 E0.0569
G1 X62.734 Y82.526 E0.0052
G1 X61.993 Y81.359 E0.0569
G1 X61.931 Y81.247 E0.0053
G1 X61.537 Y80.408 E0.0382
G1 X61.099 Y80.338 E0.0183
G1 X60.796 Y80.240 E0.0131
G1 X59.675 Y79.669 E0.0518
G1 X59.417 Y79.482 E0.0131
G1 X58.528 Y78.592 E0.0518
G1 X58.341 Y78.335 E0.0131
G1 X57.770 Y77.214 E0.0518
G1 X57.672 Y76.911 E0.0131
G1 X57.475 Y75.669 E0.0518
G1 X57.475 Y75.351 E0.0131
G1 X57.672 Y74.109 E0.0518
G1 X57.770 Y73.806 E0.0131
G1 X58.341 Y72.685 E0.0518
G1 X58.528 Y72.427 E0.0131
G1 X59.417 Y71.538 E0.0518
G1 X59.675 Y71.351 E0.0131
G1 X60.796 Y70.780 E0.0518
G1 X61.099 Y70.682 E0.0131
G1 X61.346 Y70.642 E0.0103
G1 X61.402 Y70.286 E0.0149
G1 X61.670 Y70.328 E0.0112
G1 X61.932 Y69.773 E0.0253
G1 X61.993 Y69.661 E0.0052
G1 X62.734 Y68.493 E0.0569
G1 X62.809 Y68.390 E0.0053
G1 X63.695 Y67.320 E0.0572
G1 X63.782 Y67.227 E0.0052
G1 X64.791 Y66.281 F3000
G1 X64.889 Y66.200 F3000
G1 X66.009 Y65.388 F3000
G1 X66.116 Y65.320 F3000
G1 X67.335 Y64.650 F3000
G1 X67.463 Y64.591 F3000
G1 X67.604 Y64.538 F3000
G1 X67.650 Y64.244 F3000
G1 X68.111 Y64.214 F9000
G1 X68.187 Y63.978 E0.0102 F1500
G1 X68.726 Y62.921 E0.0488
G1 X68.872 Y62.720 E0.0102
G1 X69.711 Y61.881 E0.0488
G1 X69.911 Y61.736 E0.0102
G1 X70.968 Y61.197 E0.0488
G1 X71.204 Y61.120 E0.0102
G1 X72.376 Y60.935 E0.0488
G1 X72.624 Y60.935 E0.0102
G1 X73.796 Y61.120 E0.0488
G1 X74.032 Y61.197 E0.0102
G1 X75.089 Y61.736 E0.0488
G1 X75.289 Y61.881 E0.0102
G1 X76.128 Y62.720 E0.0488
G1 X76.274 Y62.921 E0.0102
G1 X76.813 Y63.978 E0.0488
G1 X76.889 Y64.214 E0.0102
G1 X76.993 Y64.867 E0.0272
G1 X77.373 Y65.011 E0.0168
G1 X77.474 Y65.058 E0.0046
G1 X78.666 Y65.714 E0.0560
G1 X78.749 Y65.767 E0.0041
G1 X79.845 Y66.564 E0.0558
G1 X79.920 Y66.627 E0.0041
G1 X80.904 Y67.550 E0.0555
G1 X80.972 Y67.622 E0.0041
G1 X81.835 Y68.666 E0.0558
G1 X81.893 Y68.746 E0.0041
G1 X82.619 Y69.890 E0.0558
G1 X82.667 Y69.977 E0.0041
G1 X83.157 Y71.019 E0.0474
G1 X83.796 Y71.120 E0.0266
G1 X84.032 Y71.197 E0.0102
G1 X85.089 Y71.736 E0.0488
G1 X85.289 Y71.881 E0.0102
G1 X86.128 Y72.720 E0.0488
G1 X86.274 Y72.921 E0.0102
G1 X86.813 Y73.978 E0.0488
G1 X86.889 Y74.214 E0.0102
G1 X87.075 Y75.386 E0.0488
G1 X87.075 Y75.634 E0.0102
G1 X86.889 Y76.806 E0.0488
G1 X86.813 Y77.041 E0.0102
G1 X86.274 Y78.099 E0.0488
G1 X86.128 Y78.299 E0.0102
G1 X85.289 Y79.138 E0.0488
G1 X85.089 Y79.284 E0.0102
G1 X84.032 Y79.823 E0.0488
G1 X83.796 Y79.899 E0.0102
G1 X83.157 Y80.000 E0.0266
G1 X82.667 Y81.042 E0.0474
G1 X82.619 Y81.129 E0.0041
G1 X81.893 Y82.274 E0.0558
G1 X81.835 Y82.354 E0.0041
G1 X80.967 Y83.402 E0.0560
G1 X80.899 Y83.474 E0.0041
G1 X79.911 Y84.401 E0.0558
G1 X79.835 Y84.464 E0.0041
G1 X78.738 Y85.260 E0.0558
G1 X78.655 Y85.313 E0.0041
G1 X77.462 Y85.967 E0.0560
G1 X77.362 Y86.013 E0.0045
G1 X76.993 Y86.154 E0.0163
G1 X76.889 Y86.806 E0.0272
G1 X76.813 Y87.042 E0.0102
G1 X76.274 Y88.099 E0.0488
G1 X76.128 Y88.299 E0.0102
G1 X75.289 Y89.138 E0.0488
G1 X75.089 Y89.284 E0.0102
G1 X74.032 Y89.823 E0.0488
G1 X73.796 Y89.899 E0.0102
G1 X72.624 Y90.085 E0.0488
G1 X72.376 Y90.085 E0.0102
G1 X71.204 Y89.899 E0.0488
G1 X70.968 Y89.823 E0.0102
G1 X69.911 Y89.284 E0.0488
G1 X69.711 Y89.138 E0.0102
G1 X68.872 Y88.299 E0.0488
G1 X68.726 Y88.099 E0.0102
G1 X68.187 Y87.042 E0.0488
G1 X68.111 Y86.806 E0.0102
G1 X68.007 Y86.153 E0.0272
G1 X67.627 Y86.008 E0.0168
G1 X67.526 Y85.962 E0.0046
G1 X66.334 Y85.306 E0.0560
G1 X66.251 Y85.253 E0.0041
G1 X65.155 Y84.456 E0.0558
G1 X65.080 Y84.393 E0.0041
G1 X64.096 Y83.470 E0.0555
G1 X64.028 Y83.397 E0.0041
G1 X63.165 Y82.354 E0.0558
G1 X63.107 Y82.273 E0.0041
G1 X62.380 Y81.129 E0.0558
G1 X62.333 Y81.042 E0.0041
G1 X61.843 Y80.000 E0.0474
G1 X61.204 Y79.899 E0.0266
G1 X60.968 Y79.823 E0.0102
G1 X59.911 Y79.284 E0.0488
G1 X59.711 Y79.138 E0.0102
G1 X58.872 Y78.299 E0.0488
G1 X58.726 Y78.099 E0.0102
G1 X58.187 Y77.041 E0.0488
G1 X58.111 Y76.806 E0.0102
G1 X57.925 Y75.634 E0.0488
G1 X57.925 Y75.386 E0.0102
G1 X58.111 Y74.214 E0.0488
G1 X58.187 Y73.978 E0.0102
G1 X58.726 Y72.921 E0.0488
G1 X58.872 Y72.720 E0.0102
G1 X59.711 Y71.881 E0.0488
G1 X59.911 Y71.736 E0.0102
G1 X60.968 Y71.197 E0.0488
G1 X61.204 Y71.120 E0.0102
G1 X61.739 Y71.036 E0.0223
G1 X61.776 Y70.801 E0.0098
G1 X61.934 Y70.826 E0.0066
G1 X62.333 Y69.977 E0.0386
G1 X62.381 Y69.890 E0.0041
G1 X63.107 Y68.746 E0.0558
G1 X63.165 Y68.666 E0.0041
G1 X64.033 Y67.618 E0.0560
G1 X64.101 Y67.546 E0.0041
G1 X65.089 Y66.619 E0.0558
G1 X65.165 Y66.556 E0.0041
G1 X66.261 Y65.760 E0.0558
G1 X66.345 Y65.707 E0.0041
G1 X67.538 Y65.052 E0.0560
G1 X67.638 Y65.006 E0.0045
G1 X68.007 Y64.866 E0.0163
G1 X68.111 Y64.214 E0.0272
G1 X68.187 Y63.978 F3000
G1 X68.726 Y62.921 F3000
G1 X68.872 Y62.720 F3000
G1 X69.711 Y61.881 F3000
G1 X69.911 Y61.736 F3000
G1 X70.968 Y61.197 F3000
G1 X71.204 Y61.120 F3000
G1 X71.647 Y61.050 F3000
G1 X71.310 Y61.559 F9000
G1 X72.411 Y61.385 E0.0459 F1500
G1 X72.589 Y61.385 E0.0073
G1 X73.690 Y61.559 E0.0459
G1 X73.859 Y61.614 E0.0073
G1 X74.853 Y62.121 E0.0459
G1 X74.996 Y62.225 E0.0073
G1 X75.785 Y63.014 E0.0459
G1 X75.889 Y63.157 E0.0073
G1 X76.396 Y64.151 E0.0459
G1 X76.450 Y64.319 E0.0073
G1 X76.589 Y65.195 E0.0365
G1 X77.199 Y65.426 E0.0268
G1 X77.270 Y65.460 E0.0033
G1 X78.436 Y66.101 E0.0548
G1 X78.496 Y66.139 E0.0029
G1 X79.568 Y66.919 E0.0546
G1 X79.623 Y66.964 E0.0029
G1 X80.586 Y67.868 E0.0544
G1 X80.634 Y67.920 E0.0029
G1 X81.480 Y68.942 E0.0546
G1 X81.521 Y68.999 E0.0029
G1 X82.232 Y70.119 E0.0546
