; G-Code generated by Simplify3D(R) Version 4.0.1
; Sep 30, 2018 at 5:18:14 PM
; Settings Summary
;   processName,Process1
;   applyToModels,mc_testmodel3_part1
;   profileName,Cube/Prometheus4x/filaswitch/Duet
;   profileVersion,2018-06-14 20:28:47
;   baseProfile,Default
;   printMaterial,PLA
;   printQuality,Medium
;   printExtruders,All Extruders
;   extruderName,Extruder 1,Extruder 2,Extruder 3,Extruder 4,Support Extruder
;   extruderToolheadNumber,0,1,2,3,5
;   extruderDiameter,0.4,0.4,0.4,0.4,0.4
;   extruderAutoWidth,0,0,0,0,0
;   extruderWidth,0.45,0.45,0.45,0.45,0.45
;   extrusionMultiplier,1,1,1,1,1
;   extruderUseRetract,1,1,1,1,1
;   extruderRetractionDistance,1.6,1.6,1.6,1.6,1.6
;   extruderExtraRestartDistance,0,0,0,0,0
;   extruderRetractionZLift,0.5,0.5,0.5,0.5,0.5
;   extruderRetractionSpeed,2400,2400,2400,2400,2400
;   extruderUseCoasting,0,0,0,0,0
;   extruderCoastingDistance,0.2,0.2,0.2,0.2,0.2
;   extruderUseWipe,1,1,1,1,1
;   extruderWipeDistance,5,5,5,5,5
;   primaryExtruder,0
;   layerHeight,0.2
;   topSolidLayers,5
;   bottomSolidLayers,5
;   perimeterOutlines,2
;   printPerimetersInsideOut,0
;   startPointOption,2
;   startPointOriginX,0
;   startPointOriginY,0
;   sequentialIslands,0
;   spiralVaseMode,0
;   firstLayerHeightPercentage,100
;   firstLayerWidthPercentage,110
;   firstLayerUnderspeed,0.5
;   useRaft,0
;   raftExtruder,0
;   raftTopLayers,3
;   raftBaseLayers,2
;   raftOffset,3
;   raftSeparationDistance,0.14
;   raftTopInfill,100
;   aboveRaftSpeedMultiplier,0.3
;   useSkirt,1
;   skirtExtruder,0
;   skirtLayers,1
;   skirtOutlines,5
;   skirtOffset,0
;   usePrimePillar,0
;   primePillarExtruder,999
;   primePillarWidth,12
;   primePillarLocation,7
;   primePillarSpeedMultiplier,1
;   useOozeShield,0
;   oozeShieldExtruder,999
;   oozeShieldOffset,2
;   oozeShieldOutlines,1
;   oozeShieldSidewallShape,1
;   oozeShieldSidewallAngle,30
;   oozeShieldSpeedMultiplier,1
;   infillExtruder,0
;   internalInfillPattern,Rectilinear
;   externalInfillPattern,Rectilinear
;   infillPercentage,10
;   outlineOverlapPercentage,20
;   infillExtrusionWidthPercentage,105
;   minInfillLength,5
;   infillLayerInterval,1
;   internalInfillAngles,45,-45
;   overlapInternalInfillAngles,0
;   externalInfillAngles,45,-45
;   generateSupport,0
;   supportExtruder,2
;   supportInfillPercentage,30
;   supportExtraInflation,0
;   supportBaseLayers,0
;   denseSupportExtruder,1
;   denseSupportLayers,4
;   denseSupportInfillPercentage,100
;   supportLayerInterval,1
;   supportHorizontalPartOffset,0.3
;   supportUpperSeparationLayers,0
;   supportLowerSeparationLayers,0
;   supportType,0
;   supportGridSpacing,1
;   maxOverhangAngle,45
;   supportAngles,0
;   temperatureName,Extruder 1,Extruder 2,Extruder 3,Extruder 4,Heated Bed
;   temperatureNumber,0,1,2,3,0
;   temperatureSetpointCount,2,2,2,2,1
;   temperatureSetpointLayers,1,2,1,2,1,2,1,2,1
;   temperatureSetpointTemperatures,215,205,215,205,215,205,215,205,60
;   temperatureStabilizeAtStartup,1,1,1,1,1
;   temperatureHeatedBed,0,0,0,0,1
;   temperatureRelayBetweenLayers,0,0,0,0,0
;   temperatureRelayBetweenLoops,0,0,0,0,0
;   fanLayers,1,2
;   fanSpeeds,0,100
;   blipFanToFullPower,0
;   adjustSpeedForCooling,1
;   minSpeedLayerTime,1
;   minCoolingSpeedSlowdown,75
;   increaseFanForCooling,1
;   minFanLayerTime,1
;   maxCoolingFanSpeed,50
;   increaseFanForBridging,1
;   bridgingFanSpeed,50
;   use5D,1
;   relativeEdistances,1
;   allowEaxisZeroing,1
;   independentExtruderAxes,0
;   includeM10123,0
;   stickySupport,1
;   applyToolheadOffsets,0
;   gcodeXoffset,0
;   gcodeYoffset,0
;   gcodeZoffset,0
;   overrideMachineDefinition,1
;   machineTypeOverride,0
;   strokeXoverride,145
;   strokeYoverride,148
;   strokeZoverride,148.1
;   originOffsetXoverride,0
;   originOffsetYoverride,0
;   originOffsetZoverride,0
;   homeXdirOverride,-1
;   homeYdirOverride,-1
;   homeZdirOverride,-1
;   flipXoverride,1
;   flipYoverride,-1
;   flipZoverride,1
;   toolheadOffsets,0,0|0,0|0,0|0,0|0,0|0,0
;   overrideFirmwareConfiguration,1
;   firmwareTypeOverride,RepRap (Marlin/Repetier/Sprinter)
;   GPXconfigOverride,r2
;   baudRateOverride,250000
;   overridePrinterModels,0
;   printerModelsOverride
;   startingGcode,; START SCRIPT START,G90,T0,M80,G92 E0  ; reset extruder position,M80     ; turn on power,M104 S[extruder0_temperature],M140 S[bed0_temperature],M190 S[bed0_temperature],G28                                ;move to endstops,G29                                ;autolevel,M109 S[extruder0_temperature] ,,M572 D0:3 S0.40       ; Duet Pressure Advance,; START SCRIPT END
;   layerChangeGcode,
;   retractionGcode,
;   toolChangeGcode,M204 P2000,; TOOL CHANGE,T[new_tool]
;   endingGcode,; END SCRIPT START,M104 S0                           ;extruder heater off,M140 S0                           ;heated bed heater off (if you have it),G91                                  ;relative positioning,G1 E-3 F300                     ;retract the filament a bit before lifting the nozzle to release some of the pressure,G90                                  ;absolute positioning,M107                                ; turn off fan,G1 Z145 F2500                ; move bed to bottom lest it drops down after motors off,G1 X15 Y145 F6000         ; home X axis,M84                                  ; disable motors,G4  P300000                     ; wait 5min,M81                                 ; turn off ATX,; END SCRIPT END
;   exportFileFormat,gcode
;   celebration,0
;   celebrationSong,Funky Town
;   postProcessing,
;   defaultSpeed,3000
;   outlineUnderspeed,0.4
;   solidInfillUnderspeed,0.8
;   supportUnderspeed,0.8
;   rapidXYspeed,9000
;   rapidZspeed,1800
;   minBridgingArea,25
;   bridgingExtraInflation,0
;   bridgingExtrusionMultiplier,1
;   bridgingSpeedMultiplier,1
;   useFixedBridgingAngle,0
;   fixedBridgingAngle,0
;   applyBridgingToPerimeters,0
;   filamentDiameters,1.75|1.75|1.75|1.75|1.75|1.75
;   filamentPricesPerKg,46|46|46|46|46|46
;   filamentDensities,1.25|1.25|1.25|1.25|1.25|1.25
;   useMinPrintHeight,0
;   minPrintHeight,0
;   useMaxPrintHeight,0
;   maxPrintHeight,0
;   useDiaphragm,0
;   diaphragmLayerInterval,20
;   robustSlicing,1
;   mergeAllIntoSolid,0
;   onlyRetractWhenCrossingOutline,0
;   retractBetweenLayers,1
;   useRetractionMinTravel,1
;   retractionMinTravel,1
;   retractWhileWiping,0
;   onlyWipeOutlines,0
;   avoidCrossingOutline,0
;   maxMovementDetourFactor,3
;   toolChangeRetractionDistance,0
;   toolChangeExtraRestartDistance,0
;   toolChangeRetractionSpeed,4800
;   externalThinWallType,0
;   internalThinWallType,2
;   thinWallAllowedOverlapPercentage,10
;   singleExtrusionMinLength,1
;   singleExtrusionMinPrintingWidthPercentage,50
;   singleExtrusionMaxPrintingWidthPercentage,200
;   singleExtrusionEndpointExtension,0.2
;   horizontalSizeCompensation,0
G90
M83
M106 S0
; START SCRIPT START
G90
T0
M80
G92 E0  ; reset extruder position
M80     ; turn on power
M104 S215
M140 S60
M190 S60
G28                                ;move to endstops
G29                                ;autolevel
M109 S215
M572 D0:3 S0.40       ; Duet Pressure Advance
; PRIME START
T3; change tool
G1 X5.000 Y1.000 F2200; move off print
G1 Z0.2000 F1800; move z close
G91; relative positioning
G1 X33.000 Y0 E10.0000 F1500; prime move
G1 X-33.000 Y0 E120.0000 F550; prime move
G1 X33.000 Y0 E20.0000 F1500; prime move
G1 X-33.000 Y0 E1.5000 F2200; purge trail
G1 X0 Y0.480 F3000; Y shift
G1 X33.000 Y0 E1.5000 F2200; purge trail
G1 X0 Y0.480 F3000; Y shift
G1 X-33.000 Y0 E1.5000 F2200; purge trail
G1 X0 Y0.480 F3000; Y shift
G1 X33.000 Y0 E1.5000 F2200; purge trail
G1 X0 Y0.480 F3000; Y shift
G1 X-33.000 Y0 E1.5000 F2200; purge trail
G1 X0 Y0.480 F3000; Y shift
G1 X33.000 Y0 E1.5000 F2200; purge trail
G1 X0 Y0.480 F3000; Y shift
G1 X-33.000 Y0 E1.5000 F2200; purge trail
G1 X0 Y0.480 F3000; Y shift
G1 E-20.0000 F1500; rapid retract
G1 E-15.0000 F1500; rapid retract
G4 P2000.0; cooling period
G1 E-125.0000 F1500; long retract
G1 E5.0000 F500; preprime finetune
G1 Z0.7000 F1800; z-hop
G90; absolute positioning
M83; relative E
G92 E0; reset extruder
T2; change tool
G1 X39.000 Y1.000 F2200; move off print
G1 Z0.2000 F1800; move z close
G91; relative positioning
G1 X33.000 Y0 E10.0000 F1500; prime move
G1 X-33.000 Y0 E120.0000 F550; prime move
G1 X33.000 Y0 E20.0000 F1500; prime move
G1 X-33.000 Y0 E1.5000 F2200; purge trail
G1 X0 Y0.480 F3000; Y shift
G1 X33.000 Y0 E1.5000 F2200; purge trail
G1 X0 Y0.480 F3000; Y shift
G1 X-33.000 Y0 E1.5000 F2200; purge trail
G1 X0 Y0.480 F3000; Y shift
G1 X33.000 Y0 E1.5000 F2200; purge trail
G1 X0 Y0.480 F3000; Y shift
G1 X-33.000 Y0 E1.5000 F2200; purge trail
G1 X0 Y0.480 F3000; Y shift
G1 X33.000 Y0 E1.5000 F2200; purge trail
G1 X0 Y0.480 F3000; Y shift
G1 X-33.000 Y0 E1.5000 F2200; purge trail
G1 X0 Y0.480 F3000; Y shift
G1 E-20.0000 F1500; rapid retract
G1 E-15.0000 F1500; rapid retract
G4 P2000.0; cooling period
G1 E-125.0000 F1500; long retract
G1 E5.0000 F500; preprime finetune
G1 Z0.7000 F1800; z-hop
G90; absolute positioning
M83; relative E
G92 E0; reset extruder
T1; change tool
G1 X73.000 Y1.000 F2200; move off print
G1 Z0.2000 F1800; move z close
G91; relative positioning
G1 X33.000 Y0 E10.0000 F1500; prime move
G1 X-33.000 Y0 E120.0000 F550; prime move
G1 X33.000 Y0 E20.0000 F1500; prime move
G1 X-33.000 Y0 E1.5000 F2200; purge trail
G1 X0 Y0.480 F3000; Y shift
G1 X33.000 Y0 E1.5000 F2200; purge trail
G1 X0 Y0.480 F3000; Y shift
G1 X-33.000 Y0 E1.5000 F2200; purge trail
G1 X0 Y0.480 F3000; Y shift
G1 X33.000 Y0 E1.5000 F2200; purge trail
G1 X0 Y0.480 F3000; Y shift
G1 X-33.000 Y0 E1.5000 F2200; purge trail
G1 X0 Y0.480 F3000; Y shift
G1 X33.000 Y0 E1.5000 F2200; purge trail
G1 X0 Y0.480 F3000; Y shift
G1 X-33.000 Y0 E1.5000 F2200; purge trail
G1 X0 Y0.480 F3000; Y shift
G1 E-20.0000 F1500; rapid retract
G1 E-15.0000 F1500; rapid retract
G4 P2000.0; cooling period
G1 E-125.0000 F1500; long retract
G1 E5.0000 F500; preprime finetune
G1 Z0.7000 F1800; z-hop
G90; absolute positioning
M83; relative E
G92 E0; reset extruder
T0; change tool
G1 X107.000 Y1.000 F2200; move off print
G1 Z0.2000 F1800; move z close
G91; relative positioning
G1 X33.000 Y0 E10.0000 F1500; prime move
G1 X-33.000 Y0 E120.0000 F550; prime move
G1 X33.000 Y0 E20.0000 F1500; prime move
G1 X-33.000 Y0 E1.5000 F2200; purge trail
G1 X0 Y0.480 F3000; Y shift
G1 X33.000 Y0 E1.5000 F2200; purge trail
G1 X0 Y0.480 F3000; Y shift
G1 X-33.000 Y0 E1.5000 F2200; purge trail
G1 X0 Y0.480 F3000; Y shift
G1 X33.000 Y0 E1.5000 F2200; purge trail
G1 X0 Y0.480 F3000; Y shift
G1 X-33.000 Y0 E1.5000 F2200; purge trail
G1 X0 Y0.480 F3000; Y shift
G1 X33.000 Y0 E1.5000 F2200; purge trail
G1 X0 Y0.480 F3000; Y shift
G1 X-33.000 Y0 E1.5000 F2200; purge trail
G1 X0 Y0.480 F3000; Y shift
G1 Z0.7000 F1800; z-hop
G90; absolute positioning
M83; relative E
G92 E0; reset extruder
;PRIME END
; START SCRIPT END
G1 E-1.6000 F2400
G1 Z0.700 F1800
; process Process1
; layer 1, Z = 0.200
M104 S215 T1
M104 S215 T2
M104 S215 T3
M204 P2000
; TOOL CHANGE
; tool H0.200 W0.495
; skirt
G1 X61.473 Y62.038 F9000
G1 Z0.200 F1800
G1 E1.6000 F720
G1 X81.719 Y62.038 E0.8333 F1500
G1 X82.934 Y61.757 E0.0513
G1 X84.462 Y62.973 E0.0804
G1 X84.462 Y83.219 E0.8333
G1 X84.743 Y84.433 E0.0513
G1 X83.527 Y85.962 E0.0804
G1 X63.281 Y85.962 E0.8333
G1 X62.066 Y86.243 E0.0513
G1 X60.538 Y85.027 E0.0804
G1 X60.538 Y78.566 E0.2659
G1 X60.375 Y78.566 E0.0067
G1 X59.526 Y78.762 E0.0359
G1 X57.997 Y77.545 E0.0804
G1 X57.997 Y71.924 E0.2314
G1 X57.801 Y71.076 E0.0358
G1 X59.017 Y69.547 E0.0804
G1 X60.538 Y69.547 E0.0626
G1 X60.538 Y64.781 E0.1962
G1 X60.257 Y63.566 E0.0513
G1 X61.473 Y62.038 E0.0804
G1 E-1.6000 F2400
G1 X66.473 Y62.038 F3000
G1 Z0.700 F1800
G1 X61.690 Y62.488 F9000
G1 Z0.200 F1800
G1 E1.6000 F2400
G1 X81.771 Y62.488 E0.8265 F1500
G1 X82.823 Y62.245 E0.0445
G1 X84.012 Y63.190 E0.0625
G1 X84.012 Y83.271 E0.8265
G1 X84.255 Y84.323 E0.0445
G1 X83.310 Y85.512 E0.0625
G1 X63.229 Y85.512 E0.8265
G1 X62.177 Y85.755 E0.0445
G1 X60.988 Y84.810 E0.0625
G1 X60.988 Y78.116 E0.2755
G1 X60.323 Y78.116 E0.0273
G1 X59.636 Y78.274 E0.0290
G1 X58.447 Y77.328 E0.0625
G1 X58.447 Y71.873 E0.2245
G1 X58.288 Y71.186 E0.0290
G1 X59.234 Y69.997 E0.0625
G1 X60.988 Y69.997 E0.0722
G1 X60.988 Y64.729 E0.2168
G1 X60.745 Y63.677 E0.0445
G1 X61.690 Y62.488 E0.0625
G1 E-1.6000 F2400
G1 X66.690 Y62.488 F3000
G1 Z0.700 F1800
G1 X61.908 Y62.938 F9000
G1 Z0.200 F1800
G1 E1.6000 F2400
G1 X81.822 Y62.938 E0.8197 F1500
G1 X82.713 Y62.732 E0.0376
G1 X83.562 Y63.408 E0.0447
G1 X83.562 Y83.322 E0.8197
G1 X83.768 Y84.213 E0.0376
G1 X83.092 Y85.062 E0.0447
G1 X63.178 Y85.062 E0.8197
G1 X62.287 Y85.268 E0.0376
G1 X61.438 Y84.592 E0.0447
G1 X61.438 Y77.666 E0.2851
G1 X60.272 Y77.666 E0.0480
G1 X59.746 Y77.787 E0.0222
G1 X58.897 Y77.111 E0.0447
G1 X58.897 Y71.822 E0.2177
G1 X58.776 Y71.296 E0.0222
G1 X59.451 Y70.447 E0.0447
G1 X61.438 Y70.447 E0.0818
G1 X61.438 Y64.678 E0.2374
G1 X61.232 Y63.787 E0.0376
G1 X61.908 Y62.938 E0.0447
G1 E-1.6000 F2400
G1 X66.908 Y62.938 F3000
G1 Z0.700 F1800
G1 X62.125 Y63.388 F9000
G1 Z0.200 F1800
G1 E1.6000 F2400
G1 X81.873 Y63.388 E0.8128 F1500
G1 X82.603 Y63.219 E0.0308
G1 X83.112 Y63.625 E0.0268
G1 X83.112 Y83.373 E0.8128
G1 X83.281 Y84.103 E0.0308
G1 X82.875 Y84.612 E0.0268
G1 X63.127 Y84.612 E0.8128
G1 X62.397 Y84.781 E0.0308
G1 X61.888 Y84.375 E0.0268
G1 X61.888 Y77.216 E0.2947
G1 X60.221 Y77.216 E0.0686
G1 X59.857 Y77.300 E0.0154
G1 X59.347 Y76.894 E0.0268
G1 X59.347 Y71.771 E0.2109
G1 X59.263 Y71.407 E0.0154
G1 X59.668 Y70.897 E0.0268
G1 X61.888 Y70.897 E0.0913
G1 X61.888 Y64.627 E0.2581
G1 X61.719 Y63.897 E0.0308
G1 X62.125 Y63.388 E0.0268
G1 E-1.6000 F2400
G1 X67.125 Y63.388 F3000
G1 Z0.700 F1800
G1 X62.342 Y63.838 F9000
G1 Z0.200 F1800
G1 E1.6000 F2400
G1 X81.925 Y63.838 E0.8060 F1500
G1 X82.492 Y63.707 E0.0240
G1 X82.662 Y63.842 E0.0089
G1 X82.662 Y83.425 E0.8060
G1 X82.793 Y83.992 E0.0240
G1 X82.658 Y84.162 E0.0089
G1 X63.075 Y84.162 E0.8060
G1 X62.508 Y84.293 E0.0240
G1 X62.338 Y84.158 E0.0089
G1 X62.338 Y76.766 E0.3043
G1 X60.169 Y76.766 E0.0892
G1 X59.967 Y76.812 E0.0086
G1 X59.797 Y76.677 E0.0089
G1 X59.797 Y71.719 E0.2041
G1 X59.750 Y71.517 E0.0086
G1 X59.885 Y71.347 E0.0089
G1 X62.338 Y71.347 E0.1009
G1 X62.338 Y64.575 E0.2787
G1 X62.207 Y64.008 E0.0240
G1 X62.342 Y63.838 E0.0089
G1 E-1.6000 F2400
G1 X67.342 Y63.838 F3000
G1 Z0.700 F1800
; outer perimeter
G1 X62.810 Y64.522 F9000
G1 Z0.200 F1800
G1 E1.6000 F2400
G1 X62.761 Y64.310 E0.0089 F600
G1 X81.978 Y64.310 E0.7910
G1 X82.190 Y64.261 E0.0089
G1 X82.190 Y83.478 E0.7910
G1 X82.239 Y83.690 E0.0089
G1 X63.022 Y83.690 E0.7910
G1 X62.810 Y83.739 E0.0089
G1 X62.810 Y76.293 E0.3065
G1 X60.270 Y76.293 E0.1046
G1 X60.270 Y71.819 E0.1841
G1 X62.810 Y71.819 E0.1046
G1 X62.810 Y64.522 E0.3004
G1 E-1.6000 F2400
G1 X62.761 Y64.310 F3000
G1 X67.544 Y64.310 F3000
G1 Z0.700 F1800
; inner perimeter
G1 X63.305 Y64.805 F9000
G1 Z0.200 F1800
G1 E1.6000 F2400
G1 X81.695 Y64.805 E0.7569 F1050
G1 X81.695 Y83.195 E0.7569
G1 X63.305 Y83.195 E0.7569
G1 X63.305 Y75.798 E0.3044
G1 X60.765 Y75.798 E0.1046
G1 X60.765 Y72.314 E0.1434
G1 X63.305 Y72.314 E0.1046
G1 X63.305 Y64.805 E0.3091
G1 E-1.6000 F2400
G1 X68.305 Y64.805 F3000
G1 Z0.700 F1800
; solid layer
G1 X63.701 Y75.702 F9000
G1 Z0.200 F1800
G1 E1.6000 F2400
G1 X70.798 Y82.799 E0.4131 F1200
G1 X70.098 Y82.799 E0.0288
G1 X63.701 Y76.402 E0.3724
G1 X63.701 Y77.102 E0.0288
G1 X69.398 Y82.799 E0.3316
