; generated by Slic3r Prusa Edition 1.41.0+win64 on 2018-09-30 at 21:26:47

; 

; external perimeters extrusion width = 0.45mm
; perimeters extrusion width = 0.45mm
; infill extrusion width = 0.45mm
; solid infill extrusion width = 0.45mm
; top infill extrusion width = 0.40mm
; first layer extrusion width = 0.42mm

; external perimeters extrusion width = 0.45mm
; perimeters extrusion width = 0.45mm
; infill extrusion width = 0.45mm
; solid infill extrusion width = 0.45mm
; top infill extrusion width = 0.40mm
; first layer extrusion width = 0.42mm

; external perimeters extrusion width = 0.45mm
; perimeters extrusion width = 0.45mm
; infill extrusion width = 0.45mm
; solid infill extrusion width = 0.45mm
; top infill extrusion width = 0.40mm
; first layer extrusion width = 0.42mm

; external perimeters extrusion width = 0.45mm
; perimeters extrusion width = 0.45mm
; infill extrusion width = 0.45mm
; solid infill extrusion width = 0.45mm
; top infill extrusion width = 0.40mm
; first layer extrusion width = 0.42mm

M201 X1800 Y1500 Z100 E6500 ; sets maximum accelerations, mm/sec^2
M203 X9000 Y9000 Z1800 E6000 ; sets maximum feedrates, mm/sec
M204 P1500 R1500 T1500 ; sets acceleration (P, T) and retract acceleration (R), mm/sec^2
M205 X10.00 Y10.00 Z0.20 E2.50 ; sets the jerk limits, mm/sec
M205 S0 T0 ; sets the minimum extruding and travel feed rate, mm/sec
M107
; START SCRIPT START
G21
G90
M80
M106 P0 S0  ; part cooling fan speed
M83  ; extruder relative mode
M104 S215 T0; set extruder temp
M104 S215 T1; set extruder temp
M104 S215 T2; set extruder temp
M104 S215 T3; set extruder temp
M140 S60 ;wait for bed temp
M190 S60 ;wait for bed temp
G28  ; home all without mesh bed level
G29 ; autolevel
M116  ; wait all temps
M106 P1 S255  ; hot end fan speed
G1 E3 F300
; START SCRIPT END
M900 K30; Filament gcode
G21 ; set units to millimeters
G90 ; use absolute coordinates
M83 ; use relative distances for extrusion
T0
M900 K30; Filament gcode
; BEFORE_LAYER_CHANGE 0 0.2
G92 E0.0

G1 Z0.200 F10800.000
;AFTER_LAYER_CHANGE
;0.2
G1 E-2.00000 F2700.00000
G1 Z0.800 F10800.000
G1 X60.114 Y61.557
G1 Z0.200
G1 E2.00000 F2700.00000
M204 S1000
G1 F1200
G1 X60.580 Y60.799 E0.02790
G1 X60.957 Y60.450 E0.01610
G1 X61.400 Y60.182 E0.01623
G1 X61.887 Y60.009 E0.01623
G1 X62.399 Y59.936 E0.01623
G1 X82.504 Y59.934 E0.63036
G1 X83.436 Y60.111 E0.02973
G1 X84.242 Y60.617 E0.02985
G1 X84.809 Y61.382 E0.02985
G1 X85.058 Y62.297 E0.02973
G1 X85.065 Y82.575 E0.63582
G1 X84.886 Y83.443 E0.02778
G1 X84.420 Y84.201 E0.02790
G1 X84.027 Y84.561 E0.01672
G1 X83.565 Y84.834 E0.01684
G1 X83.059 Y85.004 E0.01672
G1 X82.525 Y85.065 E0.01684
G1 X62.425 Y85.065 E0.63024
G1 X61.557 Y84.886 E0.02778
G1 X60.799 Y84.420 E0.02790
G1 X60.439 Y84.027 E0.01672
G1 X60.166 Y83.565 E0.01684
G1 X59.996 Y83.059 E0.01672
G1 X59.935 Y82.525 E0.01684
G1 X59.935 Y62.425 E0.63024
G1 X60.102 Y61.616 E0.02590
; PURGING FINISHED
G1 E-2.00000 F2700.00000
G1 Z0.800 F10800.000
G1 X63.087 Y78.059
G1 Z0.200
G1 E2.00000 F2700.00000
G1 F1200
G1 X66.941 Y81.913 E0.17087
G1 X63.087 Y81.913 E0.12082
G1 X63.087 Y78.119 E0.11894
G1 X62.710 Y77.149 F10800.000
G1 F1200
G1 X67.851 Y82.290 E0.22796
G1 X62.710 Y82.290 E0.16119
G1 X62.710 Y77.209 E0.15931
G1 X62.324 Y77.253 F10800.000
G1 E-2.00000 F2700.00000
G1 Z0.800 F10800.000
G1 X78.059 Y81.913
G1 Z0.200
G1 E2.00000 F2700.00000
G1 F1200
G1 X81.913 Y78.059 E0.17087
G1 X81.913 Y81.913 E0.12082
G1 X78.119 Y81.913 E0.11894
G1 X77.149 Y82.290 F10800.000
G1 F1200
G1 X82.290 Y77.149 E0.22796
G1 X82.290 Y82.290 E0.16119
G1 X77.209 Y82.290 E0.15931
G1 X77.253 Y82.676 F10800.000
G1 E-2.00000 F2700.00000
G1 Z0.800 F10800.000
G1 X81.913 Y66.941
G1 Z0.200
G1 E2.00000 F2700.00000
G1 F1200
G1 X78.059 Y63.087 E0.17087
G1 X81.913 Y63.087 E0.12082
G1 X81.913 Y66.881 E0.11894
G1 X82.290 Y67.851 F10800.000
G1 F1200
G1 X77.149 Y62.710 E0.22796
G1 X82.290 Y62.710 E0.16119
G1 X82.290 Y67.791 E0.15931
G1 X82.676 Y67.747 F10800.000
G1 E-2.00000 F2700.00000
G1 Z0.800 F10800.000
G1 X66.941 Y63.087
G1 Z0.200
G1 E2.00000 F2700.00000
G1 F1200
G1 X63.087 Y66.941 E0.17087
G1 X63.087 Y63.087 E0.12082
G1 X66.881 Y63.087 E0.11894
G1 X67.851 Y62.710 F10800.000
G1 F1200
G1 X62.710 Y67.851 E0.22796
G1 X62.710 Y62.710 E0.16119
G1 X67.791 Y62.710 E0.15931
G1 X67.747 Y62.324 F10800.000
G1 X66.292 Y63.576
G1 F1200
G1 X66.086 Y63.370 E0.00929
G1 X65.543 Y63.370 E0.01736
G1 X65.900 Y63.727 E0.01614
G1 X65.629 Y63.999 E0.01227
G1 X65.000 Y63.370 E0.02842
G1 X64.456 Y63.370 E0.01736
G1 X65.357 Y64.271 E0.04069
G1 X65.085 Y64.542 E0.01227
G1 X63.913 Y63.370 E0.05296
G1 X63.370 Y63.370 E0.01735
G1 X64.814 Y64.814 E0.06524
G1 X64.542 Y65.086 E0.01227
G1 X63.370 Y63.913 E0.05296
G1 X63.370 Y64.457 E0.01736
G1 X64.270 Y65.357 E0.04069
G1 X63.999 Y65.629 E0.01227
G1 X63.370 Y65.000 E0.02841
G1 X63.370 Y65.543 E0.01736
G1 X63.727 Y65.901 E0.01614
G1 X63.455 Y66.172 E0.01227
G1 X63.200 Y65.917 E0.01153
G1 E-2.00000 F2700.00000
G1 Z0.800 F10800.000
G1 X63.200 Y80.955
G1 Z0.200
G1 E2.00000 F2700.00000
G1 F1200
G1 X63.876 Y81.630 E0.03306
G1 X64.464 Y81.630 E0.02037
G1 X63.370 Y80.536 E0.05356
G1 X63.370 Y79.947 E0.02037
G1 X65.053 Y81.630 E0.08237
G1 X65.641 Y81.630 E0.02037
G1 X63.370 Y79.359 E0.11118
G1 X63.370 Y78.770 E0.02037
G1 X66.400 Y81.800 E0.14829
G1 E-2.00000 F2700.00000
G1 Z0.800 F10800.000
G1 X78.708 Y81.425
G1 Z0.200
G1 E2.00000 F2700.00000
G1 F1200
G1 X78.913 Y81.630 E0.00929
G1 X79.457 Y81.630 E0.01736
G1 X79.099 Y81.273 E0.01614
G1 X79.371 Y81.001 E0.01227
G1 X80.000 Y81.630 E0.02841
G1 X80.543 Y81.630 E0.01736
G1 X79.643 Y80.730 E0.04069
G1 X79.914 Y80.458 E0.01227
G1 X81.087 Y81.630 E0.05296
G1 X81.630 Y81.630 E0.01736
G1 X80.186 Y80.186 E0.06524
G1 X80.458 Y79.915 E0.01227
G1 X81.630 Y81.087 E0.05296
G1 X81.630 Y80.544 E0.01736
G1 X80.729 Y79.643 E0.04069
G1 X81.001 Y79.371 E0.01227
G1 X81.630 Y80.000 E0.02842
G1 X81.630 Y79.457 E0.01736
G1 X81.273 Y79.100 E0.01614
G1 X81.544 Y78.828 E0.01227
G1 X81.800 Y79.083 E0.01154
G1 E-2.00000 F2700.00000
G1 Z0.800 F10800.000
G1 X81.800 Y64.045
G1 Z0.200
G1 E2.00000 F2700.00000
G1 F1200
G1 X81.124 Y63.370 E0.03307
G1 X80.536 Y63.370 E0.02037
G1 X81.630 Y64.464 E0.05357
G1 X81.630 Y65.053 E0.02037
G1 X79.947 Y63.370 E0.08238
G1 X79.358 Y63.370 E0.02037
G1 X81.630 Y65.642 E0.11119
G1 X81.630 Y66.230 E0.02037
G1 X78.600 Y63.200 E0.14830
G1 Z0.800 F10800.000
; Filament-specific end gcode
; TOOL CHANGE
T2
M900 K30; Filament gcode
; PURGING FINISHED
G1 X76.399 Y63.087
G1 Z0.200
G1 F1200
G1 X81.913 Y68.601 E0.24450
G1 X81.913 Y76.399 E0.24450
G1 X76.399 Y81.913 E0.24450
G1 X68.601 Y81.913 E0.24450
G1 X63.087 Y76.399 E0.24450
G1 X63.087 Y68.601 E0.24450
G1 X68.601 Y63.087 E0.24450
G1 X76.339 Y63.087 E0.24262
G1 X76.555 Y62.710 F10800.000
G1 F1200
G1 X82.290 Y68.445 E0.25429
G1 X82.290 Y76.555 E0.25429
G1 X76.555 Y82.290 E0.25429
G1 X68.445 Y82.290 E0.25429
G1 X62.710 Y76.555 E0.25429
G1 X62.710 Y68.445 E0.25429
G1 X68.445 Y62.710 E0.25429
G1 X76.495 Y62.710 E0.25241
G1 X76.607 Y63.107 F10800.000
G1 E-2.00000 F2700.00000
G1 Z0.800 F10800.000
G1 X81.800 Y68.890
G1 Z0.200
G1 E2.00000 F2700.00000
G1 F1200
G1 X76.279 Y63.370 E0.24691
G1 X75.742 Y63.370 E0.01701
G1 X81.630 Y69.258 E0.26338
G1 X81.630 Y69.796 E0.01701
G1 X75.204 Y63.370 E0.28744
G1 X74.666 Y63.370 E0.01701
G1 X81.630 Y70.334 E0.31149
G1 X81.630 Y70.872 E0.01701
G1 X74.128 Y63.370 E0.33555
G1 X73.590 Y63.370 E0.01701
G1 X81.630 Y71.410 E0.35961
G1 X81.630 Y71.948 E0.01701
G1 X73.052 Y63.370 E0.38367
G1 X72.514 Y63.370 E0.01701
G1 X81.630 Y72.486 E0.40773
G1 X81.630 Y73.024 E0.01701
G1 X71.976 Y63.370 E0.43179
G1 X71.438 Y63.370 E0.01701
G1 X81.630 Y73.562 E0.45585
G1 X81.630 Y74.100 E0.01701
G1 X70.900 Y63.370 E0.47990
G1 X70.363 Y63.370 E0.01701
G1 X81.630 Y74.637 E0.50396
G1 X81.630 Y75.175 E0.01701
G1 X69.825 Y63.370 E0.52802
G1 X69.287 Y63.370 E0.01701
G1 X81.630 Y75.713 E0.55208
G1 X81.630 Y76.251 E0.01701
G1 X68.749 Y63.370 E0.57614
G1 X68.718 Y63.370 E0.00097
G1 X68.465 Y63.623 E0.01134
G1 X81.376 Y76.535 E0.57751
G1 X81.108 Y76.804 E0.01203
G1 X68.196 Y63.892 E0.57751
G1 X67.927 Y64.161 E0.01203
G1 X80.839 Y77.073 E0.57751
G1 X80.570 Y77.342 E0.01203
G1 X67.658 Y64.430 E0.57751
G1 X67.389 Y64.699 E0.01203
G1 X80.301 Y77.611 E0.57751
G1 X80.032 Y77.880 E0.01203
G1 X67.120 Y64.968 E0.57751
G1 X66.851 Y65.237 E0.01203
G1 X79.763 Y78.149 E0.57751
G1 X79.494 Y78.418 E0.01203
G1 X66.582 Y65.506 E0.57751
G1 X66.313 Y65.775 E0.01203
G1 X79.225 Y78.687 E0.57751
G1 X78.956 Y78.956 E0.01203
G1 X66.044 Y66.044 E0.57751
G1 X65.775 Y66.313 E0.01203
G1 X78.687 Y79.225 E0.57751
G1 X78.418 Y79.494 E0.01203
G1 X65.506 Y66.582 E0.57751
G1 X65.237 Y66.851 E0.01203
G1 X78.149 Y79.763 E0.57751
G1 X77.880 Y80.032 E0.01203
G1 X64.968 Y67.120 E0.57751
G1 X64.699 Y67.389 E0.01203
G1 X77.611 Y80.301 E0.57751
G1 X77.342 Y80.570 E0.01203
G1 X64.430 Y67.658 E0.57751
G1 X64.161 Y67.927 E0.01203
G1 X77.073 Y80.839 E0.57751
G1 X76.804 Y81.108 E0.01203
G1 X63.892 Y68.196 E0.57751
G1 X63.623 Y68.465 E0.01203
G1 X76.535 Y81.377 E0.57751
G1 X76.282 Y81.630 E0.01134
G1 X76.251 Y81.630 E0.00097
G1 X63.370 Y68.749 E0.57613
G1 X63.370 Y69.287 E0.01701
G1 X75.713 Y81.630 E0.55207
G1 X75.175 Y81.630 E0.01701
G1 X63.370 Y69.825 E0.52802
G1 X63.370 Y70.363 E0.01701
G1 X74.637 Y81.630 E0.50396
G1 X74.099 Y81.630 E0.01701
G1 X63.370 Y70.901 E0.47990
G1 X63.370 Y71.438 E0.01701
G1 X73.562 Y81.630 E0.45584
G1 X73.024 Y81.630 E0.01701
G1 X63.370 Y71.976 E0.43178
G1 X63.370 Y72.514 E0.01701
G1 X72.486 Y81.630 E0.40772
G1 X71.948 Y81.630 E0.01701
G1 X63.370 Y73.052 E0.38366
G1 X63.370 Y73.590 E0.01701
G1 X71.410 Y81.630 E0.35961
G1 X70.872 Y81.630 E0.01701
G1 X63.370 Y74.128 E0.33555
G1 X63.370 Y74.666 E0.01701
G1 X70.334 Y81.630 E0.31149
G1 X69.796 Y81.630 E0.01701
G1 X63.370 Y75.204 E0.28743
G1 X63.370 Y75.742 E0.01701
G1 X69.258 Y81.630 E0.26337
G1 X68.720 Y81.630 E0.01701
G1 X63.200 Y76.110 E0.24690
M106 S255
; BEFORE_LAYER_CHANGE 1 0.4
G92 E0.0

G1 Z0.400 F10800.000
;AFTER_LAYER_CHANGE
;0.4
M104 S210 ; set temperature
G1 E-2.00000 F2700.00000
G1 Z1.000 F10800.000
G1 X61.557 Y84.886
G1 Z0.400
G1 E2.00000 F2700.00000
G1 F3000
G1 X60.799 Y84.420 E0.02790
G1 X60.439 Y84.027 E0.01672
G1 X60.166 Y83.565 E0.01684
G1 X59.996 Y83.059 E0.01672
G1 X59.935 Y82.525 E0.01684
G1 X59.935 Y62.425 E0.63024
G1 X60.114 Y61.557 E0.02778
G1 X60.580 Y60.799 E0.02790
G1 X60.957 Y60.450 E0.01610
G1 X61.400 Y60.182 E0.01623
G1 X61.887 Y60.009 E0.01623
G1 X62.399 Y59.936 E0.01623
G1 X82.504 Y59.934 E0.63036
G1 X83.436 Y60.111 E0.02973
G1 X84.242 Y60.617 E0.02985
G1 X84.809 Y61.382 E0.02985
G1 X85.058 Y62.297 E0.02973
G1 X85.065 Y82.575 E0.63582
G1 X84.886 Y83.443 E0.02778
G1 X84.420 Y84.201 E0.02790
G1 X84.027 Y84.561 E0.01672
G1 X83.565 Y84.834 E0.01684
G1 X83.059 Y85.004 E0.01672
G1 X82.525 Y85.065 E0.01684
G1 X62.425 Y85.065 E0.63024
G1 X61.616 Y84.898 E0.02590
; PURGING FINISHED
G1 E-2.00000 F2700.00000
G1 Z1.000 F10800.000
G1 X68.620 Y81.868
G1 Z0.400
G1 E2.00000 F2700.00000
M204 S800
G1 F3000
G1 X63.132 Y76.380 E0.26269
G1 X63.132 Y68.620 E0.26269
G1 X68.620 Y63.132 E0.26269
G1 X76.380 Y63.132 E0.26269
G1 X81.868 Y68.620 E0.26269
G1 X81.868 Y76.380 E0.26269
G1 X76.380 Y81.868 E0.26269
G1 X68.680 Y81.868 E0.26066
M204 S1000
G1 X68.451 Y82.275 F10800.000
M204 S800
G1 F2400
G1 X62.725 Y76.549 E0.27410
G1 X62.725 Y68.451 E0.27410
G1 X68.451 Y62.725 E0.27410
G1 X76.549 Y62.725 E0.27410
G1 X82.275 Y68.451 E0.27410
G1 X82.275 Y76.549 E0.27410
G1 X76.549 Y82.275 E0.27411
G1 X68.511 Y82.275 E0.27207
M204 S1000
G1 X68.399 Y81.878 F10800.000
G1 E-2.00000 F2700.00000
G1 Z1.000 F10800.000
G1 X76.067 Y81.746
G1 Z0.400
G1 E2.00000 F2700.00000
G1 F3000
G1 X81.563 Y76.250 E0.26613
G1 X81.563 Y75.668 E0.01994
G1 X75.668 Y81.563 E0.28546
G1 X75.086 Y81.563 E0.01994
G1 X81.563 Y75.086 E0.31367
G1 X81.563 Y74.503 E0.01994
G1 X74.503 Y81.563 E0.34187
G1 X73.921 Y81.563 E0.01994
G1 X81.563 Y73.921 E0.37008
G1 X81.563 Y73.338 E0.01994
G1 X73.338 Y81.563 E0.39828
G1 X72.756 Y81.563 E0.01994
G1 X81.563 Y72.756 E0.42649
G1 X81.563 Y72.174 E0.01994
G1 X72.174 Y81.563 E0.45469
G1 X71.591 Y81.563 E0.01994
G1 X81.563 Y71.591 E0.48290
G1 X81.563 Y71.009 E0.01994
G1 X71.009 Y81.563 E0.51110
G1 X70.426 Y81.563 E0.01994
G1 X81.563 Y70.426 E0.53931
G1 X81.563 Y69.844 E0.01994
G1 X69.844 Y81.563 E0.56751
G1 X69.261 Y81.563 E0.01994
G1 X81.563 Y69.261 E0.59572
G1 X81.563 Y68.746 E0.01765
G1 X81.529 Y68.713 E0.00162
G1 X68.713 Y81.529 E0.62067
G1 X68.421 Y81.238 E0.01410
G1 X81.238 Y68.421 E0.62067
G1 X80.947 Y68.130 E0.01410
G1 X68.130 Y80.947 E0.62067
G1 X67.839 Y80.655 E0.01410
G1 X80.655 Y67.839 E0.62067
G1 X80.364 Y67.548 E0.01410
G1 X67.548 Y80.364 E0.62067
G1 X67.257 Y80.073 E0.01410
G1 X80.073 Y67.257 E0.62067
G1 X79.782 Y66.965 E0.01410
G1 X66.965 Y79.782 E0.62067
G1 X66.674 Y79.491 E0.01410
G1 X79.491 Y66.674 E0.62067
G1 X79.199 Y66.383 E0.01410
G1 X66.383 Y79.199 E0.62067
G1 X66.092 Y78.908 E0.01410
G1 X78.908 Y66.092 E0.62067
G1 X78.617 Y65.801 E0.01410
G1 X65.801 Y78.617 E0.62067
G1 X65.509 Y78.326 E0.01410
G1 X78.326 Y65.509 E0.62067
G1 X78.035 Y65.218 E0.01410
G1 X65.218 Y78.035 E0.62067
G1 X64.927 Y77.743 E0.01410
G1 X77.743 Y64.927 E0.62067
G1 X77.452 Y64.636 E0.01410
G1 X64.636 Y77.452 E0.62067
G1 X64.345 Y77.161 E0.01410
G1 X77.161 Y64.345 E0.62067
G1 X76.870 Y64.053 E0.01410
G1 X64.053 Y76.870 E0.62067
G1 X63.762 Y76.579 E0.01410
G1 X76.579 Y63.762 E0.62067
G1 X76.287 Y63.471 E0.01410
G1 X63.471 Y76.287 E0.62067
G1 X63.437 Y76.254 E0.00162
G1 X63.437 Y75.738 E0.01765
G1 X75.738 Y63.437 E0.59571
G1 X75.156 Y63.437 E0.01994
G1 X63.437 Y75.156 E0.56751
G1 X63.437 Y74.574 E0.01994
G1 X74.574 Y63.437 E0.53930
G1 X73.991 Y63.437 E0.01994
G1 X63.437 Y73.991 E0.51110
G1 X63.437 Y73.409 E0.01994
G1 X73.409 Y63.437 E0.48289
G1 X72.826 Y63.437 E0.01994
G1 X63.437 Y72.826 E0.45469
G1 X63.437 Y72.244 E0.01994
G1 X72.244 Y63.437 E0.42648
G1 X71.662 Y63.437 E0.01994
G1 X63.437 Y71.662 E0.39828
G1 X63.437 Y71.079 E0.01994
G1 X71.079 Y63.437 E0.37007
G1 X70.497 Y63.437 E0.01994
G1 X63.437 Y70.497 E0.34187
G1 X63.437 Y69.914 E0.01994
G1 X69.914 Y63.437 E0.31366
G1 X69.332 Y63.437 E0.01994
G1 X63.437 Y69.332 E0.28546
G1 X63.437 Y68.749 E0.01994
G1 X68.933 Y63.254 E0.26613
G1 Z1.000 F10800.000
; Filament-specific end gcode
; TOOL CHANGE
T0
M900 K30; Filament gcode
; PURGING FINISHED
G1 E-2.00000 F2700.00000
G1 X63.132 Y78.168 F10800.000
G1 Z0.400
G1 E2.00000 F2700.00000
M204 S800
G1 F1500
G1 X66.832 Y81.868 E0.17711
G1 X63.132 Y81.868 E0.12523
G1 X63.132 Y78.228 E0.12320
M204 S1000
G1 X62.725 Y77.185 F10800.000
M204 S800
G1 F1500
G1 X67.815 Y82.275 E0.24364
G1 X62.725 Y82.275 E0.17228
G1 X62.725 Y77.245 E0.17025
M204 S1000
G1 X62.339 Y77.289 F10800.000
G1 E-2.00000 F2700.00000
G1 Z1.000 F10800.000
G1 X78.168 Y81.868
G1 Z0.400
G1 E2.00000 F2700.00000
M204 S800
G1 F1500
G1 X81.868 Y78.168 E0.17711
G1 X81.868 Y81.868 E0.12524
G1 X78.228 Y81.868 E0.12320
M204 S1000
G1 X77.185 Y82.275 F10800.000
M204 S800
G1 F1500
G1 X82.275 Y77.185 E0.24364
G1 X82.275 Y82.275 E0.17228
G1 X77.245 Y82.275 E0.17025
M204 S1000
G1 X77.289 Y82.661 F10800.000
G1 E-2.00000 F2700.00000
G1 Z1.000 F10800.000
G1 X81.868 Y66.832
G1 Z0.400
G1 E2.00000 F2700.00000
M204 S800
G1 F1500
G1 X78.168 Y63.132 E0.17711
G1 X81.868 Y63.132 E0.12524
G1 X81.868 Y66.772 E0.12320
M204 S1000
G1 X82.275 Y67.815 F10800.000
M204 S800
G1 F1500
G1 X77.185 Y62.725 E0.24364
G1 X82.275 Y62.725 E0.17228
G1 X82.275 Y67.755 E0.17025
M204 S1000
G1 X82.661 Y67.711 F10800.000
G1 E-2.00000 F2700.00000
G1 Z1.000 F10800.000
G1 X66.832 Y63.132
G1 Z0.400
G1 E2.00000 F2700.00000
M204 S800
G1 F1500
G1 X63.132 Y66.832 E0.17711
G1 X63.132 Y63.132 E0.12523
G1 X66.772 Y63.132 E0.12320
M204 S1000
G1 X67.815 Y62.725 F10800.000
M204 S800
G1 F1500
G1 X62.725 Y67.815 E0.24364
G1 X62.725 Y62.725 E0.17228
G1 X67.755 Y62.725 E0.17025
M204 S1000
G1 X67.711 Y62.339 F10800.000
G1 E-2.00000 F2700.00000
G1 Z1.000 F10800.000
G1 X63.254 Y64.219
G1 Z0.400
G1 E2.00000 F2700.00000
G1 F3000
G1 X64.036 Y63.437 E0.04358
G1 X64.706 Y63.437 E0.02643
