; G-Code generated by Simplify3D(R) Version 4.0.1
; Sep 30, 2018 at 5:59:20 PM
; Settings Summary
;   processName,Process1
;   applyToModels,mc_testmodel4_part1
;   profileName,Cube/Prometheus4x/filaswitch/Duet
;   profileVersion,2018-06-14 20:28:47
;   baseProfile,Default
;   printMaterial,PLA
;   printQuality,Medium
;   printExtruders,All Extruders
;   extruderName,Extruder 1,Extruder 2,Extruder 3,Extruder 4,Support Extruder
;   extruderToolheadNumber,0,1,2,3,5
;   extruderDiameter,0.4,0.4,0.4,0.4,0.4
;   extruderAutoWidth,0,0,0,0,0
;   extruderWidth,0.45,0.45,0.45,0.45,0.45
;   extrusionMultiplier,1,1,1,1,1
;   extruderUseRetract,1,1,1,1,1
;   extruderRetractionDistance,1.6,1.6,1.6,1.6,1.6
;   extruderExtraRestartDistance,0,0,0,0,0
;   extruderRetractionZLift,0.5,0.5,0.5,0.5,0.5
;   extruderRetractionSpeed,2400,2400,2400,2400,2400
;   extruderUseCoasting,0,0,0,0,0
;   extruderCoastingDistance,0.2,0.2,0.2,0.2,0.2
;   extruderUseWipe,1,1,1,1,1
;   extruderWipeDistance,5,5,5,5,5
;   primaryExtruder,0
;   layerHeight,0.2
;   topSolidLayers,5
;   bottomSolidLayers,5
;   perimeterOutlines,2
;   printPerimetersInsideOut,0
;   startPointOption,2
;   startPointOriginX,0
;   startPointOriginY,0
;   sequentialIslands,0
;   spiralVaseMode,0
;   firstLayerHeightPercentage,100
;   firstLayerWidthPercentage,110
;   firstLayerUnderspeed,0.5
;   useRaft,0
;   raftExtruder,0
;   raftTopLayers,3
;   raftBaseLayers,2
;   raftOffset,3
;   raftSeparationDistance,0.14
;   raftTopInfill,100
;   aboveRaftSpeedMultiplier,0.3
;   useSkirt,1
;   skirtExtruder,0
;   skirtLayers,1
;   skirtOutlines,5
;   skirtOffset,0
;   usePrimePillar,0
;   primePillarExtruder,999
;   primePillarWidth,12
;   primePillarLocation,7
;   primePillarSpeedMultiplier,1
;   useOozeShield,0
;   oozeShieldExtruder,999
;   oozeShieldOffset,2
;   oozeShieldOutlines,1
;   oozeShieldSidewallShape,1
;   oozeShieldSidewallAngle,30
;   oozeShieldSpeedMultiplier,1
;   infillExtruder,0
;   internalInfillPattern,Rectilinear
;   externalInfillPattern,Rectilinear
;   infillPercentage,10
;   outlineOverlapPercentage,20
;   infillExtrusionWidthPercentage,105
;   minInfillLength,5
;   infillLayerInterval,1
;   internalInfillAngles,45,-45
;   overlapInternalInfillAngles,0
;   externalInfillAngles,45,-45
;   generateSupport,0
;   supportExtruder,2
;   supportInfillPercentage,30
;   supportExtraInflation,0
;   supportBaseLayers,0
;   denseSupportExtruder,1
;   denseSupportLayers,4
;   denseSupportInfillPercentage,100
;   supportLayerInterval,1
;   supportHorizontalPartOffset,0.3
;   supportUpperSeparationLayers,0
;   supportLowerSeparationLayers,0
;   supportType,0
;   supportGridSpacing,1
;   maxOverhangAngle,45
;   supportAngles,0
;   temperatureName,Extruder 1,Extruder 2,Extruder 3,Extruder 4,Heated Bed
;   temperatureNumber,0,1,2,3,0
;   temperatureSetpointCount,2,2,2,2,1
;   temperatureSetpointLayers,1,2,1,2,1,2,1,2,1
;   temperatureSetpointTemperatures,215,205,215,205,215,205,215,205,60
;   temperatureStabilizeAtStartup,1,1,1,1,1
;   temperatureHeatedBed,0,0,0,0,1
;   temperatureRelayBetweenLayers,0,0,0,0,0
;   temperatureRelayBetweenLoops,0,0,0,0,0
;   fanLayers,1,2
;   fanSpeeds,0,100
;   blipFanToFullPower,0
;   adjustSpeedForCooling,1
;   minSpeedLayerTime,1
;   minCoolingSpeedSlowdown,75
;   increaseFanForCooling,1
;   minFanLayerTime,1
;   maxCoolingFanSpeed,50
;   increaseFanForBridging,1
;   bridgingFanSpeed,50
;   use5D,1
;   relativeEdistances,1
;   allowEaxisZeroing,1
;   independentExtruderAxes,0
;   includeM10123,0
;   stickySupport,1
;   applyToolheadOffsets,0
;   gcodeXoffset,0
;   gcodeYoffset,0
;   gcodeZoffset,0
;   overrideMachineDefinition,1
;   machineTypeOverride,0
;   strokeXoverride,145
;   strokeYoverride,148
;   strokeZoverride,148.1
;   originOffsetXoverride,0
;   originOffsetYoverride,0
;   originOffsetZoverride,0
;   homeXdirOverride,-1
;   homeYdirOverride,-1
;   homeZdirOverride,-1
;   flipXoverride,1
;   flipYoverride,-1
;   flipZoverride,1
;   toolheadOffsets,0,0|0,0|0,0|0,0|0,0|0,0
;   overrideFirmwareConfiguration,1
;   firmwareTypeOverride,RepRap (Marlin/Repetier/Sprinter)
;   GPXconfigOverride,r2
;   baudRateOverride,250000
;   overridePrinterModels,0
;   printerModelsOverride
;   startingGcode,; START SCRIPT START,G90,T0,M80,G92 E0  ; reset extruder position,M80     ; turn on power,M104 S[extruder0_temperature],M140 S[bed0_temperature],M190 S[bed0_temperature],G28                                ;move to endstops,G29                                ;autolevel,M109 S[extruder0_temperature] ,,M572 D0:3 S0.40       ; Duet Pressure Advance,; START SCRIPT END
;   layerChangeGcode,
;   retractionGcode,
;   toolChangeGcode,M204 P2000,; TOOL CHANGE,T[new_tool]
;   endingGcode,; END SCRIPT START,M104 S0                           ;extruder heater off,M140 S0                           ;heated bed heater off (if you have it),G91                                  ;relative positioning,G1 E-3 F300                     ;retract the filament a bit before lifting the nozzle to release some of the pressure,G90                                  ;absolute positioning,M107                                ; turn off fan,G1 Z145 F2500                ; move bed to bottom lest it drops down after motors off,G1 X15 Y145 F6000         ; home X axis,M84                                  ; disable motors,G4  P300000                     ; wait 5min,M81                                 ; turn off ATX,; END SCRIPT END
;   exportFileFormat,gcode
;   celebration,0
;   celebrationSong,Funky Town
;   postProcessing,
;   defaultSpeed,3000
;   outlineUnderspeed,0.4
;   solidInfillUnderspeed,0.8
;   supportUnderspeed,0.8
;   rapidXYspeed,9000
;   rapidZspeed,1800
;   minBridgingArea,25
;   bridgingExtraInflation,0
;   bridgingExtrusionMultiplier,1
;   bridgingSpeedMultiplier,1
;   useFixedBridgingAngle,0
;   fixedBridgingAngle,0
;   applyBridgingToPerimeters,0
;   filamentDiameters,1.75|1.75|1.75|1.75|1.75|1.75
;   filamentPricesPerKg,46|46|46|46|46|46
;   filamentDensities,1.25|1.25|1.25|1.25|1.25|1.25
;   useMinPrintHeight,0
;   minPrintHeight,0
;   useMaxPrintHeight,0
;   maxPrintHeight,0
;   useDiaphragm,0
;   diaphragmLayerInterval,20
;   robustSlicing,1
;   mergeAllIntoSolid,0
;   onlyRetractWhenCrossingOutline,0
;   retractBetweenLayers,1
;   useRetractionMinTravel,1
;   retractionMinTravel,1
;   retractWhileWiping,0
;   onlyWipeOutlines,0
;   avoidCrossingOutline,0
;   maxMovementDetourFactor,3
;   toolChangeRetractionDistance,0
;   toolChangeExtraRestartDistance,0
;   toolChangeRetractionSpeed,4800
;   externalThinWallType,0
;   internalThinWallType,2
;   thinWallAllowedOverlapPercentage,10
;   singleExtrusionMinLength,1
;   singleExtrusionMinPrintingWidthPercentage,50
;   singleExtrusionMaxPrintingWidthPercentage,200
;   singleExtrusionEndpointExtension,0.2
;   horizontalSizeCompensation,0
G90
M83
M106 S0
; START SCRIPT START
G90
T0
M80
G92 E0  ; reset extruder position
M80     ; turn on power
M104 S215
M140 S60
M190 S60
G28                                ;move to endstops
G29                                ;autolevel
M109 S215 
M572 D0:3 S0.40       ; Duet Pressure Advance
; START SCRIPT END
G1 E-1.6000 F2400
G1 Z0.700 F1800
; process Process1
; layer 1, Z = 0.200
M104 S215 T1
M104 S215 T2
M104 S215 T3
M204 P2000
; TOOL CHANGE
T0
; tool H0.200 W0.495
; skirt
G1 X58.518 Y68.187 F9000
G1 Z0.200 F1800
G1 E1.6000 F720
G1 X59.457 Y67.645 E0.0447 F1500
G1 X63.831 Y67.645 E0.1800
G1 X66.018 Y63.857 E0.1800
G1 X66.957 Y63.315 E0.0447
G1 X78.043 Y63.315 E0.4563
G1 X78.982 Y63.857 E0.0447
G1 X81.169 Y67.645 E0.1800
G1 X85.543 Y67.645 E0.1800
G1 X86.482 Y68.187 E0.0447
G1 X89.525 Y73.457 E0.2505
G1 X89.525 Y74.543 E0.0447
G1 X86.482 Y79.813 E0.2505
G1 X85.543 Y80.355 E0.0447
G1 X81.169 Y80.355 E0.1800
G1 X78.982 Y84.143 E0.1800
G1 X78.043 Y84.685 E0.0447
G1 X66.957 Y84.685 E0.4563
G1 X66.018 Y84.143 E0.0447
G1 X63.831 Y80.355 E0.1800
G1 X59.457 Y80.355 E0.1800
G1 X58.518 Y79.813 E0.0447
G1 X55.475 Y74.543 E0.2505
G1 X55.475 Y73.457 E0.0447
G1 X58.518 Y68.187 E0.2505
G1 X59.457 Y67.645 F3000
G1 X63.372 Y67.645 F3000
G1 X64.091 Y68.095 F9000
G1 X66.347 Y64.187 E0.1857 F1500
G1 X67.078 Y63.765 E0.0347
G1 X77.922 Y63.765 E0.4463
G1 X78.653 Y64.187 E0.0347
G1 X80.909 Y68.095 E0.1857
G1 X85.422 Y68.095 E0.1857
G1 X86.153 Y68.517 E0.0347
G1 X89.075 Y73.578 E0.2405
G1 X89.075 Y74.422 E0.0347
G1 X86.153 Y79.483 E0.2405
G1 X85.422 Y79.905 E0.0347
G1 X80.909 Y79.905 E0.1857
G1 X78.653 Y83.813 E0.1857
G1 X77.922 Y84.235 E0.0347
G1 X67.078 Y84.235 E0.4463
G1 X66.347 Y83.813 E0.0347
G1 X64.091 Y79.905 E0.1857
G1 X59.578 Y79.905 E0.1857
G1 X58.847 Y79.483 E0.0347
G1 X55.925 Y74.422 E0.2405
G1 X55.925 Y73.578 E0.0347
G1 X58.847 Y68.517 E0.2405
G1 X59.578 Y68.095 E0.0347
G1 X64.091 Y68.095 E0.1857
G1 X66.347 Y64.187 F3000
G1 X66.769 Y63.943 F3000
G1 X67.199 Y64.215 F9000
G1 X77.801 Y64.215 E0.4364 F1500
G1 X78.324 Y64.516 E0.0248
G1 X80.650 Y68.545 E0.1915
G1 X85.301 Y68.545 E0.1915
G1 X85.824 Y68.846 E0.0248
G1 X88.625 Y73.699 E0.2306
G1 X88.625 Y74.301 E0.0248
G1 X85.824 Y79.154 E0.2306
G1 X85.301 Y79.455 E0.0248
G1 X80.650 Y79.455 E0.1915
G1 X78.324 Y83.484 E0.1915
G1 X77.801 Y83.785 E0.0248
G1 X67.199 Y83.785 E0.4364
G1 X66.676 Y83.484 E0.0248
G1 X64.350 Y79.455 E0.1915
G1 X59.699 Y79.455 E0.1915
G1 X59.176 Y79.154 E0.0248
G1 X56.375 Y74.301 E0.2306
G1 X56.375 Y73.699 E0.0248
G1 X59.176 Y68.846 E0.2306
G1 X59.699 Y68.545 E0.0248
G1 X64.350 Y68.545 E0.1915
G1 X66.676 Y64.516 E0.1915
G1 X67.199 Y64.215 E0.0248
G1 E-1.6000 F2400
G1 X72.199 Y64.215 F3000
G1 Z0.700 F1800
G1 X67.319 Y64.665 F9000
G1 Z0.200 F1800
G1 E1.6000 F2400
G1 X77.681 Y64.665 E0.4265 F1500
G1 X77.994 Y64.846 E0.0149
G1 X80.390 Y68.995 E0.1972
G1 X85.181 Y68.995 E0.1972
G1 X85.494 Y69.176 E0.0149
G1 X88.175 Y73.819 E0.2207
G1 X88.175 Y74.181 E0.0149
G1 X85.494 Y78.824 E0.2207
G1 X85.181 Y79.005 E0.0149
G1 X80.390 Y79.005 E0.1972
G1 X77.994 Y83.154 E0.1972
G1 X77.681 Y83.335 E0.0149
G1 X67.319 Y83.335 E0.4265
G1 X67.006 Y83.154 E0.0149
G1 X64.610 Y79.005 E0.1972
G1 X59.819 Y79.005 E0.1972
G1 X59.506 Y78.824 E0.0149
G1 X56.825 Y74.181 E0.2207
G1 X56.825 Y73.819 E0.0149
G1 X59.506 Y69.176 E0.2207
G1 X59.819 Y68.995 E0.0149
G1 X64.610 Y68.995 E0.1972
G1 X67.006 Y64.846 E0.1972
G1 X67.319 Y64.665 E0.0149
G1 E-1.6000 F2400
G1 X72.319 Y64.665 F3000
G1 Z0.700 F1800
G1 X67.440 Y65.115 F9000
G1 Z0.200 F1800
G1 E1.6000 F2400
G1 X77.560 Y65.115 E0.4166 F1500
G1 X77.665 Y65.175 E0.0050
G1 X80.130 Y69.445 E0.2029
G1 X85.060 Y69.445 E0.2029
G1 X85.165 Y69.505 E0.0050
G1 X87.725 Y73.940 E0.2108
G1 X87.725 Y74.060 E0.0050
G1 X85.165 Y78.495 E0.2108
G1 X85.060 Y78.555 E0.0050
G1 X80.130 Y78.555 E0.2029
G1 X77.665 Y82.825 E0.2029
G1 X77.560 Y82.885 E0.0050
G1 X67.440 Y82.885 E0.4166
G1 X67.335 Y82.825 E0.0050
G1 X64.870 Y78.555 E0.2029
G1 X59.940 Y78.555 E0.2029
G1 X59.835 Y78.495 E0.0050
G1 X57.275 Y74.060 E0.2108
G1 X57.275 Y73.940 E0.0050
G1 X59.835 Y69.505 E0.2108
G1 X59.940 Y69.445 E0.0050
G1 X64.870 Y69.445 E0.2029
G1 X67.335 Y65.175 E0.2029
G1 X67.440 Y65.115 E0.0050
G1 E-1.6000 F2400
G1 X72.440 Y65.115 F3000
G1 Z0.700 F1800
; outer perimeter
G1 X67.643 Y65.587 F9000
G1 Z0.200 F1800
G1 E1.6000 F2400
G1 X77.357 Y65.587 E0.3998 F600
G1 X79.714 Y69.670 E0.1940
G1 X77.214 Y74.000 E0.2058
G1 X79.714 Y78.330 E0.2058
G1 X77.357 Y82.413 E0.1940
G1 X67.643 Y82.413 E0.3998
G1 X65.286 Y78.330 E0.1940
G1 X67.786 Y74.000 E0.2058
G1 X65.286 Y69.670 E0.2058
G1 X67.643 Y65.587 E0.1940
G1 E-1.6000 F2400
G1 X72.643 Y65.587 F3000
G1 Z0.700 F1800
; inner perimeter
G1 X77.071 Y66.082 F9000
G1 Z0.200 F1800
G1 E1.6000 F2400
G1 X79.143 Y69.670 E0.1705 F1050
G1 X76.643 Y74.000 E0.2058
G1 X79.143 Y78.330 E0.2058
G1 X77.071 Y81.918 E0.1705
G1 X67.929 Y81.918 E0.3763
G1 X65.857 Y78.330 E0.1705
G1 X68.357 Y74.000 E0.2058
G1 X65.857 Y69.670 E0.2058
G1 X67.929 Y66.082 E0.1705
G1 X77.071 Y66.082 E0.3763
G1 E-1.6000 F2400
G1 X79.143 Y69.670 F3000
G1 X78.714 Y70.412 F3000
G1 Z0.700 F1800
; solid layer
G1 X76.179 Y66.478 F9000
G1 Z0.200 F1800
G1 E1.6000 F2400
G1 X77.750 Y68.049 E0.0914 F1200
G1 X78.685 Y69.670 E0.0770
G1 X78.680 Y69.679 E0.0005
G1 X75.479 Y66.478 E0.1863
G1 X74.779 Y66.478 E0.0288
G1 X78.424 Y70.123 E0.2122
G1 X78.167 Y70.567 E0.0211
G1 X74.079 Y66.478 E0.2380
G1 X73.379 Y66.478 E0.0288
G1 X77.911 Y71.011 E0.2638
G1 X77.655 Y71.455 E0.0211
G1 X72.679 Y66.478 E0.2897
G1 X71.979 Y66.478 E0.0288
G1 X77.399 Y71.898 E0.3155
G1 X77.143 Y72.342 E0.0211
G1 X71.279 Y66.478 E0.3413
G1 X70.579 Y66.478 E0.0288
G1 X76.886 Y72.786 E0.3672
G1 X76.630 Y73.230 E0.0211
G1 X69.879 Y66.478 E0.3930
G1 X69.178 Y66.478 E0.0288
G1 X76.374 Y73.674 E0.4188
G1 X76.185 Y74.000 E0.0155
G1 X76.438 Y74.438 E0.0208
G1 X68.478 Y66.478 E0.4633
G1 X68.157 Y66.478 E0.0132
G1 X68.019 Y66.718 E0.0114
G1 X77.395 Y76.094 E0.5458
G1 X78.351 Y77.751 E0.0787
G1 X67.762 Y67.162 E0.6163
G1 X67.506 Y67.606 E0.0211
G1 X78.519 Y78.619 E0.6410
G1 X78.263 Y79.062 E0.0211
G1 X67.250 Y68.050 E0.6410
G1 X66.994 Y68.494 E0.0211
G1 X78.006 Y79.506 E0.6410
G1 X77.750 Y79.950 E0.0211
G1 X66.737 Y68.937 E0.6410
G1 X66.481 Y69.381 E0.0211
G1 X77.494 Y80.394 E0.6410
G1 X77.238 Y80.838 E0.0211
G1 X66.649 Y70.249 E0.6163
G1 X67.605 Y71.906 E0.0787
G1 X76.981 Y81.282 E0.5458
G1 X76.843 Y81.522 E0.0114
G1 X76.522 Y81.522 E0.0132
G1 X68.562 Y73.562 E0.4633
G1 X68.815 Y74.000 E0.0208
G1 X68.626 Y74.326 E0.0155
G1 X75.822 Y81.522 E0.4188
G1 X75.122 Y81.522 E0.0288
G1 X68.370 Y74.770 E0.3930
G1 X68.114 Y75.214 E0.0211
G1 X74.421 Y81.522 E0.3672
G1 X73.721 Y81.522 E0.0288
G1 X67.857 Y75.658 E0.3413
G1 X67.601 Y76.102 E0.0211
G1 X73.021 Y81.522 E0.3155
G1 X72.321 Y81.522 E0.0288
G1 X67.345 Y76.545 E0.2897
G1 X67.089 Y76.989 E0.0211
G1 X71.621 Y81.522 E0.2638
G1 X70.921 Y81.522 E0.0288
G1 X66.833 Y77.433 E0.2380
G1 X66.576 Y77.877 E0.0211
G1 X70.221 Y81.522 E0.2122
G1 X69.521 Y81.522 E0.0288
G1 X66.320 Y78.321 E0.1863
G1 X66.315 Y78.330 E0.0005
G1 X67.250 Y79.951 E0.0770
G1 X68.821 Y81.522 E0.0914
G1 E0.0000 F4800
G1 X67.250 Y79.951 F3000
G1 X66.315 Y78.330 F3000
G1 X66.320 Y78.321 F3000
G1 X66.954 Y78.954 F3000
G1 Z0.700 F1800
; process Process2
; layer 2, Z = 0.200
M204 P2000
; TOOL CHANGE
T1
; tool H0.200 W0.495
; outer perimeter
G1 X77.786 Y74.000 F9000
G1 Z0.200 F1800
G1 X80.143 Y69.917 E0.1940 F600
G1 X84.857 Y69.917 E0.1940
G1 X87.214 Y74.000 E0.1940
G1 X84.857 Y78.083 E0.1940
G1 X80.143 Y78.083 E0.1940
G1 X77.786 Y74.000 E0.1940
G1 X80.143 Y69.917 F3000
G1 X80.429 Y69.917 F3000
; inner perimeter
G1 X80.429 Y70.412 F9000
G1 X84.571 Y70.412 E0.1705 F1050
G1 X86.643 Y74.000 E0.1705
G1 X84.571 Y77.588 E0.1705
G1 X80.429 Y77.588 E0.1705
G1 X78.357 Y74.000 E0.1705
G1 X80.429 Y70.412 E0.1705
G1 X84.571 Y70.412 F3000
G1 X85.000 Y71.155 F3000
; solid layer
G1 X84.209 Y70.808 F9000
G1 X84.526 Y71.126 E0.0185 F1200
G1 X85.482 Y72.782 E0.0787
G1 X83.509 Y70.808 E0.1149
G1 X82.809 Y70.808 E0.0288
G1 X86.118 Y74.117 E0.1926
G1 X85.861 Y74.561 E0.0211
G1 X82.109 Y70.808 E0.2184
G1 X81.408 Y70.808 E0.0288
G1 X85.605 Y75.005 E0.2443
G1 X85.349 Y75.449 E0.0211
G1 X80.708 Y70.808 E0.2701
G1 X80.657 Y70.808 E0.0021
G1 X80.420 Y71.220 E0.0196
G1 X85.093 Y75.893 E0.2720
G1 X84.836 Y76.336 E0.0211
G1 X80.164 Y71.664 E0.2720
G1 X79.907 Y72.107 E0.0211
G1 X84.580 Y76.780 E0.2720
G1 X84.343 Y77.192 E0.0196
G1 X84.292 Y77.192 E0.0021
G1 X79.651 Y72.551 E0.2701
G1 X79.395 Y72.995 E0.0211
G1 X83.592 Y77.192 E0.2443
G1 X82.892 Y77.192 E0.0288
G1 X79.139 Y73.439 E0.2184
G1 X78.882 Y73.883 E0.0211
